;FLAVOR:Marlin
;TIME:5575
;Filament used: 5.53395m
;Layer height: 0.3
;Generated with Cura_SteamEngine 3.6.0
M140 S60
M105
M190 S60
M104 S205
M105
M109 S205
M82 ;absolute extrusion mode
G28 ;Home
G1 Z15.0 F6000 ;Move the platform down 15mm
;Prime the extruder
G92 E0
G1 F200 E3
G92 E0
G92 E0
G1 F1500 E-6.5
;LAYER_COUNT:61
;LAYER:0
M107
G0 F1050 X47.556 Y84.822 Z0.3
;TYPE:SKIRT
G1 F1500 E0
G1 F1200 X54.059 Y81.482 E0.36893
G1 X60.359 Y78.108 E0.72959
G1 X64.989 Y75.275 E1.00351
G1 X69.458 Y72.181 E1.27781
G1 X73.752 Y68.834 E1.55256
G1 X75.783 Y67.108 E1.68707
G1 X79.793 Y63.394 E1.9629
G1 X83.561 Y59.487 E2.23682
G1 X87.1 Y55.373 E2.51068
G1 X90.407 Y51.059 E2.785
G1 X93.663 Y46.258 E3.07775
G1 X94.13 Y45.689 E3.11489
G1 X95.287 Y44.52 E3.1979
G1 X95.883 Y44.025 E3.237
G1 X101.376 Y40.294 E3.5721
G1 X105.664 Y36.985 E3.84543
G1 X109.786 Y33.41 E4.12079
G1 X111.74 Y31.568 E4.25631
G1 X112.178 Y31.21 E4.28485
G1 X112.661 Y30.917 E4.31336
G1 X113.144 Y30.709 E4.3399
G1 X114.773 Y30.13 E4.42715
G1 X115.318 Y29.979 E4.45569
G1 X116.003 Y29.901 E4.49048
G1 X118.557 Y29.83 E4.61942
G1 X124.366 Y29.424 E4.91329
G1 X124.931 Y29.424 E4.9418
G1 X125.23 Y29.457 E4.95698
G1 X126.86 Y29.698 E5.04013
G1 X127.412 Y29.82 E5.06866
G1 X128.055 Y30.073 E5.10353
G1 X129.353 Y30.718 E5.17668
G1 X129.84 Y31.005 E5.20521
G1 X130.337 Y31.409 E5.23753
G1 X134.74 Y35.618 E5.54492
G1 X138.879 Y39.133 E5.81895
G1 X143.246 Y42.436 E6.09527
G1 X146.243 Y44.541 E6.2801
G1 X146.539 Y44.77 E6.29898
G1 X147.576 Y45.654 E6.36775
G1 X147.91 Y45.974 E6.39109
G1 X148.982 Y47.127 E6.47054
G1 X149.411 Y47.678 E6.50578
G1 X151.931 Y51.573 E6.7399
G1 X152.056 Y51.779 E6.75206
G1 X152.779 Y53.059 E6.82625
G1 X153.021 Y53.569 E6.85473
G1 X153.19 Y54.109 E6.88329
G1 X153.292 Y54.852 E6.92114
G1 X153.378 Y56.822 E7.02065
G1 X153.375 Y57.224 E7.04094
G1 X153.301 Y58.518 E7.10634
G1 X153.264 Y58.884 E7.12491
G1 X152.285 Y65.404 E7.45763
G1 X152.143 Y66.014 E7.48924
G1 X150.884 Y70.002 E7.70028
G1 X150.759 Y70.344 E7.71866
G1 X149.449 Y73.47 E7.88971
G1 X149.257 Y73.865 E7.91187
G1 X147.284 Y77.419 E8.11701
G1 X147.115 Y77.698 E8.13347
G1 X146.045 Y79.302 E8.23077
G1 X145.892 Y79.515 E8.24401
G1 X143.785 Y82.265 E8.41884
G1 X143.633 Y82.451 E8.43096
G1 X140.414 Y86.166 E8.67903
G1 X136.995 Y90.425 E8.95465
G1 X133.833 Y94.856 E9.22936
G1 X130.915 Y99.474 E9.50503
G1 X129.95 Y101.119 E9.60128
G1 X129.63 Y101.585 E9.62981
G1 X129.095 Y102.138 E9.66864
G1 X127.99 Y103.08 E9.74191
G1 X127.535 Y103.415 E9.77043
G1 X126.995 Y103.702 E9.80129
G1 X123.437 Y105.255 E9.9972
G1 X118.452 Y107.592 E10.27504
G1 X113.678 Y110.168 E10.5488
G1 X109.049 Y113.016 E10.82308
G1 X104.59 Y116.119 E11.09723
G1 X100.304 Y119.478 E11.37203
G1 X98.257 Y121.226 E11.50787
G1 X96.277 Y123.017 E11.64261
G1 X92.372 Y126.863 E11.91921
G1 X88.724 Y130.887 E12.19331
G1 X85.736 Y134.539 E12.43143
G1 X85.348 Y134.95 E12.45995
G1 X84.7 Y135.435 E12.5008
G1 X83.408 Y136.211 E12.57686
G1 X83.136 Y136.36 E12.59251
G1 X78.674 Y138.589 E12.84422
G1 X78.011 Y138.849 E12.88016
G1 X76.616 Y139.258 E12.95352
G1 X76.167 Y139.363 E12.97679
G1 X75.239 Y139.522 E13.02431
G1 X74.93 Y139.562 E13.04003
G1 X71.709 Y139.859 E13.20327
G1 X66.262 Y140.504 E13.48007
G1 X60.921 Y141.445 E13.75376
G1 X54.375 Y143.017 E14.0935
G1 X53.817 Y143.11 E14.12205
G1 X53.206 Y143.121 E14.15289
G1 X51.763 Y143.036 E14.22583
G1 X51.202 Y142.963 E14.25438
G1 X50.542 Y142.768 E14.28911
G1 X49.002 Y142.166 E14.37256
G1 X48.491 Y141.924 E14.40109
G1 X48.186 Y141.733 E14.41925
G1 X45.244 Y139.703 E14.59963
G1 X41.168 Y137.131 E14.84286
G1 X40.712 Y136.796 E14.87141
G1 X40.27 Y136.357 E14.90285
G1 X39.151 Y135.057 E14.98941
G1 X38.814 Y134.604 E15.01791
G1 X38.543 Y134.108 E15.04643
G1 X38.349 Y133.588 E15.07444
G1 X37.679 Y131.335 E15.19306
G1 X35.917 Y126.177 E15.46813
G1 X33.857 Y121.108 E15.74425
G1 X32.746 Y118.673 E15.87932
G1 X30.885 Y114.949 E16.08941
G1 X30.605 Y114.219 E16.12887
G1 X30.179 Y112.666 E16.21014
G1 X30.069 Y112.112 E16.23864
G1 X30.044 Y111.374 E16.27591
G1 X30.472 Y104.081 E16.64458
G1 X30.545 Y103.52 E16.67313
G1 X30.696 Y102.975 E16.70167
G1 X30.819 Y102.67 E16.71827
G1 X31.493 Y101.176 E16.80098
G1 X31.745 Y100.705 E16.82794
G1 X34.327 Y96.563 E17.07425
G1 X34.659 Y96.106 E17.10276
G1 X34.899 Y95.845 E17.12065
G1 X40.379 Y90.388 E17.51093
G1 X40.539 Y90.236 E17.52207
G1 X42.579 Y88.417 E17.66
G1 X42.778 Y88.251 E17.67308
G1 X45.315 Y86.269 E17.83555
G1 X45.601 Y86.065 E17.85328
G1 X47.206 Y85.024 E17.94982
G1 X47.556 Y84.822 E17.97021
G0 F1050 X47.738 Y85.178
G1 F1200 X54.275 Y81.821 E18.34106
G1 X60.551 Y78.459 E18.70036
G1 X65.213 Y75.607 E18.97617
G1 X69.698 Y72.501 E19.25148
G1 X73.998 Y69.149 E19.52662
G1 X76.055 Y67.402 E19.66282
G1 X80.071 Y63.683 E19.93904
G1 X83.852 Y59.762 E20.21392
G1 X87.414 Y55.621 E20.48958
G1 X90.726 Y51.301 E20.76428
G1 X93.994 Y46.482 E21.05812
G1 X94.414 Y45.971 E21.0915
G1 X95.571 Y44.802 E21.17451
G1 X96.107 Y44.356 E21.2097
G1 X101.605 Y40.622 E21.54509
G1 X105.924 Y37.288 E21.82044
G1 X110.052 Y33.709 E22.09616
G1 X112.014 Y31.859 E22.23224
G1 X112.431 Y31.521 E22.25933
G1 X112.893 Y31.249 E22.28639
G1 X113.278 Y31.086 E22.30749
G1 X114.907 Y30.507 E22.39473
G1 X115.425 Y30.365 E22.42184
G1 X116.014 Y30.3 E22.45174
G1 X118.596 Y30.229 E22.58209
G1 X124.394 Y29.823 E22.87541
G1 X125.172 Y29.853 E22.9147
G1 X126.802 Y30.094 E22.99785
G1 X127.325 Y30.211 E23.0249
G1 X127.877 Y30.431 E23.05488
G1 X129.175 Y31.076 E23.12803
G1 X129.636 Y31.35 E23.15509
G1 X130.061 Y31.698 E23.18281
G1 X134.479 Y35.921 E23.49124
G1 X138.624 Y39.442 E23.7657
G1 X143.01 Y42.759 E24.04321
G1 X146.013 Y44.868 E24.2284
G1 X146.279 Y45.074 E24.24538
G1 X147.316 Y45.958 E24.31415
G1 X147.618 Y46.247 E24.33524
G1 X148.69 Y47.4 E24.41469
G1 X149.076 Y47.895 E24.44637
G1 X151.596 Y51.79 E24.68048
G1 X151.708 Y51.975 E24.6914
G1 X152.431 Y53.255 E24.76558
G1 X152.659 Y53.741 E24.79267
G1 X152.812 Y54.255 E24.81974
G1 X152.893 Y54.869 E24.85099
G1 X152.979 Y56.839 E24.9505
G1 X152.976 Y57.202 E24.96882
G1 X152.902 Y58.496 E25.03423
G1 X152.868 Y58.825 E25.05092
G1 X151.889 Y65.345 E25.38365
G1 X151.762 Y65.894 E25.41208
G1 X150.503 Y69.882 E25.62313
G1 X150.39 Y70.189 E25.63964
G1 X149.08 Y73.315 E25.81069
G1 X148.908 Y73.671 E25.83064
G1 X146.935 Y77.225 E26.03578
G1 X146.782 Y77.476 E26.05061
G1 X145.712 Y79.08 E26.14791
G1 X145.575 Y79.271 E26.15978
G1 X143.468 Y82.021 E26.33461
G1 X143.331 Y82.189 E26.34555
G1 X140.107 Y85.91 E26.59401
G1 X136.666 Y90.196 E26.87139
G1 X133.513 Y94.615 E27.14534
G1 X130.561 Y99.287 E27.42423
G1 X129.605 Y100.916 E27.51955
G1 X129.3 Y101.357 E27.54661
G1 X128.835 Y101.834 E27.58023
G1 X127.73 Y102.776 E27.65351
G1 X127.298 Y103.092 E27.68052
G1 X126.835 Y103.335 E27.70691
G1 X123.287 Y104.884 E27.90228
G1 X118.271 Y107.235 E28.18184
G1 X113.471 Y109.825 E28.45708
G1 X108.845 Y112.671 E28.73118
G1 X104.361 Y115.792 E29.00688
G1 X100.043 Y119.176 E29.28374
G1 X97.996 Y120.924 E29.41958
G1 X95.987 Y122.741 E29.55628
G1 X92.086 Y126.583 E29.83259
G1 X88.41 Y130.637 E30.10876
G1 X85.426 Y134.285 E30.3466
G1 X85.057 Y134.674 E30.37366
G1 X84.494 Y135.092 E30.40905
G1 X83.202 Y135.868 E30.4851
G1 X82.957 Y136.003 E30.49922
G1 X78.495 Y138.232 E30.75093
G1 X77.899 Y138.466 E30.78324
G1 X76.504 Y138.875 E30.8566
G1 X76.099 Y138.968 E30.87758
G1 X75.171 Y139.127 E30.92509
G1 X74.893 Y139.164 E30.93924
G1 X71.665 Y139.461 E31.10283
G1 X66.2 Y140.109 E31.38056
G1 X60.841 Y141.053 E31.65516
G1 X54.282 Y142.628 E31.99558
G1 X53.752 Y142.715 E32.02268
G1 X53.229 Y142.722 E32.04908
G1 X51.786 Y142.637 E32.12202
G1 X51.255 Y142.565 E32.14907
G1 X50.687 Y142.396 E32.17897
G1 X49.147 Y141.794 E32.26242
G1 X48.664 Y141.562 E32.28946
G1 X48.413 Y141.404 E32.30442
G1 X45.469 Y139.372 E32.48495
G1 X41.381 Y136.793 E32.72887
G1 X40.95 Y136.474 E32.75593
G1 X40.574 Y136.097 E32.7828
G1 X39.455 Y134.797 E32.86936
G1 X39.136 Y134.365 E32.89647
G1 X38.885 Y133.891 E32.92353
G1 X38.732 Y133.474 E32.94595
G1 X38.061 Y131.218 E33.06473
G1 X36.285 Y126.018 E33.34203
G1 X34.226 Y120.952 E33.618
G1 X33.105 Y118.496 E33.75424
G1 X31.243 Y114.77 E33.96445
G1 X30.991 Y114.113 E33.99996
G1 X30.565 Y112.56 E34.08122
G1 X30.462 Y112.034 E34.10827
G1 X30.443 Y111.397 E34.14043
G1 X30.871 Y104.104 E34.50911
G1 X30.942 Y103.573 E34.53615
G1 X31.183 Y102.835 E34.57532
G1 X31.857 Y101.341 E34.65804
G1 X32.084 Y100.917 E34.68231
G1 X34.666 Y96.775 E34.92862
G1 X34.983 Y96.342 E34.9557
G1 X35.181 Y96.128 E34.97042
G1 X40.661 Y90.671 E35.3607
G1 X40.805 Y90.535 E35.37069
G1 X42.845 Y88.716 E35.50862
G1 X43.025 Y88.566 E35.52045
G1 X45.562 Y86.584 E35.68292
G1 X45.819 Y86.401 E35.69884
G1 X47.424 Y85.36 E35.79538
G1 X47.738 Y85.178 E35.8137
G0 F1050 X47.921 Y85.533
G1 F1200 X54.479 Y82.165 E36.18574
G1 X60.757 Y78.802 E36.54516
G1 X65.427 Y75.944 E36.82146
G1 X69.934 Y72.824 E37.09809
G1 X74.259 Y69.453 E37.37482
G1 X76.315 Y67.706 E37.51097
G1 X80.357 Y63.963 E37.78898
G1 X84.143 Y60.036 E38.06426
G1 X87.719 Y55.88 E38.34095
G1 X91.058 Y51.523 E38.61797
G1 X94.325 Y46.707 E38.91165
G1 X94.699 Y46.252 E38.94137
G1 X95.856 Y45.083 E39.02438
G1 X96.332 Y44.687 E39.05562
G1 X101.845 Y40.943 E39.39193
G1 X106.167 Y37.607 E39.66746
G1 X110.331 Y33.996 E39.94561
G1 X112.289 Y32.15 E40.08141
G1 X112.683 Y31.833 E40.10693
G1 X113.122 Y31.582 E40.13245
G1 X113.412 Y31.463 E40.14827
G1 X115.041 Y30.884 E40.23551
G1 X115.53 Y30.753 E40.26106
G1 X116.025 Y30.7 E40.28618
G1 X118.611 Y30.629 E40.41674
G1 X124.422 Y30.222 E40.71071
G1 X125.113 Y30.248 E40.7456
G1 X126.743 Y30.489 E40.82876
G1 X127.236 Y30.603 E40.85429
G1 X127.699 Y30.789 E40.87947
G1 X128.997 Y31.434 E40.95262
G1 X129.431 Y31.694 E40.97815
G1 X129.784 Y31.987 E41.0013
G1 X134.208 Y36.216 E41.31016
G1 X138.378 Y39.757 E41.58623
G1 X142.76 Y43.072 E41.86352
G1 X145.783 Y45.195 E42.04994
G1 X146.02 Y45.379 E42.06508
G1 X147.057 Y46.263 E42.13385
G1 X147.325 Y46.519 E42.15255
G1 X148.397 Y47.672 E42.232
G1 X148.74 Y48.113 E42.2602
G1 X151.26 Y52.008 E42.49431
G1 X151.359 Y52.172 E42.50398
G1 X152.082 Y53.452 E42.57817
G1 X152.295 Y53.911 E42.6037
G1 X152.434 Y54.397 E42.62921
G1 X152.493 Y54.886 E42.65407
G1 X152.579 Y56.856 E42.75358
G1 X152.577 Y57.179 E42.76988
G1 X152.503 Y58.473 E42.83529
G1 X152.473 Y58.765 E42.8501
G1 X151.494 Y65.285 E43.18283
G1 X151.381 Y65.773 E43.2081
G1 X150.122 Y69.761 E43.41915
G1 X150.021 Y70.035 E43.43389
G1 X148.711 Y73.161 E43.60494
G1 X148.558 Y73.477 E43.62265
G1 X146.585 Y77.031 E43.82779
G1 X146.449 Y77.254 E43.84097
G1 X145.379 Y78.858 E43.93828
G1 X145.257 Y79.028 E43.94884
G1 X143.15 Y81.778 E44.12367
G1 X143.029 Y81.927 E44.13335
G1 X139.789 Y85.666 E44.38303
G1 X136.359 Y89.939 E44.65955
G1 X133.165 Y94.415 E44.93704
G1 X130.237 Y99.049 E45.21367
G1 X129.26 Y100.714 E45.31109
G1 X128.97 Y101.128 E45.3366
G1 X128.576 Y101.529 E45.36497
G1 X127.471 Y102.471 E45.43825
G1 X127.062 Y102.768 E45.46376
G1 X126.675 Y102.969 E45.48576
G1 X123.074 Y104.54 E45.68403
G1 X118.104 Y106.871 E45.96106
G1 X113.285 Y109.471 E46.23739
G1 X108.6 Y112.353 E46.51497
G1 X104.131 Y115.464 E46.78977
G1 X99.794 Y118.863 E47.06784
G1 X97.731 Y120.624 E47.20472
G1 X95.709 Y122.453 E47.34232
G1 X91.8 Y126.303 E47.6192
G1 X88.115 Y130.367 E47.89605
G1 X85.117 Y134.032 E48.135
G1 X84.767 Y134.397 E48.16052
G1 X84.288 Y134.749 E48.19052
G1 X82.996 Y135.525 E48.26658
G1 X82.778 Y135.645 E48.27914
G1 X78.316 Y137.874 E48.53085
G1 X77.786 Y138.082 E48.55958
G1 X76.391 Y138.491 E48.63294
G1 X76.031 Y138.574 E48.65158
G1 X75.103 Y138.733 E48.6991
G1 X74.857 Y138.766 E48.71162
G1 X71.617 Y139.065 E48.87583
G1 X66.135 Y139.714 E49.15441
G1 X60.774 Y140.658 E49.42912
G1 X54.188 Y142.24 E49.77094
G1 X53.689 Y142.318 E49.79642
G1 X53.253 Y142.322 E49.81843
G1 X51.81 Y142.237 E49.89137
G1 X51.309 Y142.168 E49.9169
G1 X50.833 Y142.023 E49.94201
G1 X49.293 Y141.421 E50.02545
G1 X48.64 Y141.075 E50.06275
G1 X45.665 Y139.022 E50.24516
G1 X41.595 Y136.454 E50.48802
G1 X41.19 Y136.152 E50.51351
G1 X40.877 Y135.836 E50.53596
G1 X39.758 Y134.536 E50.62252
G1 X39.459 Y134.128 E50.64805
G1 X39.229 Y133.678 E50.67355
G1 X39.116 Y133.36 E50.69058
G1 X38.442 Y131.094 E50.80989
G1 X36.668 Y125.901 E51.08682
G1 X34.589 Y120.784 E51.36556
G1 X33.464 Y118.318 E51.50234
G1 X31.601 Y114.591 E51.71261
G1 X31.377 Y114.008 E51.74413
G1 X30.951 Y112.455 E51.8254
G1 X30.856 Y111.958 E51.85094
G1 X30.842 Y111.421 E51.87805
G1 X31.27 Y104.128 E52.24672
G1 X31.34 Y103.627 E52.27225
G1 X31.548 Y102.999 E52.30564
G1 X32.222 Y101.505 E52.38835
G1 X32.423 Y101.128 E52.40991
G1 X35.005 Y96.986 E52.65622
G1 X35.463 Y96.412 E52.69328
G1 X40.943 Y90.955 E53.08356
G1 X41.071 Y90.834 E53.09245
G1 X43.111 Y89.015 E53.23038
G1 X43.271 Y88.881 E53.24091
G1 X45.808 Y86.899 E53.40338
G1 X46.037 Y86.736 E53.41757
G1 X47.642 Y85.695 E53.51411
G1 X47.921 Y85.533 E53.53039
G1 F1500 E47.03039
;MESH:big_hero_cut2.stl
G0 F1050 X47.392 Y88.869
G0 X48.1 Y89.939
G0 X51.229 Y131.753
G0 X51.152 Y131.815
;TYPE:WALL-INNER
G1 F1500 E53.53039
G1 F1200 X50.871 Y131.832 E53.5446
G1 X48.643 Y131.969 E53.65725
G1 X47.136 Y133.154 E53.754
G1 X46.083 Y133.85 E53.81769
G1 X44.877 Y133.892 E53.87859
G1 X43.675 Y133.276 E53.94675
G1 X42.741 Y132.191 E54.019
G1 X42.539 Y130.867 E54.08659
G1 X42.555 Y129.486 E54.15629
G1 X42.938 Y127.864 E54.24039
G1 X43.093 Y126.476 E54.31087
G1 X44.12 Y123.441 E54.47257
G1 X44.815 Y122.082 E54.5496
G1 X45.862 Y120.767 E54.63443
G1 X46.554 Y119.012 E54.72963
G1 X46.344 Y117.265 E54.81843
G1 X46.297 Y115.955 E54.88458
G1 X46.491 Y115.655 E54.90261
G1 X46.281 Y115.485 E54.91624
G1 X46.238 Y114.271 E54.97755
G1 X46.38 Y112.995 E55.04234
G1 X46.541 Y112.581 E55.06475
G1 X46.415 Y112.505 E55.07218
G1 X46.477 Y111.456 E55.12521
G1 X46.79 Y109.806 E55.20996
G1 X47.042 Y108.744 E55.26505
G1 X47.049 Y108.745 E55.2654
G1 X47.696 Y105.969 E55.40925
G1 X45.434 Y105.255 E55.52895
G1 X44.064 Y106.262 E55.61476
G1 X42.763 Y107.034 E55.6911
G1 X41.336 Y108.262 E55.78611
G1 X40.504 Y109.706 E55.87021
G1 X40.108 Y111.371 E55.95658
G1 X39.988 Y111.604 E55.96981
G1 X39.844 Y111.887 E55.98583
G1 X39.653 Y111.634 E55.99504
G1 X39.141 Y110.957 E56.03788
G1 X36.984 Y111.815 E56.15503
G1 X36.964 Y113.525 E56.24133
G1 X36.424 Y114.275 E56.28797
G1 X35.649 Y113.881 E56.33184
G1 X34.989 Y112.879 E56.39239
G1 X34.624 Y111.519 E56.46345
G1 X34.703 Y110.194 E56.53044
G1 X34.863 Y108.752 E56.60366
G1 X34.88 Y107.237 E56.68011
G1 X35.046 Y104.461 E56.82046
G1 X35.666 Y103.089 E56.89644
G1 X36.444 Y101.742 E56.97494
G1 X37.401 Y100.41 E57.05771
G1 X38.19 Y99.043 E57.13736
G1 X39.285 Y97.91 E57.21688
G1 X40.594 Y96.782 E57.30408
G1 X44.096 Y93.161 E57.55829
G1 X45.372 Y92.062 E57.64328
G1 X48.089 Y89.923 E57.81779
G1 X49.269 Y89.144 E57.88914
G1 X50.519 Y88.403 E57.96247
G1 X53.362 Y87.047 E58.12143
G1 X54.716 Y86.326 E58.19884
G1 X56.167 Y85.632 E58.28001
G1 X57.413 Y84.893 E58.35312
G1 X58.879 Y84.443 E58.43051
G1 X60.27 Y83.779 E58.50829
G1 X61.593 Y83.532 E58.57621
G1 X64.378 Y83.699 E58.71701
G1 X65.966 Y84 E58.79858
G1 X67.57 Y84.728 E58.88747
G1 X71.49 Y83.953 E59.08912
G1 X72.232 Y82.009 E59.19413
G1 X71.832 Y80.271 E59.28413
G1 X71.846 Y79.008 E59.34788
G1 X72.484 Y77.903 E59.41227
G1 X73.563 Y77.412 E59.47209
G1 X74.927 Y76.879 E59.546
G1 X76.367 Y76.766 E59.61889
G1 X77.7 Y76.846 E59.68628
G1 X79.138 Y77.332 E59.76288
G1 X80.468 Y78.1 E59.84039
G1 X81.793 Y78.957 E59.92002
G1 X82.913 Y80.042 E59.99872
G1 X83.877 Y81.381 E60.08198
G1 X84.299 Y82.578 E60.14603
G1 X84.169 Y83.743 E60.20519
G1 X83.543 Y84.963 E60.27439
G1 X81.316 Y86.603 E60.41396
G1 X79.902 Y88.209 E60.52194
G1 X80.772 Y89.907 E60.61823
G1 X80.757 Y91.315 E60.68928
G1 X81.104 Y93.109 E60.7815
G1 X82.266 Y94.591 E60.87654
G1 X84.627 Y98.166 E61.09274
G1 X85.799 Y100.83 E61.23962
G1 X86.093 Y102.357 E61.31809
G1 X86.44 Y103.88 E61.39692
G1 X86.77 Y105.544 E61.48253
G1 X87.032 Y107.179 E61.56609
G1 X87.416 Y110.389 E61.72924
G1 X87.469 Y111.883 E61.80469
G1 X87.436 Y114.838 E61.95382
G1 X87.35 Y116.25 E62.02521
G1 X86.857 Y119.669 E62.19953
