;FLAVOR:Marlin
;TIME:7435
;Filament used: 7.5022m
;Layer height: 0.3
;Generated with Cura_SteamEngine 3.6.0
M140 S60
M105
M190 S60
M104 S205
M105
M109 S205
M82 ;absolute extrusion mode
G28 ;Home
G1 Z15.0 F6000 ;Move the platform down 15mm
;Prime the extruder
G92 E0
G1 F200 E3
G92 E0
G92 E0
G1 F1500 E-6.5
;LAYER_COUNT:70
;LAYER:0
M107
G0 F1050 X51.374 Y32.08 Z0.3
;TYPE:SKIRT
G1 F1500 E0
G1 F1200 X51.621 Y31.722 E0.02195
G1 X53.285 Y29.573 E0.15911
G1 X53.662 Y29.152 E0.18763
G1 X54.168 Y28.736 E0.22069
G1 X55.687 Y27.682 E0.31399
G1 X56.177 Y27.391 E0.34275
G1 X57.606 Y26.676 E0.42339
G1 X58.128 Y26.459 E0.45192
G1 X58.588 Y26.336 E0.47595
G1 X60.488 Y25.944 E0.57385
G1 X61.048 Y25.869 E0.60236
G1 X61.398 Y25.862 E0.62003
G1 X65.123 Y25.957 E0.80807
G1 X65.686 Y26.012 E0.83662
G1 X65.992 Y26.076 E0.8524
G1 X67.799 Y26.528 E0.9464
G1 X68.458 Y26.755 E0.98157
G1 X70.358 Y27.603 E1.08657
G1 X70.857 Y27.87 E1.11513
G1 X71.329 Y28.217 E1.1447
G1 X72.629 Y29.33 E1.23106
G1 X73.032 Y29.728 E1.25965
G1 X73.326 Y30.105 E1.28377
G1 X75.693 Y33.553 E1.49483
G1 X78.973 Y37.875 E1.76864
G1 X82.503 Y42.019 E2.04336
G1 X86.243 Y45.936 E2.31667
G1 X90.237 Y49.671 E2.59262
G1 X92.305 Y51.448 E2.73022
G1 X94.351 Y53.105 E2.86309
G1 X98.737 Y56.363 E3.13881
G1 X103.283 Y59.356 E3.41349
G1 X107.975 Y62.077 E3.68721
G1 X112.821 Y64.534 E3.9614
G1 X117.819 Y66.721 E4.23671
G1 X120.348 Y67.704 E4.37364
G1 X122.53 Y68.475 E4.49043
G1 X122.921 Y68.637 E4.51179
G1 X124.853 Y69.56 E4.61984
G1 X125.402 Y69.877 E4.65184
G1 X126.804 Y70.845 E4.73781
G1 X127.245 Y71.199 E4.76635
G1 X127.709 Y71.708 E4.80111
G1 X129.774 Y74.41 E4.97273
G1 X130.035 Y74.796 E4.99624
G1 X131.369 Y77.042 E5.12807
G1 X134.347 Y81.612 E5.40335
G1 X137.583 Y86.012 E5.67898
G1 X140.54 Y89.723 E5.91844
G1 X140.776 Y90.052 E5.93887
G1 X146 Y98.172 E6.42613
G1 X146.17 Y98.462 E6.44309
G1 X147.028 Y100.08 E6.53552
G1 X147.194 Y100.434 E6.55525
G1 X149.118 Y105.116 E6.8107
G1 X149.202 Y105.339 E6.82272
G1 X149.704 Y106.803 E6.90083
G1 X149.781 Y107.055 E6.91413
G1 X152.322 Y116.446 E7.40509
G1 X152.431 Y117.001 E7.43363
G1 X152.456 Y117.296 E7.44857
G1 X152.622 Y120.7 E7.62056
G1 X152.627 Y120.9 E7.63065
G1 X152.624 Y123.398 E7.75672
G1 X152.599 Y123.838 E7.77896
G1 X152.424 Y125.403 E7.85843
G1 X152.322 Y125.958 E7.88691
G1 X152.027 Y126.747 E7.92941
G1 X148.339 Y134.121 E8.34549
G1 X148.051 Y134.608 E8.37405
G1 X147.601 Y135.149 E8.40956
G1 X146.283 Y136.478 E8.50401
G1 X145.858 Y136.85 E8.53252
G1 X145.49 Y137.097 E8.55488
G1 X143.887 Y138.052 E8.64905
G1 X139.274 Y141.025 E8.926
G1 X134.899 Y144.209 E9.19907
G1 X130.647 Y147.687 E9.47629
G1 X128.974 Y149.17 E9.58911
G1 X128.526 Y149.514 E9.61762
G1 X128.033 Y149.792 E9.64618
G1 X127.507 Y149.997 E9.67467
G1 X126.956 Y150.126 E9.70323
G1 X126.326 Y150.177 E9.73512
G1 X108.005 Y150.198 E10.6597
G1 X107.441 Y150.159 E10.68823
G1 X106.888 Y150.04 E10.71678
G1 X106.357 Y149.845 E10.74532
G1 X105.859 Y149.577 E10.77386
G1 X105.304 Y149.153 E10.80911
G1 X102.308 Y146.419 E11.01379
G1 X98.111 Y142.933 E11.28913
G1 X93.739 Y139.702 E11.56347
G1 X88.979 Y136.524 E11.85231
G1 X88.577 Y136.217 E11.87783
G1 X87.126 Y134.957 E11.97481
G1 X86.735 Y134.567 E12.00268
G1 X83.944 Y131.369 E12.21689
G1 X80.25 Y127.333 E12.493
G1 X76.356 Y123.535 E12.76751
G1 X72.251 Y119.961 E13.04218
G1 X67.972 Y116.642 E13.31547
G1 X63.498 Y113.559 E13.58966
G1 X58.872 Y110.745 E13.86291
G1 X52.873 Y107.585 E14.20509
G1 X52.392 Y107.287 E14.23364
G1 X52.16 Y107.105 E14.24852
G1 X46.652 Y102.465 E14.61197
G1 X42.295 Y99.247 E14.88532
G1 X37.707 Y96.244 E15.16204
G1 X35.559 Y94.958 E15.28838
G1 X35.095 Y94.634 E15.31694
G1 X34.801 Y94.371 E15.33685
G1 X33.495 Y93.08 E15.42952
G1 X33.122 Y92.655 E15.45806
G1 X32.728 Y92.021 E15.49573
G1 X28.976 Y84.5 E15.91989
G1 X28.76 Y83.977 E15.94844
G1 X28.62 Y83.429 E15.97699
G1 X28.57 Y83.06 E15.99578
G1 X28.384 Y80.92 E16.10418
G1 X28.369 Y80.512 E16.12478
G1 X28.4 Y78.525 E16.22507
G1 X28.408 Y78.342 E16.23432
G1 X28.621 Y74.874 E16.40966
G1 X28.753 Y74.071 E16.45073
G1 X31.198 Y65.061 E16.92186
G1 X31.283 Y64.788 E16.93629
G1 X32.083 Y62.502 E17.05852
G1 X32.163 Y62.292 E17.06986
G1 X33.804 Y58.331 E17.28623
G1 X33.955 Y58.008 E17.30422
G1 X34.698 Y56.588 E17.3851
G1 X34.879 Y56.276 E17.4033
G1 X39.517 Y49.075 E17.83555
G1 X39.945 Y48.39 E17.87631
G1 X40.174 Y48.061 E17.89654
G1 X44.504 Y42.47 E18.25342
G1 X47.672 Y37.993 E18.53019
G1 X49.136 Y35.73 E18.66621
G1 X51.374 Y32.08 E18.88228
G0 F1050 X51.715 Y32.289
G1 F1200 X51.938 Y31.967 E18.90204
G1 X53.602 Y29.818 E19.0392
G1 X53.961 Y29.42 E19.06625
G1 X54.396 Y29.064 E19.09462
G1 X55.915 Y28.01 E19.18792
G1 X56.356 Y27.749 E19.21378
G1 X57.785 Y27.034 E19.29442
G1 X58.281 Y26.83 E19.32149
G1 X58.669 Y26.727 E19.34175
G1 X60.569 Y26.335 E19.43965
G1 X61.1 Y26.266 E19.46667
G1 X61.388 Y26.262 E19.48121
G1 X65.113 Y26.357 E19.66925
G1 X65.895 Y26.464 E19.70908
G1 X67.702 Y26.916 E19.80308
G1 X68.295 Y27.121 E19.83475
G1 X70.195 Y27.969 E19.93975
G1 X70.667 Y28.223 E19.9668
G1 X71.069 Y28.521 E19.99205
G1 X72.369 Y29.634 E20.07842
G1 X72.75 Y30.012 E20.1055
G1 X72.996 Y30.332 E20.12587
G1 X75.357 Y33.771 E20.33638
G1 X78.674 Y38.142 E20.61329
G1 X82.192 Y42.272 E20.88708
G1 X85.972 Y46.231 E21.16331
G1 X89.973 Y49.972 E21.43974
G1 X92.001 Y51.715 E21.57469
G1 X94.12 Y53.431 E21.71229
G1 X98.512 Y56.694 E21.98841
G1 X103.076 Y59.698 E22.26414
G1 X107.778 Y62.426 E22.53848
G1 X112.651 Y64.896 E22.81418
G1 X117.654 Y67.085 E23.08977
G1 X120.225 Y68.084 E23.22897
G1 X122.397 Y68.852 E23.34523
G1 X122.749 Y68.998 E23.36446
G1 X124.681 Y69.921 E23.47251
G1 X125.174 Y70.207 E23.50127
G1 X126.576 Y71.175 E23.58725
G1 X126.994 Y71.511 E23.61432
G1 X127.391 Y71.951 E23.64422
G1 X129.456 Y74.653 E23.81584
G1 X129.691 Y75 E23.83699
G1 X131.026 Y77.248 E23.96894
G1 X134.02 Y81.842 E24.24566
G1 X137.265 Y86.255 E24.52209
G1 X140.228 Y89.973 E24.76202
G1 X140.44 Y90.268 E24.78035
G1 X145.664 Y98.388 E25.26761
G1 X145.816 Y98.649 E25.28285
G1 X146.674 Y100.267 E25.37527
G1 X146.824 Y100.586 E25.39306
G1 X148.748 Y105.268 E25.64851
G1 X148.823 Y105.468 E25.65929
G1 X149.325 Y106.932 E25.7374
G1 X149.395 Y107.16 E25.74943
G1 X151.936 Y116.551 E26.24039
G1 X152.057 Y117.316 E26.27948
G1 X152.223 Y120.72 E26.45147
G1 X152.227 Y120.899 E26.4605
G1 X152.224 Y123.397 E26.58657
G1 X152.202 Y123.793 E26.60658
G1 X152.027 Y125.358 E26.68605
G1 X151.928 Y125.885 E26.71311
G1 X151.669 Y126.568 E26.74998
G1 X147.981 Y133.942 E27.16605
G1 X147.706 Y134.403 E27.19314
G1 X147.317 Y134.867 E27.2237
G1 X145.999 Y136.196 E27.31816
G1 X145.594 Y136.548 E27.34524
G1 X145.285 Y136.754 E27.36398
G1 X143.666 Y137.718 E27.45907
G1 X139.056 Y140.69 E27.73587
G1 X134.647 Y143.898 E28.01103
G1 X130.397 Y147.375 E28.28814
G1 X128.709 Y148.871 E28.40197
G1 X128.282 Y149.196 E28.42905
G1 X127.812 Y149.454 E28.45611
G1 X127.309 Y149.639 E28.48315
G1 X126.784 Y149.747 E28.5102
G1 X126.325 Y149.777 E28.53341
G1 X108.004 Y149.798 E29.45799
G1 X107.469 Y149.759 E29.48506
G1 X106.946 Y149.64 E29.51213
G1 X106.447 Y149.446 E29.53915
G1 X105.981 Y149.179 E29.56625
G1 X105.573 Y148.857 E29.59248
G1 X102.562 Y146.109 E29.7982
G1 X98.368 Y142.625 E30.07335
G1 X93.962 Y139.369 E30.34983
G1 X89.201 Y136.191 E30.6387
G1 X88.84 Y135.915 E30.66164
G1 X87.389 Y134.655 E30.75862
G1 X87.037 Y134.304 E30.7837
G1 X84.258 Y131.12 E30.99698
G1 X80.533 Y127.05 E31.27541
G1 X76.625 Y123.238 E31.55092
G1 X72.514 Y119.659 E31.82598
G1 X68.21 Y116.32 E32.10088
G1 X63.72 Y113.227 E32.37603
G1 X59.063 Y110.394 E32.65112
G1 X53.059 Y107.231 E32.99359
G1 X52.418 Y106.799 E33.0326
G1 X46.905 Y102.155 E33.39637
G1 X42.518 Y98.915 E33.67159
G1 X37.933 Y95.913 E33.94816
G1 X35.764 Y94.615 E34.07572
G1 X35.326 Y94.306 E34.10277
G1 X35.082 Y94.086 E34.11935
G1 X33.776 Y92.795 E34.21203
G1 X33.424 Y92.391 E34.23907
G1 X33.086 Y91.842 E34.2716
G1 X29.334 Y84.321 E34.69576
G1 X29.131 Y83.825 E34.72281
G1 X29.004 Y83.304 E34.74987
G1 X28.969 Y83.026 E34.76401
G1 X28.783 Y80.886 E34.87241
G1 X28.769 Y80.518 E34.891
G1 X28.8 Y78.531 E34.99128
G1 X28.807 Y78.366 E34.99962
G1 X29.02 Y74.898 E35.17496
G1 X29.139 Y74.176 E35.21189
G1 X31.584 Y65.166 E35.68302
G1 X31.66 Y64.92 E35.69602
G1 X32.46 Y62.634 E35.81824
G1 X32.532 Y62.445 E35.82845
G1 X34.173 Y58.484 E36.04482
G1 X34.309 Y58.193 E36.06103
G1 X35.052 Y56.773 E36.1419
G1 X35.215 Y56.493 E36.15825
G1 X39.853 Y49.292 E36.59051
G1 X40.284 Y48.602 E36.63156
G1 X40.491 Y48.306 E36.64979
G1 X44.822 Y42.714 E37.00674
G1 X48.007 Y38.213 E37.285
G1 X49.474 Y35.944 E37.42135
G1 X51.715 Y32.289 E37.63771
G0 F1050 X52.056 Y32.498
G1 F1200 X52.254 Y32.212 E37.65527
G1 X53.918 Y30.063 E37.79243
G1 X54.258 Y29.689 E37.81793
G1 X54.624 Y29.393 E37.84169
G1 X56.143 Y28.339 E37.93499
G1 X56.535 Y28.106 E37.95801
G1 X57.964 Y27.391 E38.03864
G1 X58.433 Y27.201 E38.06418
G1 X58.749 Y27.119 E38.08066
G1 X60.649 Y26.727 E38.17856
G1 X61.378 Y26.662 E38.21549
G1 X65.103 Y26.757 E38.40354
G1 X65.798 Y26.852 E38.43894
G1 X67.605 Y27.304 E38.53294
G1 X68.132 Y27.486 E38.56107
G1 X70.032 Y28.334 E38.66608
G1 X70.476 Y28.576 E38.69159
G1 X70.809 Y28.825 E38.71258
G1 X72.109 Y29.938 E38.79894
G1 X72.466 Y30.296 E38.82446
G1 X72.666 Y30.558 E38.84109
G1 X75.031 Y34.002 E39.05193
G1 X78.358 Y38.387 E39.3297
G1 X81.907 Y42.553 E39.60589
G1 X85.683 Y46.508 E39.88184
G1 X89.697 Y50.262 E40.15919
G1 X91.772 Y52.045 E40.29725
G1 X93.873 Y53.747 E40.4337
G1 X98.279 Y57.019 E40.71066
G1 X102.861 Y60.035 E40.98749
G1 X107.597 Y62.783 E41.26381
G1 X112.467 Y65.251 E41.53934
G1 X117.518 Y67.462 E41.81759
G1 X120.083 Y68.458 E41.95645
G1 X122.263 Y69.229 E42.07314
G1 X122.576 Y69.359 E42.09024
G1 X124.508 Y70.282 E42.1983
G1 X124.947 Y70.536 E42.22389
G1 X126.349 Y71.504 E42.30987
G1 X126.741 Y71.823 E42.33538
G1 X127.074 Y72.194 E42.36053
G1 X129.139 Y74.896 E42.53215
G1 X129.347 Y75.205 E42.55095
G1 X130.683 Y77.455 E42.68301
G1 X133.687 Y82.063 E42.9606
G1 X136.95 Y86.501 E43.23859
G1 X139.915 Y90.222 E43.47869
G1 X140.103 Y90.485 E43.49501
G1 X145.327 Y98.605 E43.98226
G1 X145.463 Y98.837 E43.99583
G1 X146.321 Y100.455 E44.08826
G1 X146.454 Y100.738 E44.10404
G1 X148.378 Y105.42 E44.35949
G1 X148.445 Y105.598 E44.36909
G1 X148.947 Y107.062 E44.44719
G1 X149.009 Y107.264 E44.45785
G1 X151.55 Y116.655 E44.94882
G1 X151.657 Y117.335 E44.98355
G1 X151.823 Y120.739 E45.15554
G1 X151.827 Y120.899 E45.16362
G1 X151.824 Y123.397 E45.28968
G1 X151.804 Y123.749 E45.30747
G1 X151.629 Y125.314 E45.38694
G1 X151.533 Y125.81 E45.41244
G1 X151.311 Y126.389 E45.44373
G1 X147.623 Y133.763 E45.85981
G1 X147.362 Y134.196 E45.88533
G1 X147.033 Y134.585 E45.91104
G1 X145.715 Y135.914 E46.00549
G1 X145.332 Y136.244 E46.03101
G1 X145.081 Y136.41 E46.04619
G1 X143.468 Y137.371 E46.14095
G1 X138.818 Y140.368 E46.42013
G1 X134.404 Y143.58 E46.69561
G1 X130.149 Y147.06 E46.97302
G1 X128.444 Y148.572 E47.08802
G1 X128.04 Y148.876 E47.11353
G1 X127.594 Y149.113 E47.13902
G1 X127.115 Y149.277 E47.16457
G1 X126.617 Y149.363 E47.19008
G1 X126.325 Y149.377 E47.20483
G1 X108.004 Y149.398 E48.1294
G1 X107.5 Y149.359 E48.15491
G1 X107.008 Y149.24 E48.18046
G1 X106.541 Y149.046 E48.20598
G1 X106.111 Y148.781 E48.23147
G1 X105.843 Y148.562 E48.24893
G1 X102.838 Y145.819 E48.45426
G1 X98.596 Y142.296 E48.73254
G1 X94.196 Y139.044 E49.00865
G1 X89.423 Y135.858 E49.29825
G1 X89.102 Y135.613 E49.31863
G1 X87.651 Y134.353 E49.41561
G1 X87.338 Y134.041 E49.43791
G1 X84.551 Y130.847 E49.65183
G1 X80.817 Y126.767 E49.93095
G1 X76.893 Y122.941 E50.20752
G1 X72.768 Y119.35 E50.48352
G1 X68.446 Y115.996 E50.7596
G1 X63.941 Y112.893 E51.03566
G1 X59.259 Y110.045 E51.31222
G1 X53.246 Y106.877 E51.65521
G1 X52.675 Y106.493 E51.68993
G1 X47.143 Y101.833 E52.05496
G1 X42.749 Y98.588 E52.33061
G1 X38.148 Y95.576 E52.60813
G1 X35.97 Y94.272 E52.73624
G1 X35.558 Y93.979 E52.76175
G1 X35.363 Y93.802 E52.77504
G1 X34.057 Y92.511 E52.86772
G1 X33.727 Y92.128 E52.89323
G1 X33.444 Y91.663 E52.9207
G1 X29.692 Y84.142 E53.34486
G1 X29.502 Y83.674 E53.37035
G1 X29.367 Y82.991 E53.40548
G1 X29.181 Y80.851 E53.51389
G1 X29.169 Y80.524 E53.5304
G1 X29.2 Y78.537 E53.63069
G1 X29.206 Y78.391 E53.63806
G1 X29.419 Y74.923 E53.81341
G1 X29.525 Y74.281 E53.84624
G1 X31.97 Y65.271 E54.31738
G1 X32.038 Y65.052 E54.32895
G1 X32.838 Y62.766 E54.45118
G1 X32.902 Y62.598 E54.46025
G1 X34.543 Y58.637 E54.67662
G1 X34.664 Y58.378 E54.69104
G1 X35.407 Y56.958 E54.77192
G1 X35.552 Y56.709 E54.78646
G1 X40.19 Y49.508 E55.21872
G1 X40.624 Y48.814 E55.26002
G1 X40.807 Y48.551 E55.27619
G1 X45.139 Y42.957 E55.63325
G1 X48.336 Y38.441 E55.91248
G1 X49.812 Y36.158 E56.04967
G1 X52.056 Y32.498 E56.26632
G1 F1500 E49.76632
;MESH:big_hero-cut1.stl
G0 F1050 X53.991 Y34.137
G0 X55.036 Y34.882
G0 X57.153 Y39.131
G0 X57.604 Y41.727
G0 X57.522 Y41.67
;TYPE:WALL-INNER
G1 F1500 E56.26632
G1 F1200 X57.118 Y39.148 E56.39522
G1 X55.742 Y37.676 E56.49691
G1 X55.017 Y36.386 E56.57158
G1 X55.017 Y34.876 E56.64779
G1 X55.835 Y33.731 E56.7188
G1 X56.872 Y32.436 E56.80252
G1 X58.256 Y31.484 E56.8873
G1 X59.634 Y30.795 E56.96505
G1 X61.351 Y30.452 E57.05341
G1 X63.123 Y30.452 E57.14283
G1 X64.931 Y30.542 E57.23419
G1 X66.679 Y30.979 E57.32511
G1 X68.414 Y31.762 E57.42117
G1 X69.542 Y32.729 E57.49615
G1 X70.092 Y33.987 E57.56544
G1 X70.172 Y35.591 E57.64649
G1 X68.899 Y38.496 E57.80655
G1 X68.433 Y40.827 E57.92651
G1 X70.232 Y41.991 E58.03464
G1 X71.025 Y43.402 E58.11633
G1 X72.369 Y44.954 E58.21993
G1 X74.348 Y45.748 E58.32754
G1 X78.747 Y47.948 E58.57575
G1 X81.443 Y49.926 E58.7445
G1 X82.612 Y51.275 E58.83458
G1 X83.816 Y52.575 E58.924
G1 X85.118 Y54.062 E59.02374
G1 X86.299 Y55.515 E59.11824
G1 X88.511 Y58.465 E59.30431
G1 X89.42 Y59.92 E59.39089
G1 X91.081 Y62.872 E59.56183
G1 X91.808 Y64.327 E59.64391
G1 X93.276 Y67.997 E59.84338
G1 X94.372 Y71.649 E60.0358
G1 X94.648 Y73.484 E60.12945
G1 X95.017 Y75.326 E60.22425
G1 X95.202 Y77.179 E60.31823
G1 X95.477 Y79.034 E60.41287
G1 X95.569 Y80.819 E60.50307
G1 X95.485 Y82.517 E60.58886
G1 X94.739 Y83.84 E60.66551
G1 X93.627 Y85.322 E60.75901
G1 X92.676 Y86.844 E60.84958
G1 X91.872 Y88.272 E60.93228
G1 X90.544 Y89.687 E61.03021
G1 X89.84 Y90.259 E61.07599
G1 X89.839 Y90.26 E61.07606
G1 X89.656 Y90.408 E61.08794
G1 X89.541 Y90.202 E61.09529
G1 X89.29 Y89.755 E61.12116
G1 X89.742 Y87.945 E61.2153
G1 X88.781 Y85.539 E61.34605
G1 X86.097 Y85.411 E61.48165
G1 X85.408 Y87.135 E61.57535
G1 X84.627 Y86.875 E61.61689
G1 X84.408 Y85.417 E61.69129
G1 X84.308 Y83.413 E61.79255
G1 X83.263 Y81.945 E61.88348
G1 X82.111 Y80.524 E61.9758
G1 X80.859 Y76.95 E62.16691
G1 X80.529 Y74.778 E62.27778
G1 X79.829 Y74.55 E62.31493
G1 X78.188 Y76.19 E62.43201
G1 X78.087 Y78.021 E62.52455
G1 X77.747 Y79.176 E62.58531
G1 X77.611 Y79.198 E62.59227
G1 X77.611 Y80.215 E62.64359
G1 X77.617 Y80.216 E62.6439
G1 X77.617 Y81.278 E62.69749
G1 X77.116 Y82.708 E62.77396
G1 X76.969 Y82.733 E62.78148
G1 X76.961 Y83.187 E62.8044
G1 X76.529 Y84.916 E62.89433
G1 X75.793 Y86.753 E62.9942
G1 X75.231 Y88.36 E63.08012
G1 X74.465 Y90.46 E63.19292
G1 X74.268 Y92.441 E63.29339
G1 X74.36 Y94.315 E63.38807
G1 X74.269 Y96.135 E63.48004
G1 X73.903 Y99.789 E63.66536
G1 X73.456 Y101.571 E63.75807
G1 X72.743 Y103.354 E63.85498
G1 X72.688 Y103.452 E63.86065
G1 X65.468 Y103.452 E64.22501
G1 X65.411 Y103.259 E64.23517
G1 X64.814 Y100.878 E64.35905
G1 X64.129 Y100.994 E64.39411
G1 X62.472 Y102.098 E64.49459
G1 X61.932 Y103.452 E64.56815
G1 X55.077 Y103.452 E64.91409
G1 X54.879 Y103.101 E64.93443
G1 X54.329 Y101.269 E65.03096
G1 X53.69 Y99.81 E65.11134
G1 X52.966 Y96.195 E65.29739
G1 X52.878 Y94.443 E65.38592
G1 X53.161 Y92.549 E65.48256
G1 X52.847 Y90.444 E65.58997
G1 X51.658 Y88.855 E65.69012
G1 X49.828 Y85.932 E65.86416
G1 X49.189 Y84.473 E65.94454
G1 X48.46 Y83.011 E66.02698
G1 X47.82 Y81.184 E66.12467
G1 X47.274 Y79.347 E66.22139
G1 X46.541 Y76.942 E66.34827
G1 X44.022 Y77.509 E66.47857
G1 X43.263 Y79.244 E66.57414
G1 X42.411 Y80.761 E66.66194
G1 X41.709 Y82.766 E66.76915
G1 X41.711 Y84.639 E66.86367
G1 X42.27 Y86.512 E66.96231
