;FLAVOR:Marlin
;TIME:7484
;Filament used: 7.5598m
;Layer height: 0.3
;Generated with Cura_SteamEngine 3.6.0
M140 S60
M105
M190 S60
M104 S205
M105
M109 S205
M82 ;absolute extrusion mode
G28 ;Home
G1 Z15.0 F6000 ;Move the platform down 15mm
;Prime the extruder
G92 E0
G1 F200 E3
G92 E0
G92 E0
G1 F1500 E-6.5
;LAYER_COUNT:70
;LAYER:0
M107
G0 F1050 X50.185 Y31.016 Z0.3
;TYPE:SKIRT
G1 F1500 E0
G1 F1200 X50.428 Y30.658 E0.02184
G1 X52.424 Y28.028 E0.18845
G1 X52.796 Y27.603 E0.21696
G1 X53.333 Y27.157 E0.25219
G1 X54.857 Y26.102 E0.34572
G1 X55.345 Y25.813 E0.37435
G1 X56.777 Y25.097 E0.45514
G1 X57.299 Y24.881 E0.48365
G1 X57.759 Y24.757 E0.50769
G1 X59.658 Y24.366 E0.60554
G1 X60.469 Y24.284 E0.64667
G1 X62.457 Y24.286 E0.747
G1 X62.7 Y24.294 E0.75927
G1 X64.526 Y24.407 E0.85159
G1 X65.257 Y24.52 E0.88892
G1 X66.97 Y24.952 E0.97808
G1 X67.622 Y25.178 E1.0129
G1 X69.522 Y26.026 E1.1179
G1 X70.021 Y26.293 E1.14646
G1 X70.495 Y26.642 E1.17617
G1 X71.809 Y27.768 E1.26349
G1 X72.115 Y28.06 E1.28484
G1 X77.026 Y33.264 E1.64594
G1 X81.005 Y36.974 E1.92048
G1 X85.164 Y40.435 E2.19354
G1 X89.532 Y43.669 E2.46781
G1 X94.065 Y46.644 E2.74144
G1 X98.782 Y49.372 E3.01642
G1 X103.625 Y51.819 E3.29025
G1 X108.572 Y53.976 E3.5626
G1 X113.684 Y55.869 E3.8377
G1 X118.879 Y57.464 E4.11195
G1 X124.191 Y58.773 E4.38804
G1 X130.593 Y60.014 E4.71713
G1 X131.139 Y60.161 E4.74567
G1 X131.595 Y60.351 E4.7706
G1 X133.118 Y61.099 E4.85623
G1 X133.622 Y61.394 E4.8857
G1 X135.09 Y62.404 E4.97562
G1 X135.532 Y62.756 E5.00413
G1 X135.965 Y63.224 E5.03631
G1 X137.528 Y65.208 E5.16377
G1 X137.778 Y65.564 E5.18572
G1 X141.12 Y70.915 E5.50411
G1 X144.236 Y75.411 E5.78016
G1 X149.025 Y81.582 E6.17436
G1 X149.221 Y81.857 E6.1914
G1 X153.477 Y88.419 E6.58611
G1 X153.569 Y88.569 E6.59499
G1 X154.911 Y90.852 E6.72863
G1 X155.05 Y91.11 E6.74342
G1 X155.706 Y92.44 E6.81826
G1 X155.835 Y92.728 E6.83419
G1 X157.421 Y96.706 E7.0503
G1 X157.488 Y96.888 E7.06009
G1 X157.994 Y98.362 E7.13874
G1 X158.072 Y98.616 E7.15215
G1 X160.613 Y108.006 E7.64306
G1 X160.722 Y108.561 E7.6716
G1 X160.747 Y108.855 E7.68649
G1 X160.912 Y112.225 E7.85676
G1 X160.917 Y112.424 E7.86681
G1 X160.915 Y114.968 E7.99519
G1 X160.893 Y115.388 E8.01642
G1 X160.731 Y116.913 E8.09381
G1 X160.631 Y117.469 E8.12232
G1 X160.455 Y118.006 E8.15084
G1 X160.33 Y118.279 E8.16599
G1 X156.625 Y125.686 E8.58394
G1 X156.337 Y126.173 E8.61249
G1 X155.889 Y126.713 E8.6479
G1 X154.576 Y128.038 E8.74204
G1 X154.151 Y128.41 E8.77054
G1 X153.86 Y128.611 E8.78839
G1 X151.839 Y129.878 E8.90877
G1 X147.333 Y132.962 E9.18432
G1 X143.032 Y136.278 E9.45839
G1 X138.909 Y139.847 E9.73359
G1 X135.66 Y142.888 E9.95817
G1 X135.221 Y143.244 E9.98669
G1 X134.736 Y143.535 E10.01523
G1 X134.236 Y143.748 E10.04266
G1 X132.493 Y144.352 E10.13575
G1 X131.947 Y144.498 E10.16427
G1 X131.279 Y144.571 E10.19819
G1 X128.262 Y144.644 E10.35048
G1 X121.725 Y145.115 E10.68123
G1 X121.159 Y145.115 E10.70979
G1 X120.854 Y145.082 E10.72528
G1 X118.993 Y144.808 E10.8202
G1 X118.441 Y144.687 E10.84872
G1 X117.794 Y144.432 E10.88382
G1 X116.297 Y143.687 E10.9682
G1 X115.81 Y143.4 E10.99673
G1 X115.224 Y142.908 E11.03534
G1 X113.525 Y141.177 E11.15775
G1 X109.542 Y137.42 E11.43406
G1 X105.395 Y133.93 E11.70759
G1 X101.033 Y130.661 E11.98268
G1 X97.793 Y128.476 E12.17989
G1 X97.636 Y128.364 E12.18962
G1 X93.271 Y125.102 E12.46462
G1 X88.742 Y122.071 E12.73964
G1 X84.069 Y119.312 E13.0135
G1 X79.249 Y116.823 E13.28726
G1 X74.25 Y114.589 E13.56358
G1 X71.767 Y113.605 E13.69836
G1 X66.632 Y111.816 E13.97278
G1 X61.417 Y110.323 E14.24653
G1 X56.189 Y109.111 E14.51736
G1 X55.754 Y108.984 E14.54023
G1 X54.111 Y108.401 E14.62821
G1 X53.593 Y108.174 E14.65675
G1 X53.112 Y107.877 E14.68528
G1 X52.72 Y107.556 E14.71085
G1 X47.903 Y103.061 E15.04334
G1 X45.868 Y101.332 E15.1781
G1 X41.576 Y97.989 E15.45264
G1 X37.08 Y94.877 E15.72858
G1 X35.804 Y94.072 E15.80472
G1 X35.787 Y94.061 E15.80574
G1 X34.633 Y93.325 E15.87482
G1 X33.972 Y92.798 E15.91748
G1 X32.659 Y91.5 E16.01065
G1 X32.286 Y91.075 E16.03919
G1 X31.895 Y90.448 E16.07648
G1 X28.153 Y82.984 E16.49784
G1 X27.936 Y82.462 E16.52637
G1 X27.795 Y81.914 E16.55492
G1 X27.749 Y81.594 E16.57124
G1 X27.581 Y79.933 E16.65549
G1 X27.561 Y79.525 E16.6761
G1 X27.564 Y77.024 E16.80232
G1 X27.571 Y76.788 E16.81423
G1 X27.781 Y73.311 E16.99002
G1 X27.914 Y72.504 E17.03129
G1 X30.358 Y63.498 E17.50222
G1 X30.443 Y63.223 E17.51675
G1 X31.265 Y60.877 E17.6422
G1 X31.346 Y60.667 E17.65356
G1 X32.968 Y56.759 E17.86709
G1 X33.128 Y56.418 E17.88609
G1 X34.065 Y54.651 E17.98703
G1 X34.257 Y54.327 E18.00603
G1 X37.202 Y49.848 E18.27655
G1 X39.407 Y46.335 E18.48587
G1 X39.654 Y45.984 E18.50752
G1 X43.67 Y40.892 E18.8348
G1 X46.824 Y36.438 E19.11022
G1 X48.279 Y34.188 E19.24544
G1 X50.185 Y31.016 E19.43219
G0 F1050 X50.528 Y31.222
G1 F1200 X50.746 Y30.9 E19.45181
G1 X52.742 Y28.27 E19.61843
G1 X53.097 Y27.868 E19.6455
G1 X53.561 Y27.486 E19.67583
G1 X55.085 Y26.431 E19.76937
G1 X55.524 Y26.171 E19.79512
G1 X56.956 Y25.455 E19.87591
G1 X57.452 Y25.252 E19.90296
G1 X57.84 Y25.149 E19.92322
G1 X59.739 Y24.758 E20.02106
G1 X60.469 Y24.684 E20.05809
G1 X62.457 Y24.686 E20.15842
G1 X62.675 Y24.693 E20.16942
G1 X64.501 Y24.806 E20.26175
G1 X65.159 Y24.908 E20.29535
G1 X66.872 Y25.34 E20.3845
G1 X67.459 Y25.544 E20.41587
G1 X69.359 Y26.392 E20.52087
G1 X69.831 Y26.646 E20.54792
G1 X70.235 Y26.945 E20.57328
G1 X71.549 Y28.071 E20.66061
G1 X71.824 Y28.334 E20.67981
G1 X76.752 Y33.557 E21.0422
G1 X80.73 Y37.265 E21.31664
G1 X84.926 Y40.757 E21.59212
G1 X89.296 Y43.993 E21.86654
G1 X93.871 Y46.995 E22.14268
G1 X98.579 Y49.718 E22.41715
G1 X103.442 Y52.175 E22.69211
G1 X108.431 Y54.35 E22.96677
G1 X113.565 Y56.251 E23.24305
G1 X118.776 Y57.851 E23.51814
G1 X124.097 Y59.162 E23.7947
G1 X130.517 Y60.407 E24.12472
G1 X131.035 Y60.548 E24.15181
G1 X131.419 Y60.71 E24.17284
G1 X132.942 Y61.458 E24.25847
G1 X133.396 Y61.723 E24.285
G1 X134.864 Y62.733 E24.37492
G1 X135.281 Y63.069 E24.40195
G1 X135.651 Y63.471 E24.42952
G1 X137.214 Y65.455 E24.55698
G1 X137.439 Y65.776 E24.57676
G1 X140.791 Y71.142 E24.89605
G1 X143.909 Y75.642 E25.17233
G1 X148.709 Y81.827 E25.56743
G1 X148.885 Y82.075 E25.58278
G1 X153.141 Y88.637 E25.97748
G1 X153.225 Y88.772 E25.98551
G1 X154.567 Y91.055 E26.11915
G1 X154.692 Y91.287 E26.13245
G1 X155.348 Y92.617 E26.20729
G1 X155.463 Y92.876 E26.22159
G1 X157.049 Y96.854 E26.43771
G1 X157.11 Y97.018 E26.44654
G1 X157.616 Y98.492 E26.52518
G1 X157.686 Y98.721 E26.53727
G1 X160.227 Y108.111 E27.02818
G1 X160.348 Y108.875 E27.06722
G1 X160.513 Y112.245 E27.23749
G1 X160.517 Y112.424 E27.24653
G1 X160.515 Y114.968 E27.37491
G1 X160.495 Y115.345 E27.39396
G1 X160.333 Y116.87 E27.47135
G1 X160.237 Y117.398 E27.49844
G1 X159.973 Y118.1 E27.53629
G1 X156.268 Y125.507 E27.95424
G1 X155.993 Y125.968 E27.98133
G1 X155.605 Y126.431 E28.01181
G1 X154.292 Y127.756 E28.10595
G1 X153.887 Y128.108 E28.13303
G1 X153.647 Y128.272 E28.1477
G1 X151.628 Y129.538 E28.26796
G1 X147.097 Y132.639 E28.54504
G1 X142.782 Y135.966 E28.82001
G1 X138.63 Y139.56 E29.09714
G1 X135.386 Y142.596 E29.32136
G1 X134.968 Y142.933 E29.34846
G1 X134.505 Y143.203 E29.3755
G1 X134.105 Y143.37 E29.39738
G1 X132.362 Y143.974 E29.49047
G1 X131.843 Y144.111 E29.51756
G1 X131.27 Y144.171 E29.54663
G1 X128.244 Y144.244 E29.69939
G1 X121.696 Y144.716 E30.03069
G1 X120.913 Y144.687 E30.07023
G1 X119.052 Y144.413 E30.16516
G1 X118.528 Y144.295 E30.19227
G1 X117.972 Y144.074 E30.22246
G1 X116.475 Y143.329 E30.30685
G1 X116.014 Y143.055 E30.33391
G1 X115.51 Y142.628 E30.36724
G1 X113.803 Y140.889 E30.49022
G1 X109.818 Y137.13 E30.76668
G1 X105.638 Y133.613 E31.04236
G1 X101.256 Y130.329 E31.3187
G1 X98.017 Y128.144 E31.51588
G1 X97.875 Y128.044 E31.52464
G1 X93.493 Y124.77 E31.80069
G1 X88.962 Y121.738 E32.07582
G1 X84.263 Y118.962 E32.35124
G1 X79.417 Y116.46 E32.62647
G1 X74.419 Y114.227 E32.90272
G1 X71.898 Y113.227 E33.03959
G1 X66.753 Y111.435 E33.31453
G1 X61.502 Y109.932 E33.59017
G1 X56.279 Y108.721 E33.86074
G1 X55.888 Y108.607 E33.88129
G1 X54.245 Y108.024 E33.96927
G1 X53.754 Y107.807 E33.99636
G1 X53.301 Y107.52 E34.02343
G1 X52.993 Y107.263 E34.04367
G1 X48.164 Y102.757 E34.37698
G1 X46.127 Y101.026 E34.51188
G1 X41.816 Y97.668 E34.78765
G1 X37.315 Y94.553 E35.06389
G1 X36.017 Y93.734 E35.14134
G1 X36.002 Y93.724 E35.14225
G1 X34.848 Y92.988 E35.21132
G1 X34.253 Y92.513 E35.24975
G1 X32.94 Y91.215 E35.34292
G1 X32.588 Y90.811 E35.36996
G1 X32.253 Y90.268 E35.40216
G1 X28.511 Y82.804 E35.82352
G1 X28.307 Y82.308 E35.85058
G1 X28.147 Y81.553 E35.88953
G1 X27.979 Y79.892 E35.97378
G1 X27.961 Y79.526 E35.99227
G1 X27.964 Y77.025 E36.11849
G1 X27.971 Y76.812 E36.12924
G1 X28.181 Y73.335 E36.30503
G1 X28.3 Y72.609 E36.34216
G1 X30.744 Y63.603 E36.81308
G1 X30.821 Y63.356 E36.82614
G1 X31.643 Y61.01 E36.95159
G1 X31.715 Y60.82 E36.96184
G1 X33.337 Y56.912 E37.17537
G1 X33.482 Y56.605 E37.19251
G1 X34.419 Y54.838 E37.29344
G1 X34.591 Y54.547 E37.3105
G1 X37.536 Y50.069 E37.58098
G1 X39.746 Y46.547 E37.79081
G1 X39.968 Y46.232 E37.81026
G1 X43.983 Y41.141 E38.13746
G1 X47.169 Y36.643 E38.41563
G1 X48.612 Y34.411 E38.54975
G1 X50.528 Y31.222 E38.7375
G0 F1050 X50.871 Y31.428
G1 F1200 X51.065 Y31.141 E38.75498
G1 X53.061 Y28.511 E38.9216
G1 X53.397 Y28.134 E38.94709
G1 X53.789 Y27.815 E38.97259
G1 X55.313 Y26.76 E39.06613
G1 X55.703 Y26.529 E39.08901
G1 X57.135 Y25.813 E39.1698
G1 X57.604 Y25.623 E39.19534
G1 X57.921 Y25.541 E39.21186
G1 X59.82 Y25.15 E39.30971
G1 X60.468 Y25.084 E39.34258
G1 X62.456 Y25.086 E39.4429
G1 X62.651 Y25.092 E39.45275
G1 X64.477 Y25.205 E39.54507
G1 X65.062 Y25.296 E39.57495
G1 X66.775 Y25.728 E39.6641
G1 X67.296 Y25.909 E39.69194
G1 X69.196 Y26.757 E39.79694
G1 X69.64 Y26.999 E39.82246
G1 X69.974 Y27.249 E39.84351
G1 X71.288 Y28.375 E39.93084
G1 X71.533 Y28.609 E39.94794
G1 X76.463 Y33.833 E40.31043
G1 X80.466 Y37.565 E40.58662
G1 X84.677 Y41.071 E40.86314
G1 X89.076 Y44.327 E41.13933
G1 X93.652 Y47.33 E41.41555
G1 X98.391 Y50.071 E41.69182
G1 X103.281 Y52.541 E41.96829
G1 X108.274 Y54.719 E42.2432
G1 X113.435 Y56.63 E42.52093
G1 X118.663 Y58.235 E42.79691
G1 X124.027 Y59.556 E43.0757
G1 X130.441 Y60.8 E43.40541
G1 X130.928 Y60.935 E43.43092
G1 X131.243 Y61.069 E43.44819
G1 X132.766 Y61.817 E43.53382
G1 X133.169 Y62.053 E43.55739
G1 X134.637 Y63.063 E43.64731
G1 X135.029 Y63.381 E43.67279
G1 X135.337 Y63.719 E43.69586
G1 X136.9 Y65.703 E43.82332
G1 X137.1 Y65.988 E43.84089
G1 X140.456 Y71.36 E44.16055
G1 X143.588 Y75.88 E44.43806
G1 X148.393 Y82.072 E44.83359
G1 X148.55 Y82.293 E44.84727
G1 X152.806 Y88.855 E45.24198
G1 X152.88 Y88.974 E45.24905
G1 X154.222 Y91.257 E45.38269
G1 X154.333 Y91.463 E45.3945
G1 X154.989 Y92.793 E45.46934
G1 X155.091 Y93.024 E45.48208
G1 X156.677 Y97.002 E45.6982
G1 X156.732 Y97.148 E45.70607
G1 X157.238 Y98.622 E45.78472
G1 X157.3 Y98.825 E45.79543
G1 X159.841 Y108.215 E46.28635
G1 X159.948 Y108.895 E46.32108
G1 X160.113 Y112.265 E46.49136
G1 X160.117 Y112.424 E46.49938
G1 X160.115 Y114.968 E46.62777
G1 X160.097 Y115.303 E46.6447
G1 X159.935 Y116.828 E46.72209
G1 X159.842 Y117.325 E46.74761
G1 X159.615 Y117.922 E46.77984
G1 X155.91 Y125.329 E47.19779
G1 X155.649 Y125.761 E47.22326
G1 X155.321 Y126.149 E47.2489
G1 X154.008 Y127.474 E47.34304
G1 X153.435 Y127.933 E47.38009
G1 X151.405 Y129.206 E47.50101
G1 X146.861 Y132.316 E47.77889
G1 X142.532 Y135.654 E48.05476
G1 X138.363 Y139.262 E48.33299
G1 X135.113 Y142.304 E48.55764
G1 X134.718 Y142.619 E48.58314
G1 X134.278 Y142.869 E48.60868
G1 X133.974 Y142.992 E48.62523
G1 X132.231 Y143.596 E48.71832
G1 X131.741 Y143.723 E48.74386
G1 X131.26 Y143.771 E48.76826
G1 X128.226 Y143.844 E48.92142
G1 X121.667 Y144.317 E49.25328
G1 X120.971 Y144.291 E49.28843
G1 X119.11 Y144.017 E49.38335
G1 X118.617 Y143.904 E49.40888
G1 X118.15 Y143.716 E49.43428
G1 X116.653 Y142.971 E49.51867
G1 X116.22 Y142.711 E49.54416
G1 X115.795 Y142.348 E49.57236
G1 X114.08 Y140.6 E49.69594
G1 X110.068 Y136.815 E49.97429
G1 X105.902 Y133.31 E50.24904
G1 X101.503 Y130.014 E50.52644
G1 X98.24 Y127.813 E50.72507
G1 X98.115 Y127.723 E50.73284
G1 X93.734 Y124.449 E51.00885
G1 X89.167 Y121.393 E51.28616
G1 X84.458 Y118.612 E51.56215
G1 X79.592 Y116.1 E51.8385
G1 X74.581 Y113.86 E52.1155
G1 X72.037 Y112.852 E52.25359
G1 X66.873 Y111.053 E52.52956
G1 X61.605 Y109.545 E52.80609
G1 X56.369 Y108.331 E53.07733
G1 X56.022 Y108.23 E53.09557
G1 X54.379 Y107.647 E53.18355
G1 X53.917 Y107.441 E53.20908
G1 X53.494 Y107.164 E53.2346
G1 X53.266 Y106.971 E53.24967
G1 X48.424 Y102.453 E53.58388
G1 X46.388 Y100.722 E53.71874
G1 X42.044 Y97.34 E53.99657
G1 X37.541 Y94.222 E54.27297
G1 X36.231 Y93.396 E54.35112
G1 X36.217 Y93.387 E54.35196
G1 X35.063 Y92.651 E54.42104
G1 X34.534 Y92.229 E54.45519
G1 X33.221 Y90.931 E54.54836
G1 X32.891 Y90.548 E54.57387
G1 X32.61 Y90.089 E54.60103
G1 X28.868 Y82.625 E55.02239
G1 X28.678 Y82.157 E55.04788
G1 X28.545 Y81.513 E55.08107
G1 X28.377 Y79.852 E55.16532
G1 X28.361 Y79.526 E55.18179
G1 X28.364 Y77.025 E55.308
G1 X28.37 Y76.836 E55.31755
G1 X28.58 Y73.359 E55.49333
G1 X28.686 Y72.714 E55.52632
G1 X31.13 Y63.708 E55.99725
G1 X31.198 Y63.488 E56.00887
G1 X32.02 Y61.142 E56.13432
G1 X32.084 Y60.973 E56.14344
G1 X33.706 Y57.065 E56.35697
G1 X33.835 Y56.793 E56.37216
G1 X34.772 Y55.026 E56.47309
G1 X34.925 Y54.767 E56.48828
G1 X37.888 Y50.261 E56.76043
G1 X40.085 Y46.76 E56.96902
G1 X40.282 Y46.479 E56.98633
G1 X44.321 Y41.358 E57.31548
G1 X47.488 Y36.886 E57.59202
G1 X48.953 Y34.619 E57.72823
G1 X50.871 Y31.428 E57.91612
G1 F1500 E51.41612
;MESH:big_hero-cut2.stl
G0 F1050 X55.295 Y39.362
G0 X56.667 Y39.858
G0 X76.06 Y81.091
G0 X76.135 Y81.156
;TYPE:WALL-INNER
G1 F1500 E57.91612
G1 F1200 X76.127 Y81.609 E57.93898
G1 X75.693 Y83.341 E58.02909
G1 X74.959 Y85.176 E58.12883
G1 X74.305 Y87.045 E58.22876
G1 X73.628 Y88.881 E58.32751
G1 X73.433 Y90.863 E58.42801
G1 X73.525 Y92.737 E58.5227
G1 X73.434 Y94.557 E58.61466
G1 X73.067 Y98.215 E58.80019
G1 X72.624 Y99.988 E58.89241
G1 X71.909 Y101.776 E58.98959
G1 X71.127 Y103.165 E59.07004
G1 X70.041 Y104.334 E59.15056
G1 X68.74 Y104.984 E59.22395
G1 X67.123 Y105.227 E59.30647
G1 X65.652 Y104.713 E59.38511
G1 X65.122 Y103.5 E59.45191
G1 X64.575 Y101.678 E59.54791
G1 X64.002 Y99.385 E59.66719
G1 X63.34 Y99.385 E59.70059
G1 X61.637 Y100.523 E59.80396
G1 X60.836 Y102.528 E59.91292
G1 X60.176 Y103.848 E59.98739
G1 X58.967 Y104.603 E60.05933
G1 X57.383 Y104.682 E60.13936
G1 X55.8 Y104.129 E60.22398
G1 X54.826 Y102.911 E60.30269
G1 X54.045 Y101.522 E60.3831
G1 X53.493 Y99.689 E60.47971
G1 X52.855 Y98.231 E60.56003
G1 X52.132 Y94.622 E60.74577
G1 X52.044 Y92.86 E60.8348
G1 X52.329 Y90.968 E60.93136
G1 X52.013 Y88.866 E61.03863
G1 X50.821 Y87.278 E61.13884
G1 X48.993 Y84.356 E61.31277
G1 X48.338 Y82.862 E61.3951
G1 X47.624 Y81.432 E61.47576
G1 X46.986 Y79.611 E61.57313
G1 X45.81 Y75.687 E61.77986
G1 X45.395 Y75.438 E61.80428
G1 X43.188 Y75.931 E61.9184
G1 X42.422 Y77.683 E62.0149
G1 X41.577 Y79.179 E62.10161
G1 X40.87 Y81.19 E62.20918
G1 X40.878 Y83.064 E62.30376
G1 X41.436 Y84.935 E62.40229
G1 X41.462 Y85.439 E62.42775
G1 X41.478 Y85.755 E62.44372
G1 X41.186 Y85.633 E62.45293
G1 X40.413 Y85.31 E62.49521
G1 X40.013 Y85.41 E62.51602
G1 X38.615 Y87.19 E62.63024
G1 X39.557 Y88.864 E62.72718
G1 X39.442 Y90.015 E62.78555
G1 X38.355 Y90.072 E62.84048
G1 X37.095 Y89.444 E62.91153
G1 X35.935 Y88.285 E62.99428
G1 X35.239 Y86.893 E63.07282
G1 X34.586 Y85.395 E63.15529
G1 X33.737 Y83.887 E63.24262
G1 X32.305 Y81.028 E63.40399
G1 X32.135 Y79.309 E63.49116
G1 X32.135 Y77.508 E63.58205
G1 X32.32 Y75.646 E63.67648
G1 X32.32 Y73.832 E63.76802
G1 X32.76 Y72.077 E63.85933
G1 X33.412 Y70.211 E63.95908
G1 X34.803 Y64.64 E64.24885
G1 X35.445 Y62.805 E64.34696
G1 X36.913 Y59.131 E64.54662
G1 X37.645 Y57.668 E64.62918
G1 X38.456 Y56.224 E64.71276
G1 X40.497 Y53.255 E64.89458
G1 X41.424 Y51.77 E64.98292
G1 X42.462 Y50.257 E65.07552
G1 X43.279 Y48.805 E65.1596
G1 X44.472 Y47.522 E65.24801
G1 X45.474 Y46.064 E65.33729
G1 X46.657 Y45.051 E65.41589
