;FLAVOR:Marlin
;TIME:5527
;Filament used: 5.13534m
;Layer height: 0.3
;Generated with Cura_SteamEngine 3.6.0
M140 S60
M105
M190 S60
M104 S205
M105
M109 S205
M82 ;absolute extrusion mode
G28 ;Home
G1 Z15.0 F6000 ;Move the platform down 15mm
;Prime the extruder
G92 E0
G1 F200 E3
G92 E0
G92 E0
G1 F1500 E-6.5
;LAYER_COUNT:57
;LAYER:0
M107
G0 F1050 X39.279 Y59.545 Z0.3
;TYPE:SKIRT
G1 F1500 E0
G1 F1200 X39.753 Y59.237 E0.02853
G1 X40.092 Y59.07 E0.0476
G1 X43.736 Y57.485 E0.24814
G1 X48.603 Y55.095 E0.52177
G1 X53.361 Y52.414 E0.79738
G1 X56.668 Y50.342 E0.99432
G1 X56.882 Y50.218 E1.0068
G1 X58.433 Y49.375 E1.09588
G1 X58.44 Y49.371 E1.09629
G1 X62.573 Y47.136 E1.33341
G1 X67.199 Y44.308 E1.60703
G1 X73.134 Y40.127 E1.9734
G1 X73.641 Y39.824 E2.0032
G1 X74.661 Y39.311 E2.06082
G1 X75.182 Y39.093 E2.08932
G1 X75.913 Y38.921 E2.12722
G1 X81.064 Y38.212 E2.38962
G1 X81.671 Y38.175 E2.42031
G1 X91.833 Y38.333 E2.9332
G1 X97.322 Y38.258 E3.21023
G1 X102.724 Y37.879 E3.48351
G1 X108.119 Y37.192 E3.75797
G1 X113.45 Y36.204 E4.03158
G1 X116.083 Y35.6 E4.16791
G1 X121.357 Y34.15 E4.44394
G1 X123.018 Y33.605 E4.53216
G1 X123.087 Y33.583 E4.53581
G1 X126.479 Y32.537 E4.71494
G1 X126.837 Y32.444 E4.73361
G1 X127.957 Y32.209 E4.79136
G1 X128.517 Y32.133 E4.81988
G1 X128.847 Y32.125 E4.83654
G1 X130.189 Y32.148 E4.90428
G1 X130.692 Y32.188 E4.92974
G1 X131.447 Y32.297 E4.96824
G1 X131.999 Y32.417 E4.99674
G1 X132.463 Y32.585 E5.02165
G1 X133.896 Y33.205 E5.10044
G1 X134.465 Y33.507 E5.13295
G1 X135.96 Y34.464 E5.22253
G1 X136.508 Y34.886 E5.25743
G1 X137.845 Y36.113 E5.34901
G1 X138.088 Y36.356 E5.36636
G1 X138.829 Y37.164 E5.42168
G1 X139.23 Y37.68 E5.45466
G1 X140.078 Y38.978 E5.53291
G1 X140.386 Y39.544 E5.56542
G1 X141.508 Y42.074 E5.70509
G1 X141.654 Y42.456 E5.72573
G1 X142.139 Y43.943 E5.80466
G1 X142.257 Y44.394 E5.82819
G1 X142.834 Y47.263 E5.97587
G1 X142.895 Y47.677 E5.99699
G1 X143.035 Y49.163 E6.07232
G1 X143.051 Y49.674 E6.09812
G1 X143.016 Y50.701 E6.14997
G1 X142.97 Y51.181 E6.17431
G1 X142.752 Y52.58 E6.24576
G1 X142.683 Y52.925 E6.26352
G1 X141.134 Y59.182 E6.58881
G1 X140.995 Y59.629 E6.61243
G1 X138.101 Y67.327 E7.02746
G1 X136.529 Y72.49 E7.29982
G1 X135.226 Y77.833 E7.57736
G1 X134.719 Y80.385 E7.70867
G1 X133.875 Y85.811 E7.98578
G1 X133.348 Y91.2 E8.25904
G1 X133.124 Y96.63 E8.5333
G1 X133.208 Y102.063 E8.80751
G1 X133.599 Y107.483 E9.08174
G1 X134.293 Y112.854 E9.35504
G1 X135.302 Y118.237 E9.63143
G1 X135.897 Y120.807 E9.76456
G1 X136.897 Y124.528 E9.959
G1 X136.92 Y124.618 E9.96369
G1 X138.684 Y131.853 E10.3395
G1 X138.78 Y132.422 E10.36862
G1 X138.923 Y133.923 E10.44471
G1 X138.939 Y134.438 E10.47071
G1 X138.904 Y135.465 E10.52257
G1 X138.849 Y136.003 E10.54986
G1 X138.456 Y138.301 E10.66752
G1 X138.399 Y138.576 E10.68169
G1 X137.83 Y140.907 E10.80278
G1 X137.636 Y141.497 E10.83412
G1 X136.89 Y143.287 E10.93199
G1 X136.804 Y143.479 E10.9426
G1 X135.982 Y145.191 E11.03844
G1 X135.776 Y145.567 E11.06008
G1 X135.432 Y146.122 E11.09303
G1 X134.979 Y146.72 E11.13089
G1 X133.627 Y148.193 E11.23179
G1 X133.321 Y148.492 E11.25338
G1 X132.231 Y149.45 E11.32661
G1 X131.866 Y149.736 E11.35001
G1 X130.99 Y150.342 E11.40377
G1 X130.342 Y150.706 E11.44128
G1 X128.243 Y151.641 E11.55724
G1 X127.711 Y151.834 E11.5858
G1 X127.158 Y151.95 E11.61431
G1 X126.798 Y151.983 E11.63256
G1 X124.838 Y152.073 E11.73157
G1 X124.273 Y152.059 E11.76009
G1 X123.707 Y151.963 E11.78906
G1 X121.773 Y151.491 E11.88953
G1 X121.524 Y151.422 E11.90257
G1 X115.601 Y149.564 E12.21584
G1 X110.282 Y148.202 E12.49292
G1 X107.715 Y147.663 E12.62529
G1 X102.33 Y146.763 E12.90082
G1 X96.927 Y146.172 E13.17511
G1 X91.531 Y145.888 E13.44779
G1 X77.536 Y146.028 E14.15409
G1 X76.951 Y145.991 E14.18367
G1 X71.831 Y145.287 E14.44449
G1 X71.278 Y145.17 E14.47301
G1 X70.621 Y144.918 E14.50852
G1 X69.597 Y144.418 E14.56603
G1 X69.026 Y144.078 E14.59957
G1 X64.226 Y140.647 E14.89732
G1 X59.623 Y137.745 E15.17192
G1 X57.264 Y136.393 E15.30914
G1 X53.278 Y134.283 E15.53674
G1 X53.055 Y134.156 E15.54969
G1 X47.977 Y131.035 E15.85048
G1 X43.211 Y128.441 E16.12432
G1 X38.233 Y126.087 E16.4022
G1 X35.816 Y125.022 E16.5355
G1 X35.316 Y124.758 E16.56403
G1 X35.009 Y124.547 E16.58283
G1 X34.372 Y124.063 E16.6232
G1 X33.947 Y123.69 E16.65174
G1 X33.579 Y123.261 E16.68026
G1 X33.352 Y122.92 E16.70093
G1 X32.629 Y121.702 E16.77241
G1 X32.376 Y121.196 E16.80096
G1 X32.196 Y120.66 E16.8295
G1 X32.094 Y120.104 E16.85803
G1 X32.074 Y119.459 E16.89059
G1 X32.175 Y117.447 E16.99226
G1 X32.243 Y116.886 E17.02077
G1 X32.36 Y116.43 E17.04453
G1 X33.397 Y113.188 E17.21631
G1 X34.897 Y107.914 E17.49301
G1 X35.53 Y105.265 E17.63046
G1 X36.564 Y99.957 E17.90337
G1 X37.301 Y94.565 E18.17801
G1 X37.728 Y89.168 E18.45122
G1 X37.851 Y83.736 E18.72542
G1 X37.667 Y78.304 E18.9997
G1 X37.175 Y72.888 E19.27415
G1 X36.302 Y66.971 E19.57598
G1 X36.263 Y66.556 E19.59702
G1 X36.185 Y64.714 E19.69006
G1 X36.201 Y64.149 E19.71858
G1 X36.296 Y63.592 E19.7471
G1 X36.469 Y63.054 E19.77562
G1 X36.725 Y62.531 E19.805
G1 X37.422 Y61.335 E19.87486
G1 X37.741 Y60.868 E19.9034
G1 X38.122 Y60.45 E19.93194
G1 X38.469 Y60.156 E19.95489
G1 X39.279 Y59.545 E20.0061
G0 F1050 X39.52 Y59.864
G1 F1200 X39.971 Y59.574 E20.03316
G1 X40.252 Y59.437 E20.04893
G1 X43.893 Y57.853 E20.24931
G1 X48.804 Y55.442 E20.5254
G1 X53.558 Y52.763 E20.80079
G1 X56.881 Y50.681 E20.99868
G1 X57.073 Y50.569 E21.0099
G1 X58.624 Y49.726 E21.09898
G1 X58.63 Y49.723 E21.09932
G1 X62.771 Y47.483 E21.33691
G1 X67.424 Y44.639 E21.61212
G1 X73.365 Y40.454 E21.97885
G1 X73.82 Y40.181 E22.00563
G1 X74.84 Y39.668 E22.06324
G1 X75.336 Y39.463 E22.09033
G1 X75.967 Y39.318 E22.123
G1 X81.118 Y38.609 E22.3854
G1 X81.665 Y38.575 E22.41306
G1 X91.832 Y38.733 E22.9262
G1 X97.338 Y38.658 E23.20409
G1 X102.769 Y38.277 E23.47884
G1 X108.171 Y37.589 E23.75365
G1 X113.544 Y36.593 E24.02942
G1 X116.182 Y35.988 E24.16601
G1 X121.468 Y34.535 E24.44266
G1 X123.143 Y33.985 E24.53163
G1 X123.205 Y33.965 E24.53492
G1 X126.597 Y32.919 E24.71405
G1 X126.919 Y32.836 E24.73083
G1 X128.039 Y32.601 E24.78858
G1 X128.57 Y32.53 E24.81562
G1 X128.84 Y32.525 E24.82925
G1 X130.182 Y32.548 E24.89698
G1 X130.634 Y32.584 E24.91986
G1 X131.389 Y32.693 E24.95836
G1 X131.913 Y32.809 E24.98544
G1 X132.305 Y32.952 E25.0065
G1 X133.738 Y33.572 E25.0853
G1 X134.249 Y33.844 E25.11451
G1 X135.744 Y34.801 E25.20409
G1 X136.237 Y35.181 E25.2355
G1 X137.574 Y36.408 E25.32708
G1 X137.793 Y36.627 E25.34271
G1 X138.534 Y37.435 E25.39804
G1 X138.895 Y37.899 E25.42771
G1 X139.743 Y39.197 E25.50595
G1 X140.02 Y39.707 E25.53524
G1 X141.142 Y42.237 E25.67491
G1 X141.274 Y42.58 E25.69346
G1 X141.759 Y44.067 E25.77239
G1 X141.865 Y44.473 E25.79356
G1 X142.442 Y47.342 E25.94125
G1 X142.497 Y47.714 E25.96022
G1 X142.637 Y49.2 E26.03555
G1 X142.651 Y49.661 E26.05882
G1 X142.616 Y50.688 E26.11068
G1 X142.575 Y51.119 E26.13253
G1 X142.357 Y52.518 E26.20398
G1 X142.295 Y52.829 E26.21999
G1 X140.746 Y59.086 E26.54528
G1 X140.621 Y59.488 E26.56653
G1 X137.725 Y67.191 E26.98182
G1 X136.137 Y72.405 E27.25688
G1 X134.839 Y77.73 E27.53348
G1 X134.32 Y80.343 E27.66792
G1 X133.48 Y85.745 E27.94381
G1 X132.948 Y91.181 E28.21945
G1 X132.723 Y96.619 E28.49412
G1 X132.808 Y102.08 E28.76974
G1 X133.202 Y107.529 E29.04544
G1 X133.899 Y112.925 E29.32002
G1 X134.907 Y118.304 E29.5962
G1 X135.506 Y120.89 E29.73015
G1 X136.511 Y124.632 E29.92569
G1 X136.532 Y124.713 E29.92991
G1 X138.296 Y131.948 E30.30572
G1 X138.382 Y132.46 E30.33192
G1 X138.525 Y133.961 E30.40801
G1 X138.539 Y134.425 E30.43144
G1 X138.504 Y135.452 E30.4833
G1 X138.454 Y135.936 E30.50785
G1 X138.061 Y138.234 E30.62551
G1 X138.01 Y138.481 E30.63823
G1 X137.441 Y140.812 E30.75932
G1 X137.267 Y141.343 E30.78752
G1 X136.521 Y143.133 E30.88539
G1 X136.443 Y143.306 E30.89496
G1 X135.621 Y145.018 E30.9908
G1 X135.436 Y145.357 E31.01029
G1 X135.092 Y145.912 E31.04324
G1 X134.684 Y146.449 E31.07728
G1 X133.332 Y147.922 E31.17818
G1 X133.057 Y148.192 E31.19763
G1 X131.967 Y149.15 E31.27086
G1 X131.638 Y149.407 E31.29193
G1 X130.762 Y150.013 E31.34568
G1 X130.179 Y150.34 E31.37942
G1 X128.08 Y151.275 E31.49538
G1 X127.575 Y151.457 E31.52247
G1 X127.049 Y151.561 E31.54953
G1 X126.78 Y151.583 E31.56315
G1 X124.82 Y151.673 E31.66216
G1 X124.284 Y151.658 E31.68922
G1 X123.801 Y151.574 E31.71396
G1 X121.867 Y151.102 E31.81443
G1 X121.644 Y151.04 E31.82611
G1 X115.727 Y149.184 E32.13906
G1 X110.371 Y147.813 E32.41806
G1 X107.79 Y147.27 E32.55117
G1 X102.385 Y146.367 E32.82771
G1 X96.957 Y145.773 E33.10327
G1 X91.532 Y145.488 E33.37742
G1 X77.532 Y145.628 E34.08397
G1 X77.006 Y145.594 E34.11057
G1 X71.886 Y144.89 E34.37139
G1 X71.361 Y144.778 E34.39848
G1 X70.796 Y144.559 E34.42906
G1 X69.772 Y144.059 E34.48656
G1 X69.259 Y143.753 E34.51671
G1 X64.447 Y140.314 E34.81519
G1 X59.83 Y137.402 E35.09066
G1 X57.471 Y136.051 E35.22785
G1 X53.465 Y133.93 E35.4566
G1 X53.264 Y133.815 E35.46829
G1 X48.183 Y130.692 E35.76926
G1 X43.394 Y128.086 E36.04441
G1 X38.385 Y125.718 E36.32401
G1 X35.977 Y124.656 E36.45683
G1 X35.504 Y124.404 E36.48387
G1 X35.251 Y124.228 E36.49942
G1 X34.614 Y123.744 E36.5398
G1 X34.212 Y123.389 E36.56686
G1 X33.868 Y122.978 E36.59391
G1 X33.696 Y122.716 E36.60973
G1 X32.973 Y121.498 E36.68121
G1 X32.735 Y121.017 E36.70829
G1 X32.57 Y120.507 E36.73534
G1 X32.483 Y119.978 E36.7624
G1 X32.474 Y119.48 E36.78753
G1 X32.575 Y117.468 E36.8892
G1 X32.641 Y116.935 E36.9163
G1 X32.741 Y116.551 E36.93632
G1 X33.777 Y113.312 E37.10794
G1 X35.294 Y107.982 E37.3876
G1 X35.913 Y105.387 E37.52223
G1 X36.959 Y100.013 E37.79852
G1 X37.697 Y94.617 E38.07337
G1 X38.128 Y89.173 E38.34896
G1 X38.252 Y83.731 E38.62366
G1 X38.066 Y78.272 E38.89931
G1 X37.574 Y72.848 E39.17416
G1 X36.698 Y66.913 E39.47692
G1 X36.662 Y66.539 E39.49588
G1 X36.584 Y64.697 E39.58892
G1 X36.602 Y64.161 E39.61598
G1 X36.698 Y63.634 E39.64302
G1 X36.872 Y63.127 E39.67007
G1 X37.071 Y62.732 E39.69239
G1 X37.768 Y61.536 E39.76225
G1 X38.071 Y61.094 E39.78929
G1 X38.437 Y60.703 E39.81632
G1 X38.71 Y60.475 E39.83427
G1 X39.52 Y59.864 E39.88547
G0 F1050 X39.761 Y60.183
G1 F1200 X40.412 Y59.804 E39.92349
G1 X44.059 Y58.217 E40.1242
G1 X48.977 Y55.803 E40.40068
G1 X53.77 Y53.101 E40.67835
G1 X57.093 Y51.02 E40.87621
G1 X57.264 Y50.92 E40.88621
G1 X58.815 Y50.077 E40.97529
G1 X58.821 Y50.074 E40.97563
G1 X62.982 Y47.823 E41.21438
G1 X67.637 Y44.978 E41.48969
G1 X73.595 Y40.781 E41.85748
G1 X74 Y40.538 E41.88131
G1 X75.02 Y40.025 E41.93893
G1 X75.488 Y39.834 E41.96444
G1 X76.022 Y39.714 E41.99206
G1 X81.173 Y39.005 E42.25446
G1 X81.659 Y38.975 E42.27903
G1 X91.831 Y39.133 E42.79242
G1 X97.354 Y39.058 E43.07117
G1 X102.813 Y38.675 E43.34734
G1 X108.241 Y37.983 E43.62348
G1 X113.609 Y36.989 E43.89898
G1 X116.264 Y36.38 E44.03645
G1 X121.597 Y34.914 E44.31556
G1 X123.268 Y34.365 E44.40432
G1 X123.323 Y34.347 E44.40724
G1 X126.715 Y33.301 E44.58638
G1 X127.001 Y33.227 E44.60129
G1 X128.121 Y32.992 E44.65904
G1 X128.833 Y32.924 E44.69513
G1 X130.175 Y32.947 E44.76287
G1 X130.577 Y32.98 E44.78322
G1 X131.332 Y33.089 E44.82172
G1 X131.825 Y33.2 E44.84722
G1 X132.146 Y33.319 E44.8645
G1 X133.579 Y33.939 E44.94329
G1 X134.033 Y34.181 E44.96925
G1 X135.528 Y35.138 E45.05883
G1 X135.967 Y35.475 E45.08676
G1 X137.304 Y36.702 E45.17834
G1 X137.498 Y36.897 E45.19222
G1 X138.239 Y37.705 E45.24755
G1 X138.56 Y38.118 E45.27395
G1 X139.408 Y39.416 E45.35219
G1 X139.654 Y39.869 E45.37821
G1 X140.776 Y42.399 E45.51788
G1 X140.893 Y42.704 E45.53436
G1 X141.378 Y44.191 E45.61329
G1 X141.473 Y44.552 E45.63213
G1 X142.05 Y47.421 E45.77982
G1 X142.099 Y47.752 E45.7967
G1 X142.239 Y49.238 E45.87203
G1 X142.251 Y49.647 E45.89267
G1 X142.216 Y50.674 E45.94453
G1 X142.18 Y51.058 E45.964
G1 X141.962 Y52.457 E46.03545
G1 X141.906 Y52.733 E46.04966
G1 X140.357 Y58.99 E46.37495
G1 X140.246 Y59.347 E46.39382
G1 X137.346 Y67.06 E46.80966
G1 X135.756 Y72.282 E47.08514
G1 X134.447 Y77.649 E47.36393
G1 X133.926 Y80.273 E47.49893
G1 X133.083 Y85.699 E47.77604
G1 X132.548 Y91.16 E48.05295
G1 X132.323 Y96.609 E48.32817
G1 X132.409 Y102.098 E48.60521
G1 X132.802 Y107.555 E48.88131
G1 X133.505 Y112.996 E49.15818
G1 X134.515 Y118.381 E49.43467
G1 X135.126 Y121.022 E49.57147
G1 X136.124 Y124.736 E49.76555
G1 X136.143 Y124.808 E49.7693
G1 X137.907 Y132.043 E50.14512
G1 X137.984 Y132.498 E50.1684
G1 X138.127 Y133.999 E50.2445
G1 X138.139 Y134.411 E50.2653
G1 X138.104 Y135.438 E50.31715
G1 X138.06 Y135.868 E50.33897
G1 X137.667 Y138.166 E50.45662
G1 X137.622 Y138.386 E50.46795
G1 X137.053 Y140.717 E50.58904
G1 X136.898 Y141.189 E50.61411
G1 X136.152 Y142.979 E50.71198
G1 X136.083 Y143.133 E50.72049
G1 X135.261 Y144.845 E50.81633
G1 X135.096 Y145.146 E50.83365
G1 X134.752 Y145.701 E50.86661
G1 X134.389 Y146.179 E50.8969
G1 X133.037 Y147.652 E50.9978
G1 X132.793 Y147.892 E51.01507
G1 X131.703 Y148.85 E51.0883
G1 X131.411 Y149.078 E51.107
G1 X130.535 Y149.684 E51.16075
G1 X130.016 Y149.975 E51.19078
G1 X127.917 Y150.91 E51.30674
G1 X127.44 Y151.079 E51.33228
G1 X126.762 Y151.184 E51.3669
G1 X124.802 Y151.274 E51.46592
G1 X124.296 Y151.257 E51.49147
G1 X123.896 Y151.186 E51.51197
G1 X121.962 Y150.714 E51.61243
G1 X121.763 Y150.658 E51.62287
G1 X115.831 Y148.797 E51.93661
G1 X110.461 Y147.423 E52.21634
G1 X107.864 Y146.876 E52.35028
G1 X102.443 Y145.971 E52.62763
G1 X97.002 Y145.376 E52.90385
G1 X91.533 Y145.088 E53.18023
G1 X77.528 Y145.228 E53.88703
G1 X77.06 Y145.198 E53.9107
G1 X71.94 Y144.494 E54.17151
G1 X71.446 Y144.386 E54.19703
G1 X70.972 Y144.2 E54.22273
G1 X69.948 Y143.7 E54.28023
G1 X69.491 Y143.427 E54.3071
G1 X64.679 Y139.988 E54.60558
G1 X60.026 Y137.054 E54.88318
G1 X57.655 Y135.695 E55.02109
G1 X53.652 Y133.576 E55.24966
G1 X53.474 Y133.474 E55.26002
G1 X48.397 Y130.354 E55.56074
G1 X43.564 Y127.723 E55.83844
G1 X38.569 Y125.362 E56.11725
G1 X36.138 Y124.29 E56.25133
G1 X35.493 Y123.91 E56.28911
G1 X34.856 Y123.426 E56.32949
G1 X34.479 Y123.089 E56.355
G1 X34.04 Y122.511 E56.39163
G1 X33.317 Y121.293 E56.46311
G1 X33.094 Y120.84 E56.48859
G1 X32.946 Y120.356 E56.51414
G1 X32.875 Y119.856 E56.53962
G1 X32.873 Y119.5 E56.55759
G1 X32.974 Y117.488 E56.65925
G1 X33.039 Y116.986 E56.6848
G1 X33.122 Y116.673 E56.70114
G1 X34.16 Y113.426 E56.87317
G1 X35.68 Y108.087 E57.15331
G1 X36.307 Y105.46 E57.2896
G1 X37.352 Y100.093 E57.56554
G1 X38.096 Y94.65 E57.84278
G1 X38.528 Y89.196 E58.11887
G1 X38.652 Y83.727 E58.39494
G1 X38.466 Y78.258 E58.67109
G1 X37.971 Y72.805 E58.94741
G1 X37.093 Y66.854 E59.25098
G1 X37.062 Y66.522 E59.26781
G1 X36.984 Y64.68 E59.36085
G1 X37.002 Y64.175 E59.38635
G1 X37.1 Y63.679 E59.41187
G1 X37.275 Y63.205 E59.43737
G1 X37.416 Y62.934 E59.45278
G1 X38.113 Y61.738 E59.52264
G1 X38.402 Y61.322 E59.5482
G1 X38.752 Y60.958 E59.57369
G1 X38.951 Y60.794 E59.5867
G1 X39.761 Y60.183 E59.6379
G1 F1500 E53.1379
;MESH:flugel-2.stl
G0 F1050 X53.216 Y57.841
G0 X54.266 Y58.577
G0 X67.019 Y55.76
G0 X136.077 Y41.506
G0 X136.162 Y41.558
;TYPE:WALL-INNER
G1 F1500 E59.6379
G1 F1200 X136.179 Y41.592 E59.63982
G1 X137.095 Y43.416 E59.74282
G1 X137.476 Y44.368 E59.79457
G1 X137.756 Y45.302 E59.84378
G1 X137.857 Y46.31 E59.8949
G1 X138.171 Y47.358 E59.95011
G1 X138.358 Y48.292 E59.99818
G1 X138.453 Y49.245 E60.04652
G1 X138.453 Y50.193 E60.09436
G1 X138.358 Y51.146 E60.14269
G1 X138.171 Y52.085 E60.19101
G1 X137.866 Y53.103 E60.24464
G1 X137.666 Y54.108 E60.29635
G1 X137.36 Y55.117 E60.34956
G1 X136.961 Y57.128 E60.45302
G1 X136.671 Y58.095 E60.50397
G1 X135.489 Y61.049 E60.66453
G1 X134.321 Y62.993 E60.77898
G1 X133.749 Y63.756 E60.82711
G1 X133.071 Y64.532 E60.87911
G1 X132.29 Y65.312 E60.93481
G1 X131.513 Y65.991 E60.98689
G1 X130.751 Y66.562 E61.03494
G1 X128.808 Y67.728 E61.1493
G1 X127.859 Y68.107 E61.20087
G1 X126.969 Y68.374 E61.24776
G1 X126.11 Y68.374 E61.29111
G1 X125.27 Y68.206 E61.33434
G1 X123.373 Y67.067 E61.446
G1 X119.337 Y64.04 E61.7006
G1 X117.269 Y62.799 E61.82231
G1 X116.256 Y62.292 E61.87948
G1 X115.254 Y61.69 E61.93847
G1 X113.194 Y60.66 E62.0547
G1 X111.13 Y59.835 E62.16687
G1 X109.061 Y59.214 E62.27588
