;FLAVOR:Marlin
;TIME:6615
;Filament used: 6.57999m
;Layer height: 0.3
;Generated with Cura_SteamEngine 3.6.0
M140 S60
M105
M190 S60
M104 S205
M105
M109 S205
M82 ;absolute extrusion mode
G28 ;Home
G1 Z15.0 F6000 ;Move the platform down 15mm
;Prime the extruder
G92 E0
G1 F200 E3
G92 E0
G92 E0
G1 F1500 E-6.5
;LAYER_COUNT:66
;LAYER:0
M107
G0 F1050 X46.942 Y55.611 Z0.3
;TYPE:SKIRT
G1 F1500 E0
G1 F1200 X51.007 Y52.032 E0.27332
G1 X54.891 Y48.202 E0.5486
G1 X59.703 Y42.863 E0.91132
G1 X59.937 Y42.624 E0.9282
G1 X61.943 Y40.742 E1.06701
G1 X62.352 Y40.406 E1.09372
G1 X64.431 Y38.918 E1.22274
G1 X64.913 Y38.623 E1.25126
G1 X65.215 Y38.481 E1.2681
G1 X65.497 Y38.363 E1.28353
G1 X65.608 Y38.318 E1.28957
G1 X67.61 Y37.55 E1.39778
G1 X72.611 Y35.381 E1.67288
G1 X77.458 Y32.946 E1.94661
G1 X82.159 Y30.24 E2.22035
G1 X86.707 Y27.269 E2.49449
G1 X91.812 Y23.473 E2.81554
G1 X92.289 Y23.169 E2.84408
G1 X92.803 Y22.934 E2.8726
G1 X93.346 Y22.775 E2.90116
G1 X94.149 Y22.683 E2.94195
G1 X96.692 Y22.651 E3.07029
G1 X97.293 Y22.689 E3.10068
G1 X102.68 Y23.439 E3.37516
G1 X108.098 Y23.883 E3.6495
G1 X113.53 Y24.021 E3.92371
G1 X118.948 Y23.852 E4.19727
G1 X124.946 Y23.328 E4.50111
G1 X125.277 Y23.313 E4.51783
G1 X128.358 Y23.3 E4.67332
G1 X128.657 Y23.31 E4.68841
G1 X131.051 Y23.479 E4.80953
G1 X131.392 Y23.518 E4.82685
G1 X133.509 Y23.852 E4.935
G1 X133.692 Y23.885 E4.94439
G1 X137.484 Y24.665 E5.13976
G1 X138.149 Y24.863 E5.17478
G1 X140.281 Y25.706 E5.29047
G1 X140.491 Y25.796 E5.302
G1 X142.907 Y26.915 E5.43637
G1 X143.11 Y27.017 E5.44783
G1 X145.2 Y28.133 E5.5674
G1 X145.632 Y28.399 E5.593
G1 X147.411 Y29.662 E5.70311
G1 X148.045 Y30.223 E5.74583
G1 X153.573 Y36.26 E6.15892
G1 X153.924 Y36.703 E6.18744
G1 X154.21 Y37.191 E6.21599
G1 X154.424 Y37.714 E6.2445
G1 X154.561 Y38.262 E6.27301
G1 X154.621 Y38.824 E6.30153
G1 X154.62 Y39.121 E6.31652
G1 X154.519 Y41.645 E6.444
G1 X154.456 Y42.207 E6.47254
G1 X154.315 Y42.754 E6.50104
G1 X154.098 Y43.276 E6.52957
G1 X153.928 Y43.583 E6.54728
G1 X152.241 Y46.322 E6.70962
G1 X149.588 Y51.087 E6.98485
G1 X147.223 Y55.968 E7.25856
G1 X145.134 Y60.985 E7.53281
G1 X143.332 Y66.11 E7.80697
G1 X141.811 Y71.37 E8.08329
G1 X141.185 Y73.941 E8.21683
G1 X140.115 Y79.309 E8.49306
G1 X139.693 Y82.025 E8.63177
G1 X139.118 Y86.441 E8.8565
G1 X139.066 Y86.75 E8.87231
G1 X138.8 Y88.01 E8.9373
G1 X138.671 Y88.477 E8.96175
G1 X137.216 Y92.735 E9.18883
G1 X137.098 Y93.04 E9.20534
G1 X136.378 Y94.691 E9.29623
G1 X134.357 Y99.824 E9.57463
G1 X132.675 Y104.934 E9.84611
G1 X131.258 Y110.217 E10.12215
G1 X130.681 Y112.813 E10.25635
G1 X129.72 Y118.191 E10.53205
G1 X129.068 Y123.573 E10.80564
G1 X128.719 Y129.026 E11.08139
G1 X128.665 Y131.329 E11.19765
G1 X128.612 Y131.892 E11.22618
G1 X128.48 Y132.441 E11.25468
G1 X128.272 Y132.967 E11.28322
G1 X127.991 Y133.458 E11.31177
G1 X127.645 Y133.905 E11.3403
G1 X127.035 Y134.458 E11.38185
G1 X126.174 Y135.091 E11.43578
G1 X125.966 Y135.234 E11.44852
G1 X121.299 Y138.23 E11.72839
G1 X116.912 Y141.412 E12.00189
G1 X112.695 Y144.85 E12.27646
G1 X108.699 Y148.501 E12.54962
G1 X104.573 Y152.741 E12.84818
G1 X104.152 Y153.116 E12.87663
G1 X101.952 Y154.816 E13.01694
G1 X101.253 Y155.249 E13.05844
G1 X99.131 Y156.279 E13.17747
G1 X98.731 Y156.447 E13.19937
G1 X96.418 Y157.274 E13.32333
G1 X95.873 Y157.427 E13.3519
G1 X95.542 Y157.48 E13.36881
G1 X90.64 Y158.061 E13.61793
G1 X90.075 Y158.088 E13.64647
G1 X89.512 Y158.035 E13.67501
G1 X88.755 Y157.831 E13.71457
G1 X86.656 Y157.038 E13.82781
G1 X86.143 Y156.801 E13.85633
G1 X85.672 Y156.498 E13.88459
G1 X84.198 Y155.394 E13.97753
G1 X83.962 Y155.203 E13.99285
G1 X79.72 Y151.492 E14.27728
G1 X75.462 Y148.128 E14.55113
G1 X71.016 Y145.005 E14.82532
G1 X66.174 Y141.991 E15.11314
G1 X65.622 Y141.577 E15.14796
G1 X63.129 Y139.349 E15.3167
G1 X62.735 Y138.944 E15.34521
G1 X62.44 Y138.546 E15.37021
G1 X59.809 Y134.497 E15.61389
G1 X56.656 Y129.994 E15.89131
G1 X53.294 Y125.729 E16.16537
G1 X51.546 Y123.693 E16.30079
G1 X47.833 Y119.726 E16.575
G1 X43.889 Y115.962 E16.85013
G1 X39.753 Y112.442 E17.12421
G1 X35.437 Y109.169 E17.39757
G1 X30.922 Y106.131 E17.6722
G1 X26.247 Y103.357 E17.94653
G1 X22.502 Y101.377 E18.16031
G1 X22.023 Y101.078 E18.1888
G1 X21.59 Y100.715 E18.21732
G1 X21.212 Y100.294 E18.24587
G1 X20.898 Y99.824 E18.2744
G1 X20.653 Y99.314 E18.30295
G1 X20.483 Y98.775 E18.33147
G1 X20.394 Y98.258 E18.35795
G1 X19.923 Y93.766 E18.58588
G1 X19.904 Y93.201 E18.61441
G1 X19.997 Y92.48 E18.65109
G1 X21.047 Y87.764 E18.89492
G1 X21.951 Y82.406 E19.16913
G1 X22.555 Y76.972 E19.44505
G1 X22.78 Y73.462 E19.62255
G1 X22.856 Y72.901 E19.65111
G1 X23.01 Y72.357 E19.67965
G1 X23.239 Y71.841 E19.70814
G1 X23.539 Y71.361 E19.7367
G1 X23.904 Y70.929 E19.76524
G1 X24.245 Y70.616 E19.7886
G1 X26.552 Y68.736 E19.93879
G1 X27.205 Y68.303 E19.97833
G1 X33.606 Y64.91 E20.34393
G1 X38.22 Y62.066 E20.61746
G1 X42.661 Y58.97 E20.89066
G1 X46.942 Y55.611 E21.16527
G0 F1050 X47.189 Y55.926
G1 F1200 X51.288 Y52.317 E21.44088
G1 X55.178 Y48.481 E21.71658
G1 X60 Y43.131 E22.08005
G1 X60.211 Y42.916 E22.09525
G1 X62.217 Y41.034 E22.23406
G1 X62.585 Y40.732 E22.25809
G1 X64.664 Y39.244 E22.38711
G1 X65.122 Y38.965 E22.41417
G1 X65.369 Y38.85 E22.42792
G1 X65.651 Y38.732 E22.44335
G1 X65.751 Y38.692 E22.44879
G1 X67.751 Y37.924 E22.5569
G1 X72.778 Y35.745 E22.8334
G1 X77.651 Y33.296 E23.10862
G1 X82.372 Y30.579 E23.38351
G1 X86.935 Y27.598 E23.65857
G1 X92.051 Y23.794 E23.9803
G1 X92.504 Y23.507 E24.00736
G1 X92.995 Y23.29 E24.03445
G1 X93.512 Y23.149 E24.06149
G1 X94.154 Y23.083 E24.09406
G1 X96.697 Y23.051 E24.22241
G1 X97.238 Y23.085 E24.24976
G1 X102.646 Y23.838 E24.52531
G1 X108.072 Y24.283 E24.80006
G1 X113.533 Y24.422 E25.07574
G1 X118.978 Y24.251 E25.35065
G1 X124.981 Y23.727 E25.65475
G1 X125.279 Y23.713 E25.66981
G1 X128.36 Y23.7 E25.82529
G1 X128.629 Y23.709 E25.83887
G1 X131.023 Y23.878 E25.95999
G1 X131.33 Y23.913 E25.97558
G1 X133.447 Y24.247 E26.08374
G1 X133.611 Y24.277 E26.09215
G1 X137.403 Y25.057 E26.28752
G1 X138.002 Y25.235 E26.31906
G1 X140.134 Y26.078 E26.43475
G1 X140.323 Y26.159 E26.44513
G1 X142.739 Y27.278 E26.5795
G1 X142.922 Y27.369 E26.58981
G1 X145.012 Y28.485 E26.70938
G1 X145.4 Y28.726 E26.73243
G1 X147.179 Y29.989 E26.84253
G1 X147.75 Y30.493 E26.88097
G1 X153.278 Y36.53 E27.29406
G1 X153.61 Y36.951 E27.32111
G1 X153.875 Y37.417 E27.34817
G1 X154.068 Y37.917 E27.37521
G1 X154.185 Y38.441 E27.40231
G1 X154.22 Y39.105 E27.43586
G1 X154.119 Y41.629 E27.56334
G1 X154.058 Y42.162 E27.59041
G1 X153.918 Y42.679 E27.61744
G1 X153.587 Y43.373 E27.65625
G1 X151.893 Y46.123 E27.81924
G1 X149.239 Y50.89 E28.09458
G1 X146.851 Y55.819 E28.37098
G1 X144.76 Y60.841 E28.64551
G1 X142.95 Y65.987 E28.9208
G1 X141.433 Y71.234 E29.19644
G1 X140.792 Y73.866 E29.33314
G1 X139.716 Y79.266 E29.61101
G1 X139.307 Y81.896 E29.74533
G1 X138.722 Y86.389 E29.97399
G1 X138.674 Y86.668 E29.98827
G1 X138.408 Y87.928 E30.05326
G1 X138.293 Y88.348 E30.07524
G1 X136.838 Y92.606 E30.30232
G1 X136.731 Y92.88 E30.31716
G1 X136.013 Y94.528 E30.40788
G1 X133.986 Y99.674 E30.68699
G1 X132.29 Y104.827 E30.96076
G1 X130.864 Y110.146 E31.23867
G1 X130.289 Y112.729 E31.37221
G1 X129.325 Y118.124 E31.64878
G1 X128.67 Y123.535 E31.92384
G1 X128.319 Y129.017 E32.20106
G1 X128.265 Y131.32 E32.31731
G1 X128.213 Y131.853 E32.34434
G1 X128.081 Y132.373 E32.37141
G1 X127.874 Y132.868 E32.39849
G1 X127.596 Y133.326 E32.42553
G1 X127.253 Y133.739 E32.45262
G1 X126.798 Y134.135 E32.48306
G1 X125.937 Y134.768 E32.53699
G1 X125.75 Y134.897 E32.54846
G1 X121.074 Y137.899 E32.82888
G1 X116.67 Y141.093 E33.10342
G1 X112.436 Y144.544 E33.37908
G1 X108.416 Y148.218 E33.65391
G1 X104.286 Y152.462 E33.95276
G1 X103.907 Y152.8 E33.97839
G1 X101.707 Y154.5 E34.11869
G1 X101.078 Y154.89 E34.15604
G1 X98.956 Y155.92 E34.27508
G1 X98.596 Y156.071 E34.29478
G1 X96.283 Y156.898 E34.41874
G1 X95.766 Y157.04 E34.4458
G1 X95.495 Y157.083 E34.45965
G1 X90.593 Y157.664 E34.70876
G1 X90.057 Y157.687 E34.73583
G1 X89.524 Y157.631 E34.76288
G1 X88.897 Y157.457 E34.79572
G1 X86.798 Y156.664 E34.90895
G1 X86.312 Y156.437 E34.93602
G1 X85.912 Y156.177 E34.9601
G1 X84.438 Y155.073 E35.05303
G1 X84.226 Y154.902 E35.06678
G1 X79.991 Y151.198 E35.35071
G1 X75.695 Y147.803 E35.62704
G1 X71.232 Y144.667 E35.9023
G1 X66.385 Y141.651 E36.1904
G1 X65.888 Y141.279 E36.22173
G1 X63.395 Y139.051 E36.39046
G1 X63.023 Y138.665 E36.41751
G1 X62.775 Y138.328 E36.43863
G1 X60.135 Y134.265 E36.68315
G1 X56.983 Y129.763 E36.96049
G1 X53.585 Y125.453 E37.23747
G1 X51.854 Y123.437 E37.37156
G1 X48.101 Y119.428 E37.64869
G1 X44.161 Y115.668 E37.92354
G1 X40.009 Y112.134 E38.19869
G1 X35.676 Y108.848 E38.47313
G1 X31.136 Y105.793 E38.74928
G1 X26.451 Y103.013 E39.0242
G1 X22.689 Y101.024 E39.23896
G1 X22.235 Y100.738 E39.26603
G1 X21.829 Y100.389 E39.29305
G1 X21.478 Y99.983 E39.32014
G1 X21.192 Y99.529 E39.34722
G1 X20.977 Y99.038 E39.37427
G1 X20.837 Y98.52 E39.40134
G1 X20.792 Y98.216 E39.41685
G1 X20.321 Y93.724 E39.64479
G1 X20.305 Y93.188 E39.67185
G1 X20.387 Y92.567 E39.70346
G1 X21.44 Y87.839 E39.9479
G1 X22.349 Y82.448 E40.2238
G1 X22.953 Y77.02 E40.49942
G1 X23.179 Y73.487 E40.67808
G1 X23.253 Y72.956 E40.70513
G1 X23.405 Y72.442 E40.73218
G1 X23.632 Y71.956 E40.75925
G1 X23.929 Y71.509 E40.78634
G1 X24.288 Y71.111 E40.81338
G1 X24.498 Y70.926 E40.82751
G1 X26.805 Y69.046 E40.97769
G1 X27.393 Y68.656 E41.0133
G1 X33.8 Y65.259 E41.37927
G1 X38.436 Y62.402 E41.65408
G1 X42.91 Y59.283 E41.92932
G1 X47.189 Y55.926 E42.20378
G0 F1050 X47.446 Y56.232
G1 F1200 X51.569 Y52.602 E42.481
G1 X55.465 Y48.76 E42.75713
G1 X60.297 Y43.399 E43.12135
G1 X60.485 Y43.207 E43.13491
G1 X62.491 Y41.325 E43.27372
G1 X62.818 Y41.057 E43.29506
G1 X64.897 Y39.569 E43.42408
G1 X65.524 Y39.219 E43.46032
G1 X65.806 Y39.101 E43.47575
G1 X65.895 Y39.065 E43.48059
G1 X67.906 Y38.294 E43.58928
G1 X72.952 Y36.105 E43.86686
G1 X77.845 Y33.647 E44.14319
G1 X82.577 Y30.923 E44.41873
G1 X87.164 Y27.926 E44.69525
G1 X92.29 Y24.115 E45.01759
G1 X92.718 Y23.846 E45.0431
G1 X93.183 Y23.649 E45.06859
G1 X93.674 Y23.526 E45.09413
G1 X94.159 Y23.483 E45.1187
G1 X96.702 Y23.451 E45.24705
G1 X97.183 Y23.482 E45.27137
G1 X102.594 Y24.235 E45.54707
G1 X108.047 Y24.682 E45.82318
G1 X113.535 Y24.822 E46.10022
G1 X118.99 Y24.651 E46.37565
G1 X125.016 Y24.125 E46.68091
G1 X125.28 Y24.113 E46.69424
G1 X128.361 Y24.1 E46.84973
G1 X128.6 Y24.108 E46.8618
G1 X130.994 Y24.277 E46.98291
G1 X131.268 Y24.308 E46.99683
G1 X133.385 Y24.642 E47.10498
G1 X133.531 Y24.669 E47.11248
G1 X137.323 Y25.449 E47.30785
G1 X137.855 Y25.607 E47.33585
G1 X139.987 Y26.45 E47.45155
G1 X140.155 Y26.522 E47.46078
G1 X142.571 Y27.641 E47.59514
G1 X142.733 Y27.722 E47.60428
G1 X144.823 Y28.838 E47.72385
G1 X145.168 Y29.052 E47.74434
G1 X146.947 Y30.315 E47.85444
G1 X147.455 Y30.763 E47.88862
G1 X152.983 Y36.8 E48.30171
G1 X153.294 Y37.199 E48.32724
G1 X153.538 Y37.641 E48.35272
G1 X153.71 Y38.117 E48.37826
G1 X153.804 Y38.614 E48.40379
G1 X153.82 Y39.089 E48.42777
G1 X153.719 Y41.613 E48.55525
G1 X153.659 Y42.115 E48.58076
G1 X153.521 Y42.601 E48.60626
G1 X153.246 Y43.163 E48.63783
G1 X151.555 Y45.907 E48.80049
G1 X148.88 Y50.713 E49.07807
G1 X146.49 Y55.647 E49.35474
G1 X144.387 Y60.696 E49.63075
G1 X142.57 Y65.865 E49.90726
G1 X141.042 Y71.147 E50.18474
G1 X140.4 Y73.785 E50.32176
G1 X139.326 Y79.173 E50.59901
G1 X138.907 Y81.868 E50.73665
G1 X138.325 Y86.337 E50.96408
G1 X138.283 Y86.585 E50.97678
G1 X138.017 Y87.845 E51.04177
G1 X137.914 Y88.219 E51.06134
G1 X136.459 Y92.477 E51.28842
G1 X136.364 Y92.721 E51.30164
G1 X135.632 Y94.4 E51.39407
G1 X133.613 Y99.528 E51.67219
G1 X131.91 Y104.703 E51.94713
G1 X130.477 Y110.046 E52.22629
G1 X129.894 Y112.664 E52.36165
G1 X128.93 Y118.06 E52.63827
G1 X128.269 Y123.515 E52.91557
G1 X127.92 Y128.982 E53.19203
G1 X127.865 Y131.31 E53.30954
G1 X127.813 Y131.813 E53.33506
G1 X127.683 Y132.302 E53.3606
G1 X127.477 Y132.763 E53.38608
G1 X127.202 Y133.187 E53.41158
G1 X126.862 Y133.562 E53.43713
G1 X126.561 Y133.813 E53.45691
G1 X125.7 Y134.446 E53.51083
G1 X125.534 Y134.561 E53.52103
G1 X120.849 Y137.569 E53.80199
G1 X116.416 Y140.784 E54.07835
G1 X112.177 Y144.24 E54.35435
G1 X108.134 Y147.934 E54.63073
G1 X103.999 Y152.183 E54.92993
G1 X103.663 Y152.483 E54.95266
G1 X101.463 Y154.183 E55.09297
G1 X100.903 Y154.53 E55.12622
G1 X98.781 Y155.56 E55.24525
G1 X98.461 Y155.694 E55.26276
G1 X96.148 Y156.521 E55.38672
G1 X95.448 Y156.686 E55.42302
G1 X90.546 Y157.267 E55.67213
G1 X90.04 Y157.286 E55.69768
G1 X89.538 Y157.226 E55.7232
G1 X89.038 Y157.082 E55.74945
G1 X86.939 Y156.289 E55.86269
G1 X86.482 Y156.074 E55.88818
G1 X86.152 Y155.857 E55.90811
G1 X84.678 Y154.753 E56.00104
G1 X84.489 Y154.6 E56.01332
G1 X80.253 Y150.894 E56.29735
G1 X75.939 Y147.485 E56.57483
G1 X71.46 Y144.339 E56.85105
G1 X66.596 Y141.312 E57.14016
G1 X66.155 Y140.981 E57.16799
G1 X63.662 Y138.753 E57.33672
G1 X63.312 Y138.387 E57.36228
G1 X63.111 Y138.11 E57.37955
G1 X60.466 Y134.039 E57.62455
G1 X57.309 Y129.531 E57.90228
G1 X53.907 Y125.215 E58.17962
G1 X52.149 Y123.167 E58.31583
G1 X48.387 Y119.148 E58.59364
G1 X44.432 Y115.374 E58.86952
G1 X40.265 Y111.827 E59.14568
G1 X35.887 Y108.507 E59.42296
G1 X31.358 Y105.46 E59.69843
G1 X26.64 Y102.66 E59.97529
G1 X22.876 Y100.67 E60.19016
G1 X22.449 Y100.399 E60.21568
G1 X22.071 Y100.064 E60.24117
G1 X21.749 Y99.674 E60.26669
G1 X21.493 Y99.238 E60.29221
G1 X21.309 Y98.767 E60.31773
G1 X21.189 Y98.175 E60.34821
G1 X20.718 Y93.683 E60.57614
G1 X20.706 Y93.177 E60.60168
G1 X20.778 Y92.653 E60.62838
G1 X21.834 Y87.91 E60.87359
G1 X22.746 Y82.508 E61.15007
G1 X23.353 Y77.046 E61.4274
G1 X23.579 Y73.513 E61.60606
G1 X23.651 Y73.012 E61.63161
G1 X23.801 Y72.529 E61.65713
G1 X24.025 Y72.076 E61.68263
G1 X24.317 Y71.664 E61.70812
G1 X24.751 Y71.236 E61.73888
G1 X27.058 Y69.356 E61.88906
G1 X27.58 Y69.01 E61.92067
G1 X34.001 Y65.606 E62.28742
G1 X38.649 Y62.741 E62.56297
G1 X43.141 Y59.61 E62.83929
G1 X47.446 Y56.232 E63.11544
G1 F1500 E56.61544
;MESH:sea_turtle-cut.stl
G0 F1050 X55.066 Y58.92
G0 X56.339 Y58.821
G0 X80.438 Y49.193
G0 X83.291 Y48.634
G0 X85.679 Y48.974
G0 X86.174 Y49.341
G0 X111.506 Y90.269
G0 X111.443 Y90.345
;TYPE:WALL-INNER
G1 F1500 E63.11544
G1 F1200 X111.224 Y90.377 E63.12661
G1 X110.948 Y90.419 E63.1407
G1 X109.09 Y89.345 E63.249
G1 X108.884 Y89.396 E63.25971
G1 X108.727 Y89.381 E63.26767
G1 X107.023 Y90.653 E63.37498
G1 X106.336 Y91.152 E63.41783
G1 X106.336 Y91.568 E63.43882
G1 X106.996 Y94.018 E63.56687
G1 X107.916 Y96.276 E63.68992
G1 X108.367 Y98.526 E63.80572
G1 X108.266 Y100.918 E63.92654
G1 X107.863 Y102.866 E64.02693
G1 X107.342 Y104.774 E64.12674
G1 X106.083 Y106.751 E64.24503
G1 X104.819 Y108.363 E64.3484
G1 X103.131 Y109.049 E64.44035
G1 X102.101 Y107.889 E64.51864
G1 X100.53 Y105.686 E64.65519
G1 X100.512 Y105.679 E64.65616
G1 X97.593 Y101.611 E64.90884
G1 X96.282 Y99.545 E65.03232
G1 X95.427 Y97.441 E65.14693
G1 X95.389 Y95.115 E65.26433
G1 X95.773 Y92.627 E65.39137
G1 X96.744 Y90.534 E65.50781
G1 X97.483 Y88.354 E65.62397
G1 X97.576 Y86.065 E65.73958
G1 X97.601 Y86.051 E65.74103
G1 X97.595 Y85.844 E65.75148
G1 X97.73 Y85.576 E65.76662
G1 X97.829 Y85.379 E65.77775
G1 X97.623 Y85.3 E65.78475
G1 X97.333 Y85.189 E65.80042
G1 X95.55 Y83.16 E65.93673
G1 X95.471 Y83.127 E65.94105
G1 X93.781 Y81.801 E66.04946
G1 X92.33 Y80.362 E66.15258
G1 X90.748 Y78.384 E66.2804
G1 X89.736 Y76.271 E66.39864
G1 X89.138 Y74.043 E66.51505
G1 X88.95 Y71.596 E66.63891
G1 X88.452 Y69.144 E66.76517
G1 X87.829 Y66.824 E66.8864
G1 X87.508 Y64.502 E67.00469
G1 X87.819 Y57.047 E67.38124
G1 X87.958 Y56.744 E67.39806
G1 X87.79 Y56.59 E67.40956
G1 X87.6 Y54.134 E67.53388
G1 X87.307 Y52.03 E67.64108
G1 X87.339 Y51.907 E67.6475
G1 X86.226 Y49.587 E67.77735
G1 X86.194 Y49.401 E67.78688
G1 X85.676 Y49.013 E67.81954
G1 X85.495 Y49.105 E67.82978
G1 X83.379 Y48.731 E67.93822
G1 X83.283 Y48.673 E67.94388
G1 X82.885 Y48.714 E67.96407
G1 X82.841 Y48.75 E67.96694
G1 X80.456 Y49.229 E68.08971
G1 X80.324 Y49.357 E68.09899
