;FLAVOR:Marlin
;TIME:3552
;Filament used: 2.93784m
;Layer height: 0.3
;Generated with Cura_SteamEngine 3.6.0
M140 S60
M105
M190 S60
M104 S205
M105
M109 S205
M82 ;absolute extrusion mode
G28 ;Home
G1 Z15.0 F6000 ;Move the platform down 15mm
;Prime the extruder
G92 E0
G1 F200 E3
G92 E0
G92 E0
G1 F1500 E-6.5
;LAYER_COUNT:52
;LAYER:0
M107
G0 F1050 X55.877 Y49.863 Z0.3
;TYPE:SKIRT
G1 F1500 E0
G1 F1200 X56.308 Y49.496 E0.02857
G1 X56.785 Y49.194 E0.05706
G1 X57.301 Y48.962 E0.08561
G1 X57.844 Y48.805 E0.11413
G1 X58.336 Y48.731 E0.13924
G1 X62.967 Y48.33 E0.37382
G1 X68.347 Y47.586 E0.64791
G1 X73.701 Y46.535 E0.92326
G1 X76.3 Y45.908 E1.05818
G1 X78.924 Y45.197 E1.19538
G1 X83.746 Y43.674 E1.45057
G1 X84.35 Y43.533 E1.48187
G1 X85.593 Y43.344 E1.54532
G1 X85.87 Y43.312 E1.55939
G1 X87.765 Y43.158 E1.65534
G1 X88.082 Y43.145 E1.67135
G1 X90.856 Y43.14 E1.81134
G1 X91.498 Y43.191 E1.84384
G1 X94.332 Y43.647 E1.9887
G1 X94.988 Y43.81 E2.02281
G1 X96.625 Y44.368 E2.11009
G1 X96.91 Y44.477 E2.12549
G1 X103.774 Y47.418 E2.50234
G1 X108.892 Y49.284 E2.77725
G1 X114.076 Y50.848 E3.05051
G1 X119.431 Y52.139 E3.32849
G1 X121.997 Y52.641 E3.46044
G1 X127.411 Y53.467 E3.73682
G1 X130.711 Y53.824 E3.90433
G1 X131.267 Y53.925 E3.93285
G1 X131.633 Y54.037 E3.95216
G1 X133.843 Y54.831 E4.07067
G1 X134.296 Y55.026 E4.09556
G1 X136.805 Y56.295 E4.23745
G1 X137.174 Y56.506 E4.2589
G1 X138.419 Y57.312 E4.33375
G1 X138.969 Y57.741 E4.36895
G1 X141.051 Y59.677 E4.51243
G1 X141.398 Y60.043 E4.53788
G1 X142.773 Y61.69 E4.64615
G1 X144.954 Y64.255 E4.81606
G1 X145.331 Y64.779 E4.84864
G1 X146.495 Y66.707 E4.96229
G1 X146.753 Y67.21 E4.99082
G1 X146.953 Y67.81 E5.02274
G1 X147.531 Y70.138 E5.14379
G1 X147.628 Y70.695 E5.17232
G1 X147.646 Y71.249 E5.20029
G1 X147.544 Y74.03 E5.34073
G1 X147.529 Y74.262 E5.35246
G1 X147.217 Y77.543 E5.51879
G1 X147.198 Y77.709 E5.52722
G1 X146.909 Y79.81 E5.63425
G1 X146.792 Y80.363 E5.66277
G1 X146.66 Y80.75 E5.68341
G1 X145.733 Y83.068 E5.80939
G1 X145.36 Y83.782 E5.85005
G1 X143.273 Y86.953 E6.04162
G1 X140.491 Y91.637 E6.31655
G1 X137.993 Y96.444 E6.58993
G1 X135.753 Y101.421 E6.86537
G1 X134.734 Y103.969 E7.00385
G1 X133.827 Y106.444 E7.13688
G1 X132.16 Y111.653 E7.41288
G1 X130.978 Y116.13 E7.64656
G1 X130.854 Y116.517 E7.66707
G1 X130.192 Y118.277 E7.76196
G1 X128.447 Y123.48 E8.03891
G1 X127.796 Y125.697 E8.15551
G1 X127.599 Y126.227 E8.18405
G1 X127.329 Y126.724 E8.21259
G1 X126.991 Y127.177 E8.24111
G1 X126.594 Y127.579 E8.26963
G1 X126.143 Y127.92 E8.29816
G1 X125.857 Y128.09 E8.31495
G1 X125.718 Y128.165 E8.32292
G1 X125.203 Y128.398 E8.35145
G1 X124.66 Y128.556 E8.37998
G1 X124.101 Y128.635 E8.40848
G1 X123.348 Y128.617 E8.44649
G1 X121.187 Y128.361 E8.5563
G1 X115.749 Y127.927 E8.83161
G1 X110.316 Y127.8 E9.10586
G1 X104.886 Y127.981 E9.38004
G1 X99.465 Y128.47 E9.65472
G1 X94.148 Y129.243 E9.92587
G1 X93.686 Y129.283 E9.94927
G1 X87.775 Y129.45 E10.24769
G1 X82.344 Y129.912 E10.52276
G1 X76.977 Y130.677 E10.79634
G1 X71.646 Y131.745 E11.07072
G1 X69.037 Y132.385 E11.20628
G1 X63.943 Y133.832 E11.47352
G1 X63.39 Y133.947 E11.50203
G1 X62.826 Y133.984 E11.53055
G1 X62.262 Y133.941 E11.5591
G1 X61.71 Y133.818 E11.58764
G1 X61.181 Y133.619 E11.61616
G1 X60.685 Y133.347 E11.64471
G1 X60.232 Y133.009 E11.67323
G1 X59.832 Y132.609 E11.70178
G1 X59.575 Y132.28 E11.72285
G1 X58.217 Y130.343 E11.84223
G1 X54.902 Y126.005 E12.11775
G1 X51.359 Y121.876 E12.39232
G1 X47.593 Y117.957 E12.66661
G1 X45.65 Y116.101 E12.80221
G1 X41.566 Y112.516 E13.07645
G1 X36.651 Y108.694 E13.39065
G1 X36.231 Y108.316 E13.41917
G1 X35.868 Y107.883 E13.44768
G1 X35.569 Y107.403 E13.47622
G1 X35.341 Y106.885 E13.50478
G1 X35.189 Y106.341 E13.53329
G1 X35.126 Y105.926 E13.55447
G1 X35.083 Y105.487 E13.57673
G1 X35.069 Y104.901 E13.60631
G1 X35.158 Y103.088 E13.69792
G1 X35.232 Y97.571 E13.97636
G1 X35.084 Y93.475 E14.1832
G1 X35.103 Y92.91 E14.21173
G1 X35.172 Y92.482 E14.23361
G1 X36.404 Y86.807 E14.52667
G1 X36.855 Y84.229 E14.65874
G1 X37.573 Y78.784 E14.9359
G1 X37.884 Y75.125 E15.12122
G1 X37.972 Y74.566 E15.14978
G1 X38.137 Y74.026 E15.17828
G1 X38.377 Y73.514 E15.20681
G1 X38.687 Y73.041 E15.23535
G1 X38.986 Y72.692 E15.25854
G1 X40.728 Y70.879 E15.38543
G1 X44.344 Y66.787 E15.66101
G1 X47.699 Y62.532 E15.93446
G1 X50.819 Y58.077 E16.20893
G1 X53.681 Y53.453 E16.48336
G1 X55.192 Y50.759 E16.63924
G1 X55.503 Y50.287 E16.66777
G1 X55.877 Y49.863 E16.6963
G0 F1050 X56.197 Y50.11
G1 F1200 X56.612 Y49.77 E16.72337
G1 X57.073 Y49.495 E16.75046
G1 X57.569 Y49.292 E16.77751
G1 X58.09 Y49.165 E16.80457
G1 X58.371 Y49.129 E16.81887
G1 X63.017 Y48.727 E17.05421
G1 X68.407 Y47.981 E17.32881
G1 X73.803 Y46.922 E17.60631
G1 X76.393 Y46.297 E17.74077
G1 X79.023 Y45.585 E17.87827
G1 X83.866 Y44.055 E18.13458
G1 X84.41 Y43.929 E18.16276
G1 X85.653 Y43.74 E18.22621
G1 X85.902 Y43.711 E18.23886
G1 X87.797 Y43.557 E18.33481
G1 X88.083 Y43.545 E18.34925
G1 X90.857 Y43.54 E18.48924
G1 X91.435 Y43.586 E18.5185
G1 X94.269 Y44.042 E18.66336
G1 X94.858 Y44.189 E18.694
G1 X96.495 Y44.747 E18.78128
G1 X96.752 Y44.845 E18.79516
G1 X103.621 Y47.789 E19.1723
G1 X108.749 Y49.658 E19.44774
G1 X113.988 Y51.239 E19.7239
G1 X119.329 Y52.526 E20.00115
G1 X121.93 Y53.035 E20.1349
G1 X127.377 Y53.866 E20.41297
G1 X130.668 Y54.222 E20.58002
G1 X131.195 Y54.319 E20.60706
G1 X131.498 Y54.413 E20.62307
G1 X133.708 Y55.207 E20.74158
G1 X134.116 Y55.383 E20.764
G1 X136.625 Y56.652 E20.90589
G1 X136.956 Y56.842 E20.92515
G1 X138.201 Y57.648 E21
G1 X138.696 Y58.034 E21.03168
G1 X140.778 Y59.97 E21.17515
G1 X141.091 Y60.299 E21.19807
G1 X142.466 Y61.946 E21.30634
G1 X144.649 Y64.514 E21.47644
G1 X144.989 Y64.985 E21.50575
G1 X146.153 Y66.913 E21.6194
G1 X146.395 Y67.392 E21.64649
G1 X146.565 Y67.907 E21.67386
G1 X147.143 Y70.235 E21.79491
G1 X147.233 Y70.763 E21.82194
G1 X147.247 Y71.234 E21.84572
G1 X147.145 Y74.015 E21.98615
G1 X147.131 Y74.224 E21.99673
G1 X146.819 Y77.505 E22.16305
G1 X146.801 Y77.655 E22.17067
G1 X146.512 Y79.756 E22.2777
G1 X146.4 Y80.28 E22.30474
G1 X146.289 Y80.602 E22.32193
G1 X145.362 Y82.92 E22.44791
G1 X145.026 Y83.562 E22.48448
G1 X142.934 Y86.741 E22.67653
G1 X140.142 Y91.441 E22.95241
G1 X137.631 Y96.274 E23.22727
G1 X135.379 Y101.277 E23.50414
G1 X134.366 Y103.808 E23.64172
G1 X133.449 Y106.311 E23.77625
G1 X131.775 Y111.544 E24.05351
G1 X130.591 Y116.028 E24.28756
G1 X130.48 Y116.376 E24.30599
G1 X129.815 Y118.144 E24.40132
G1 X128.06 Y123.376 E24.67981
G1 X127.412 Y125.584 E24.79594
G1 X127.223 Y126.086 E24.823
G1 X126.962 Y126.554 E24.85005
G1 X126.633 Y126.979 E24.87717
G1 X126.246 Y127.349 E24.90419
G1 X125.667 Y127.738 E24.93939
G1 X125.528 Y127.813 E24.94736
G1 X125.039 Y128.032 E24.9744
G1 X124.522 Y128.176 E25.00149
G1 X123.99 Y128.241 E25.02853
G1 X123.395 Y128.22 E25.05858
G1 X121.239 Y127.964 E25.16815
G1 X115.755 Y127.526 E25.44578
G1 X110.312 Y127.399 E25.72054
G1 X104.855 Y127.582 E25.99608
G1 X99.446 Y128.07 E26.27016
G1 X94.091 Y128.848 E26.54323
G1 X93.675 Y128.884 E26.56431
G1 X87.73 Y129.052 E26.86444
G1 X82.308 Y129.513 E27.13905
G1 X76.911 Y130.283 E27.41417
G1 X71.569 Y131.353 E27.68911
G1 X68.917 Y132.003 E27.82691
G1 X63.834 Y133.447 E28.09357
G1 X63.308 Y133.555 E28.12067
G1 X62.773 Y133.583 E28.14771
G1 X62.239 Y133.532 E28.17478
G1 X61.719 Y133.402 E28.20183
G1 X61.224 Y133.196 E28.22888
G1 X60.765 Y132.918 E28.25597
G1 X60.352 Y132.576 E28.28303
G1 X59.902 Y132.05 E28.31796
G1 X58.534 Y130.099 E28.43821
G1 X55.209 Y125.747 E28.7146
G1 X51.66 Y121.611 E28.98963
G1 X47.875 Y117.674 E29.26524
G1 X45.932 Y115.817 E29.40087
G1 X41.81 Y112.198 E29.67769
G1 X36.897 Y108.378 E29.99175
G1 X36.499 Y108.018 E30.01884
G1 X36.16 Y107.603 E30.04588
G1 X35.885 Y107.142 E30.07297
G1 X35.682 Y106.646 E30.10001
G1 X35.524 Y105.887 E30.13914
G1 X35.481 Y105.448 E30.1614
G1 X35.468 Y104.921 E30.188
G1 X35.558 Y103.085 E30.28077
G1 X35.632 Y97.582 E30.5585
G1 X35.483 Y93.461 E30.76661
G1 X35.504 Y92.925 E30.79368
G1 X35.563 Y92.567 E30.81199
G1 X36.797 Y86.888 E31.10527
G1 X37.253 Y84.277 E31.23903
G1 X37.971 Y78.829 E31.51634
G1 X38.283 Y75.159 E31.70221
G1 X38.368 Y74.629 E31.7293
G1 X38.531 Y74.118 E31.75637
G1 X38.768 Y73.637 E31.78343
G1 X39.074 Y73.197 E31.81048
G1 X39.274 Y72.97 E31.82574
G1 X41.01 Y71.163 E31.9522
G1 X44.651 Y67.043 E32.22967
G1 X48.023 Y62.766 E32.50453
G1 X51.157 Y58.292 E32.78019
G1 X54.027 Y53.654 E33.05544
G1 X55.541 Y50.955 E33.21161
G1 X55.838 Y50.508 E33.23869
G1 X56.197 Y50.11 E33.26574
G0 F1050 X56.516 Y50.36
G1 F1200 X56.914 Y50.048 E33.29126
G1 X57.356 Y49.803 E33.31677
G1 X57.831 Y49.631 E33.34226
G1 X58.405 Y49.528 E33.37169
G1 X63.046 Y49.127 E33.60677
G1 X68.488 Y48.374 E33.88402
G1 X73.877 Y47.315 E34.16118
G1 X76.486 Y46.687 E34.2966
G1 X79.158 Y45.963 E34.43631
G1 X83.987 Y44.437 E34.69189
G1 X84.47 Y44.324 E34.71692
G1 X85.713 Y44.135 E34.78037
G1 X85.935 Y44.11 E34.79164
G1 X87.83 Y43.956 E34.88759
G1 X88.083 Y43.945 E34.90037
G1 X90.857 Y43.94 E35.04036
G1 X91.371 Y43.981 E35.06638
G1 X94.205 Y44.437 E35.21124
G1 X94.729 Y44.567 E35.23849
G1 X96.366 Y45.125 E35.32576
G1 X96.594 Y45.213 E35.3381
G1 X103.453 Y48.152 E35.71468
G1 X108.639 Y50.042 E35.99323
G1 X113.88 Y51.624 E36.2695
G1 X119.255 Y52.919 E36.54852
G1 X121.862 Y53.43 E36.68258
G1 X127.321 Y54.263 E36.96126
G1 X130.625 Y54.62 E37.12897
G1 X131.363 Y54.789 E37.16718
G1 X133.573 Y55.583 E37.28569
G1 X133.935 Y55.739 E37.30558
G1 X136.444 Y57.008 E37.44747
G1 X136.739 Y57.178 E37.46465
G1 X137.984 Y57.984 E37.5395
G1 X138.424 Y58.327 E37.56765
G1 X140.506 Y60.263 E37.71113
G1 X140.783 Y60.555 E37.73144
G1 X142.14 Y62.18 E37.83828
G1 X144.345 Y64.773 E38.01005
G1 X144.646 Y65.192 E38.03609
G1 X145.81 Y67.12 E38.14974
G1 X146.037 Y67.572 E38.17527
G1 X146.177 Y68.003 E38.19813
G1 X146.755 Y70.331 E38.31918
G1 X146.837 Y70.83 E38.3447
G1 X146.847 Y71.219 E38.36434
G1 X146.745 Y74 E38.50478
G1 X146.733 Y74.186 E38.51419
G1 X146.421 Y77.467 E38.68051
G1 X146.405 Y77.6 E38.68727
G1 X146.116 Y79.701 E38.7943
G1 X146.008 Y80.195 E38.81981
G1 X145.917 Y80.453 E38.83362
G1 X144.99 Y82.771 E38.95961
G1 X144.692 Y83.342 E38.99211
G1 X142.595 Y86.528 E39.1846
G1 X139.797 Y91.239 E39.46111
G1 X137.265 Y96.112 E39.73824
G1 X135.014 Y101.113 E40.015
G1 X133.996 Y103.658 E40.15333
G1 X133.067 Y106.192 E40.28953
G1 X131.39 Y111.434 E40.56728
G1 X130.204 Y115.926 E40.80174
G1 X130.105 Y116.235 E40.81811
G1 X129.447 Y117.986 E40.91251
G1 X127.677 Y123.264 E41.19345
G1 X127.028 Y125.472 E41.30959
G1 X126.848 Y125.944 E41.33508
G1 X126.596 Y126.382 E41.36058
G1 X126.277 Y126.775 E41.38613
G1 X125.901 Y127.113 E41.41164
G1 X125.478 Y127.386 E41.43705
G1 X125.339 Y127.461 E41.44502
G1 X124.876 Y127.665 E41.47055
G1 X124.387 Y127.794 E41.49607
G1 X123.884 Y127.844 E41.52158
G1 X123.442 Y127.823 E41.54391
G1 X121.267 Y127.565 E41.65444
G1 X115.777 Y127.127 E41.93238
G1 X110.308 Y126.999 E42.20845
G1 X104.84 Y127.182 E42.48455
G1 X99.388 Y127.674 E42.7608
G1 X94.033 Y128.452 E43.03388
G1 X93.664 Y128.484 E43.05257
G1 X87.72 Y128.652 E43.35266
G1 X82.254 Y129.117 E43.6295
G1 X76.848 Y129.888 E43.90507
G1 X71.465 Y130.966 E44.18212
G1 X68.816 Y131.616 E44.31977
G1 X63.724 Y133.062 E44.5869
G1 X63.229 Y133.162 E44.61239
G1 X62.724 Y133.182 E44.63789
G1 X62.222 Y133.122 E44.6634
G1 X61.735 Y132.984 E44.68895
G1 X61.277 Y132.771 E44.71444
G1 X60.857 Y132.488 E44.74
G1 X60.488 Y132.143 E44.76549
G1 X60.23 Y131.821 E44.78631
G1 X58.863 Y129.871 E44.90649
G1 X55.513 Y125.487 E45.18493
G1 X51.953 Y121.338 E45.46082
G1 X48.157 Y117.389 E45.73725
G1 X46.202 Y115.521 E45.87371
G1 X42.064 Y111.889 E46.15156
G1 X37.143 Y108.062 E46.46616
G1 X36.769 Y107.721 E46.4917
G1 X36.454 Y107.326 E46.5172
G1 X36.206 Y106.886 E46.54269
G1 X36.029 Y106.412 E46.56822
G1 X35.922 Y105.848 E46.59719
G1 X35.879 Y105.409 E46.61945
G1 X35.868 Y104.941 E46.64308
G1 X35.958 Y103.111 E46.73554
G1 X36.032 Y97.573 E47.01504
G1 X35.883 Y93.446 E47.22345
G1 X35.905 Y92.941 E47.24896
G1 X35.954 Y92.652 E47.26375
G1 X37.189 Y86.968 E47.55729
G1 X37.646 Y84.352 E47.6913
G1 X38.371 Y78.849 E47.97141
G1 X38.682 Y75.193 E48.15658
G1 X38.764 Y74.694 E48.1821
G1 X38.924 Y74.214 E48.20764
G1 X39.158 Y73.766 E48.23314
G1 X39.563 Y73.247 E48.26636
G1 X41.304 Y71.435 E48.39318
G1 X44.956 Y67.302 E48.67151
G1 X48.343 Y63.006 E48.94758
G1 X51.487 Y58.518 E49.22412
G1 X54.373 Y53.854 E49.5009
G1 X55.89 Y51.15 E49.65737
G1 X56.172 Y50.73 E49.6829
G1 X56.516 Y50.36 E49.7084
G1 F1500 E43.2084
;MESH:octopus.stl
G0 F1050 X59.336 Y52.168
G0 X59.155 Y53.02
G0 X60.853 Y54.162
G0 X60.92 Y54.235
;TYPE:WALL-OUTER
G1 F1500 E49.7084
G1 F1200 X60.837 Y54.388 E49.71718
G1 X60.782 Y54.49 E49.72303
G1 X60.642 Y54.548 E49.73068
G1 X60.594 Y54.575 E49.73345
G1 X60.504 Y54.502 E49.7393
G1 X59.685 Y53.837 E49.79254
G1 X59.615 Y53.705 E49.80008
G1 X59.479 Y53.514 E49.81192
G1 X59.454 Y53.469 E49.81451
G1 X59.403 Y53.377 E49.81982
G1 X59.139 Y53.01 E49.84264
G1 X59.466 Y53.079 E49.84801
G1 X59.568 Y53.101 E49.8527
G1 X59.786 Y53.148 E49.86396
G1 X60.006 Y53.251 E49.87621
G1 X60.162 Y53.298 E49.88444
G1 X61.123 Y53.922 E49.94226
G1 X61.274 Y54.021 E49.95137
G1 X61.237 Y54.095 E49.95555
G1 X60.92 Y54.235 E49.96792
G0 F1050 X60.837 Y54.388
G0 X60.825 Y54.411
G0 X60.713 Y54.208
;TYPE:SKIN
G1 F1200 X59.94 Y53.435 E49.99551
G0 F1050 X59.669 Y53.447
G1 F1200 X60.34 Y54.117 E50.01943
G0 F1050 X60.61 Y53.822
G1 F1200 X60.843 Y54.054 E50.02773
G0 F1050 X60.625 Y54.076
G1 F1500 E43.52773
G0 F1050 X61.224 Y54.081
G0 X62.371 Y55.599
G0 X62.76 Y55.808
G0 X62.824 Y55.885
;TYPE:WALL-INNER
G1 F1500 E50.02773
G1 F1200 X62.79 Y55.927 E50.03046
G1 X62.631 Y56 E50.03929
G1 X62.372 Y55.724 E50.05839
G1 X62.321 Y55.669 E50.06217
G1 X62.358 Y55.584 E50.06685
G1 X62.597 Y55.513 E50.07577
G1 X62.855 Y55.722 E50.08951
G1 X62.904 Y55.762 E50.09109
G1 X62.866 Y55.85 E50.09593
G1 X62.824 Y55.885 E50.09868
G0 F1050 X62.76 Y55.808
G0 X62.471 Y55.12
G0 X62.355 Y55.168
;TYPE:WALL-OUTER
G1 F1200 X62.419 Y54.938 E50.11073
G1 X62.435 Y54.937 E50.11154
G1 X62.471 Y54.896 E50.11429
G1 X62.533 Y54.947 E50.11434
G1 X63.383 Y55.637 E50.16958
G1 X63.342 Y55.755 E50.17589
G1 X63.195 Y56.097 E50.19467
G1 X63.11 Y56.167 E50.20023
G1 X63.042 Y56.252 E50.20573
G1 X62.674 Y56.42 E50.22614
G1 X62.53 Y56.478 E50.23397
G1 X61.781 Y55.679 E50.28924
G1 X61.689 Y55.581 E50.29603
G1 X61.702 Y55.573
G1 X61.705 Y55.558 E50.2968
G1 X61.949 Y55.52 E50.30342
G1 X62.067 Y55.254 E50.3181
G1 X62.355 Y55.168 E50.33327
G0 F1050 X62.408 Y54.975
G1 F1500 E43.83327
G0 F1050 X62.469 Y55.022
G0 X62.446 Y55.259
G0 X63.997 Y57.078
G0 X64.286 Y57.609
G0 X64.357 Y57.678
;TYPE:WALL-INNER
G1 F1500 E50.33327
G1 F1200 X64.282 Y57.801 E50.34054
G1 X64.265 Y57.782
G1 X64.254 Y57.77
G1 X63.894 Y57.358 E50.36815
G1 X63.984 Y57.064 E50.38367
G1 X64.166 Y57.018 E50.39314
G1 X64.533 Y57.47 E50.42253
G1 X64.472 Y57.599 E50.42953
G1 X64.357 Y57.678 E50.43657
G0 F1050 X64.286 Y57.609
G0 X64.177 Y56.596
G0 X64.053 Y56.634
;TYPE:WALL-OUTER
G1 F1200 X64.117 Y56.483 E50.44485
G1 X64.17 Y56.485 E50.44753
G1 X64.218 Y56.448 E50.45058
G1 X64.243 Y56.479
G1 X64.997 Y57.407 E50.51093
G1 X64.994 Y57.432 E50.5122
G1 X64.786 Y57.869 E50.53662
G1 X64.655 Y57.959 E50.54464
G1 X64.57 Y58.1 E50.55295
G1 X64.189 Y58.302 E50.57471
G1 X63.341 Y57.333 E50.63969
G1 X63.392 Y57.266 E50.64394
G1 X63.397 Y57.2 E50.64728
G1 X63.542 Y57.142 E50.65516
G1 X63.668 Y56.731 E50.67686
G1 X64.053 Y56.634 E50.69689
G0 F1050 X64.117 Y56.483
G0 X64.153 Y56.484
G0 X64.041 Y57.397
G1 F1500 E44.19689
G0 F1050 X64.052 Y57.388
G0 X64.281 Y57.783
G0 X65.599 Y59.009
G0 X65.841 Y59.925
G0 X65.914 Y59.994
;TYPE:WALL-INNER
G1 F1500 E50.69689
G1 F1200 X65.865 Y60.095 E50.70256
G1 X65.84 Y60.057
G1 X65.834 Y60.047
G1 X65.756 Y59.926 E50.70983
G1 X65.432 Y59.426 E50.73989
G1 X65.488 Y59.269 E50.7483
G1 X65.585 Y58.996 E50.76293
G1 X65.693 Y58.961 E50.76865
G1 X65.851 Y59.204 E50.77857
G1 X66.162 Y59.683 E50.80739
G1 X66.101 Y59.801 E50.81409
G1 X66.036 Y59.929 E50.82002
G1 X65.914 Y59.994 E50.827
G0 F1050 X65.841 Y59.925
G0 X65.066 Y59.221
