;FLAVOR:Marlin
;TIME:4185
;Filament used: 3.76076m
;Layer height: 0.3
;Generated with Cura_SteamEngine 3.6.0
M140 S60
M105
M190 S60
M104 S205
M105
M109 S205
M82 ;absolute extrusion mode
G28 ;Home
G1 Z15.0 F6000 ;Move the platform down 15mm
;Prime the extruder
G92 E0
G1 F200 E3
G92 E0
G92 E0
G1 F1500 E-6.5
;LAYER_COUNT:52
;LAYER:0
M107
G0 F1050 X37.48 Y61.997 Z0.3
;TYPE:SKIRT
G1 F1500 E0
G1 F1200 X37.965 Y61.707 E0.02852
G1 X38.399 Y61.518 E0.05241
G1 X42.751 Y59.93 E0.2862
G1 X45.218 Y58.926 E0.42061
G1 X50.178 Y56.657 E0.69586
G1 X55.455 Y53.861 E0.99724
G1 X55.782 Y53.707 E1.01548
G1 X56.92 Y53.23 E1.07775
G1 X57.373 Y53.071 E1.10198
G1 X62.027 Y51.749 E1.34614
G1 X62.682 Y51.621 E1.37982
G1 X64.89 Y51.378 E1.49192
G1 X65.162 Y51.357 E1.50568
G1 X76.604 Y50.881 E2.08361
G1 X82.049 Y50.496 E2.35908
G1 X87.44 Y49.808 E2.63334
G1 X92.808 Y48.81 E2.90888
G1 X95.379 Y48.22 E3.042
G1 X100.661 Y46.767 E3.31846
G1 X105.814 Y45.031 E3.59287
G1 X110.84 Y43.013 E3.86619
G1 X115.788 Y40.696 E4.14191
G1 X120.554 Y38.198 E4.41346
G1 X121.072 Y37.972 E4.44198
G1 X121.588 Y37.827 E4.46903
G1 X123.737 Y37.375 E4.57986
G1 X124.297 Y37.298 E4.60838
G1 X125 Y37.313 E4.64387
G1 X128.234 Y37.671 E4.80807
G1 X128.79 Y37.773 E4.8366
G1 X129.439 Y38.001 E4.87131
G1 X131.363 Y38.869 E4.97783
G1 X131.861 Y39.137 E5.00637
G1 X132.183 Y39.365 E5.02628
G1 X133.134 Y40.109 E5.08721
G1 X133.553 Y40.487 E5.11569
G1 X133.793 Y40.761 E5.13407
G1 X134.507 Y41.654 E5.19177
G1 X134.811 Y42.09 E5.2186
G1 X135.344 Y42.976 E5.27078
G1 X135.493 Y43.248 E5.28643
G1 X137.293 Y46.844 E5.48937
G1 X137.51 Y47.367 E5.51794
G1 X138.233 Y49.532 E5.63313
G1 X138.358 Y49.999 E5.65753
G1 X138.821 Y52.266 E5.77429
G1 X138.889 Y52.746 E5.79876
G1 X139.144 Y55.926 E5.95975
G1 X139.124 Y56.757 E6.0017
G1 X138.936 Y58.217 E6.07599
G1 X138.845 Y58.693 E6.10045
G1 X137.806 Y62.775 E6.31301
G1 X137.69 Y63.152 E6.33292
G1 X136.116 Y67.489 E6.56576
G1 X134.467 Y72.695 E6.84134
G1 X133.117 Y77.975 E7.11637
G1 X132.56 Y80.618 E7.25268
G1 X131.668 Y85.964 E7.5262
G1 X131.079 Y91.352 E7.79972
G1 X130.795 Y96.794 E8.07473
G1 X130.817 Y102.211 E8.3481
G1 X131.149 Y107.651 E8.62315
G1 X131.782 Y113.016 E8.89577
G1 X132.726 Y118.386 E9.17092
G1 X133.964 Y123.663 E9.44446
G1 X134.689 Y126.256 E9.58034
G1 X136.82 Y132.762 E9.92583
G1 X136.9 Y133.038 E9.94033
G1 X137.97 Y137.322 E10.16316
G1 X138.078 Y137.998 E10.19771
G1 X138.164 Y139.167 E10.25686
G1 X138.16 Y139.802 E10.28891
G1 X137.881 Y143.049 E10.45337
G1 X137.825 Y143.456 E10.47411
G1 X137.547 Y144.914 E10.54901
G1 X137.43 Y145.377 E10.57311
G1 X136.559 Y148.116 E10.71816
G1 X136.322 Y148.699 E10.74991
G1 X134.433 Y152.462 E10.9624
G1 X134.237 Y152.808 E10.98247
G1 X133.677 Y153.692 E11.03528
G1 X133.353 Y154.133 E11.06289
G1 X132.65 Y154.965 E11.11786
G1 X132.081 Y155.516 E11.15783
G1 X131.335 Y156.108 E11.20589
G1 X130.869 Y156.428 E11.23442
G1 X130.572 Y156.585 E11.25138
G1 X128.917 Y157.375 E11.34392
G1 X128.202 Y157.636 E11.38233
G1 X127.215 Y157.893 E11.4338
G1 X126.553 Y158.007 E11.4677
G1 X123.824 Y158.244 E11.60594
G1 X123.259 Y158.253 E11.63446
G1 X122.719 Y158.186 E11.66192
G1 X121.249 Y157.902 E11.73748
G1 X120.796 Y157.787 E11.76106
G1 X120.022 Y157.541 E11.80205
G1 X119.389 Y157.278 E11.83664
G1 X113.297 Y154.112 E12.18311
G1 X110.882 Y152.989 E12.31752
G1 X105.849 Y150.903 E12.59246
G1 X100.705 Y149.105 E12.86746
G1 X95.489 Y147.607 E13.14132
G1 X92.807 Y146.958 E13.28058
G1 X90.251 Y146.418 E13.41241
G1 X84.844 Y145.509 E13.68911
G1 X79.466 Y144.915 E13.96216
G1 X64.177 Y144.204 E14.73456
G1 X63.947 Y144.186 E14.7462
G1 X61.938 Y143.976 E14.84814
G1 X61.281 Y143.852 E14.88188
G1 X56.474 Y142.514 E15.13369
G1 X56.028 Y142.36 E15.1575
G1 X54.861 Y141.881 E15.22116
G1 X54.435 Y141.676 E15.24502
G1 X52.526 Y140.613 E15.35529
G1 X47.674 Y138.163 E15.62959
G1 X42.643 Y135.969 E15.90657
G1 X40.134 Y135 E16.0423
G1 X37.69 Y134.132 E16.17319
G1 X37.172 Y133.905 E16.20173
G1 X36.92 Y133.762 E16.21635
G1 X35.783 Y133.057 E16.28387
G1 X35.325 Y132.725 E16.31241
G1 X34.918 Y132.333 E16.34093
G1 X34.57 Y131.887 E16.36948
G1 X34.289 Y131.397 E16.39798
G1 X34.08 Y130.872 E16.4265
G1 X33.955 Y130.368 E16.45271
G1 X33.612 Y128.469 E16.55009
G1 X33.551 Y127.907 E16.57862
G1 X33.57 Y127.342 E16.60715
G1 X33.611 Y127.053 E16.62188
G1 X33.822 Y125.874 E16.68232
G1 X33.894 Y125.548 E16.69917
G1 X36.043 Y117.489 E17.12008
G1 X36.605 Y114.872 E17.25516
G1 X37.091 Y112.234 E17.39053
G1 X37.855 Y106.83 E17.66595
G1 X38.308 Y101.431 E17.93937
G1 X38.456 Y95.982 E18.21446
G1 X38.297 Y90.57 E18.4877
G1 X37.83 Y85.153 E18.76208
G1 X37.061 Y79.791 E19.03544
G1 X35.981 Y74.434 E19.31123
G1 X34.788 Y69.628 E19.56112
G1 X34.701 Y69.162 E19.58505
G1 X34.563 Y68.062 E19.64099
G1 X34.533 Y67.497 E19.66955
G1 X34.616 Y66.75 E19.70748
G1 X34.962 Y65.085 E19.7933
G1 X35.116 Y64.541 E19.82183
G1 X35.345 Y64.024 E19.85036
G1 X35.644 Y63.545 E19.87886
G1 X36.008 Y63.112 E19.90741
G1 X36.588 Y62.62 E19.94579
G1 X37.48 Y61.997 E20.0007
G0 F1050 X37.709 Y62.325
G1 F1200 X38.17 Y62.051 E20.02776
G1 X38.536 Y61.894 E20.04786
G1 X42.904 Y60.3 E20.28251
G1 X45.367 Y59.298 E20.4167
G1 X50.367 Y57.01 E20.69419
G1 X55.643 Y54.215 E20.9955
G1 X55.936 Y54.076 E21.01186
G1 X57.074 Y53.599 E21.07413
G1 X57.482 Y53.456 E21.09595
G1 X62.136 Y52.134 E21.34011
G1 X62.726 Y52.019 E21.37044
G1 X64.934 Y51.776 E21.48254
G1 X65.178 Y51.757 E21.49489
G1 X76.614 Y51.281 E22.07251
G1 X82.093 Y50.894 E22.3497
G1 X87.513 Y50.202 E22.62544
G1 X92.874 Y49.206 E22.90062
G1 X95.477 Y48.608 E23.0354
G1 X100.774 Y47.151 E23.31264
G1 X105.949 Y45.408 E23.58822
G1 X111.01 Y43.376 E23.86344
G1 X115.956 Y41.06 E24.13905
G1 X120.74 Y38.552 E24.41164
G1 X121.232 Y38.34 E24.43868
G1 X121.67 Y38.218 E24.46162
G1 X123.819 Y37.766 E24.57244
G1 X124.351 Y37.695 E24.59953
G1 X124.956 Y37.711 E24.63007
G1 X128.19 Y38.069 E24.79427
G1 X128.717 Y38.167 E24.82133
G1 X129.274 Y38.365 E24.85116
G1 X131.198 Y39.233 E24.95768
G1 X131.669 Y39.49 E24.98475
G1 X131.936 Y39.68 E25.00129
G1 X132.887 Y40.424 E25.06223
G1 X133.284 Y40.785 E25.0893
G1 X133.481 Y41.011 E25.10443
G1 X134.195 Y41.904 E25.16213
G1 X134.468 Y42.296 E25.18624
G1 X135.001 Y43.182 E25.23842
G1 X135.135 Y43.427 E25.25251
G1 X136.935 Y47.023 E25.45545
G1 X137.131 Y47.494 E25.4812
G1 X137.854 Y49.659 E25.59639
G1 X137.966 Y50.079 E25.61832
G1 X138.429 Y52.346 E25.73509
G1 X138.49 Y52.778 E25.75711
G1 X138.745 Y55.958 E25.9181
G1 X138.728 Y56.706 E25.95586
G1 X138.54 Y58.166 E26.03015
G1 X138.458 Y58.594 E26.05214
G1 X137.419 Y62.676 E26.2647
G1 X137.314 Y63.016 E26.28266
G1 X135.738 Y67.359 E26.51582
G1 X134.084 Y72.581 E26.79225
G1 X132.726 Y77.89 E27.0688
G1 X132.168 Y80.539 E27.20541
G1 X131.272 Y85.908 E27.48011
G1 X130.678 Y91.34 E27.75587
G1 X130.394 Y96.775 E28.03052
G1 X130.418 Y102.236 E28.30612
G1 X130.749 Y107.67 E28.58085
G1 X131.387 Y113.078 E28.85566
G1 X132.333 Y118.461 E29.13148
G1 X133.577 Y123.766 E29.40646
G1 X134.308 Y126.375 E29.5432
G1 X136.44 Y132.887 E29.88899
G1 X136.512 Y133.135 E29.90202
G1 X137.582 Y137.419 E30.12486
G1 X137.679 Y138.027 E30.15593
G1 X137.765 Y139.196 E30.21508
G1 X137.762 Y139.768 E30.24395
G1 X137.483 Y143.015 E30.40841
G1 X137.432 Y143.381 E30.42706
G1 X137.154 Y144.839 E30.50197
G1 X137.049 Y145.256 E30.52367
G1 X136.178 Y147.995 E30.66871
G1 X135.964 Y148.519 E30.69728
G1 X134.075 Y152.282 E30.90976
G1 X133.899 Y152.594 E30.92784
G1 X133.339 Y153.478 E30.98065
G1 X133.048 Y153.874 E31.00545
G1 X132.345 Y154.706 E31.06042
G1 X131.833 Y155.203 E31.09643
G1 X131.087 Y155.795 E31.14449
G1 X130.643 Y156.096 E31.17156
G1 X130.4 Y156.224 E31.18542
G1 X128.745 Y157.014 E31.27796
G1 X128.101 Y157.249 E31.31256
G1 X127.114 Y157.506 E31.36403
G1 X126.518 Y157.609 E31.39455
G1 X123.789 Y157.846 E31.53279
G1 X123.253 Y157.852 E31.55984
G1 X122.795 Y157.794 E31.58314
G1 X121.325 Y157.51 E31.6587
G1 X120.918 Y157.406 E31.6799
G1 X120.144 Y157.16 E31.72088
G1 X119.574 Y156.923 E31.75203
G1 X113.499 Y153.765 E32.09756
G1 X111.034 Y152.62 E32.23472
G1 X105.976 Y150.524 E32.51102
G1 X100.842 Y148.729 E32.78549
G1 X95.574 Y147.216 E33.06209
G1 X92.919 Y146.573 E33.19995
G1 X90.299 Y146.019 E33.33509
G1 X84.903 Y145.113 E33.61121
G1 X79.497 Y144.516 E33.88569
G1 X64.196 Y143.804 E34.65869
G1 X63.989 Y143.788 E34.66917
G1 X61.98 Y143.578 E34.77111
G1 X61.389 Y143.466 E34.80146
G1 X56.582 Y142.128 E35.05327
G1 X56.18 Y141.99 E35.07472
G1 X55.013 Y141.511 E35.13838
G1 X54.629 Y141.327 E35.15987
G1 X52.702 Y140.254 E35.27118
G1 X47.835 Y137.797 E35.54631
G1 X42.807 Y135.604 E35.82314
G1 X40.264 Y134.621 E35.96073
G1 X37.824 Y133.755 E36.09139
G1 X37.131 Y133.422 E36.13019
G1 X35.994 Y132.717 E36.1977
G1 X35.56 Y132.401 E36.22479
G1 X35.179 Y132.024 E36.25184
G1 X34.857 Y131.595 E36.27891
G1 X34.603 Y131.123 E36.30596
G1 X34.422 Y130.618 E36.33303
G1 X34.348 Y130.297 E36.34966
G1 X34.005 Y128.398 E36.44704
G1 X33.95 Y127.865 E36.47408
G1 X34.004 Y127.124 E36.51158
G1 X34.215 Y125.945 E36.57202
G1 X34.281 Y125.651 E36.58723
G1 X36.43 Y117.594 E37.00804
G1 X37.003 Y114.923 E37.1459
G1 X37.483 Y112.319 E37.27953
G1 X38.254 Y106.864 E37.55755
G1 X38.707 Y101.458 E37.83132
G1 X38.857 Y95.981 E38.10782
G1 X38.697 Y90.557 E38.38167
G1 X38.228 Y85.115 E38.65732
G1 X37.453 Y79.709 E38.93292
G1 X36.371 Y74.345 E39.20907
G1 X35.176 Y69.531 E39.45938
G1 X35.098 Y69.112 E39.48089
G1 X34.96 Y68.012 E39.53684
G1 X34.933 Y67.477 E39.56387
G1 X35.007 Y66.832 E39.59664
G1 X35.353 Y65.167 E39.68246
G1 X35.501 Y64.651 E39.70955
G1 X35.724 Y64.163 E39.73662
G1 X36.017 Y63.714 E39.76368
G1 X36.373 Y63.313 E39.79074
G1 X36.817 Y62.948 E39.81975
G1 X37.709 Y62.325 E39.87465
G0 F1050 X37.938 Y62.653
G1 F1200 X38.374 Y62.397 E39.90017
G1 X38.673 Y62.27 E39.91656
G1 X43.034 Y60.679 E40.15083
G1 X45.544 Y59.657 E40.2876
G1 X50.528 Y57.377 E40.56418
G1 X55.83 Y54.568 E40.86698
G1 X56.091 Y54.445 E40.88154
G1 X57.229 Y53.968 E40.94381
G1 X57.592 Y53.841 E40.96322
G1 X62.246 Y52.519 E41.20738
G1 X62.77 Y52.416 E41.23433
G1 X64.978 Y52.173 E41.34643
G1 X65.195 Y52.157 E41.35741
G1 X76.623 Y51.681 E41.93463
G1 X82.135 Y51.292 E42.21348
G1 X87.568 Y50.598 E42.48989
G1 X92.963 Y49.596 E42.7668
G1 X95.581 Y48.995 E42.90236
G1 X100.897 Y47.533 E43.18059
G1 X106.073 Y45.789 E43.45623
G1 X111.171 Y43.742 E43.73347
G1 X116.141 Y41.414 E44.01043
G1 X120.925 Y38.907 E44.283
G1 X121.39 Y38.708 E44.30852
G1 X121.752 Y38.61 E44.32745
G1 X123.901 Y38.158 E44.43827
G1 X124.403 Y38.093 E44.46382
G1 X124.912 Y38.108 E44.48952
G1 X128.146 Y38.466 E44.65372
G1 X128.643 Y38.562 E44.67926
G1 X129.11 Y38.73 E44.70431
G1 X131.034 Y39.598 E44.81083
G1 X131.477 Y39.842 E44.83635
G1 X131.69 Y39.995 E44.84959
G1 X132.641 Y40.739 E44.91052
G1 X133.168 Y41.261 E44.94795
G1 X133.882 Y42.154 E45.00565
G1 X134.125 Y42.502 E45.02707
G1 X134.658 Y43.388 E45.07925
G1 X134.778 Y43.606 E45.09181
G1 X136.578 Y47.202 E45.29475
G1 X136.751 Y47.62 E45.31758
G1 X137.474 Y49.785 E45.43277
G1 X137.574 Y50.159 E45.4523
G1 X138.037 Y52.426 E45.56907
G1 X138.092 Y52.81 E45.58865
G1 X138.347 Y55.99 E45.74964
G1 X138.331 Y56.655 E45.78321
G1 X138.143 Y58.115 E45.8575
G1 X138.07 Y58.495 E45.87703
G1 X137.031 Y62.577 E46.08959
G1 X136.938 Y62.879 E46.10554
G1 X135.363 Y67.22 E46.33858
G1 X133.696 Y72.482 E46.61714
G1 X132.336 Y77.801 E46.8942
G1 X131.776 Y80.461 E47.03138
G1 X130.876 Y85.854 E47.3073
G1 X130.281 Y91.294 E47.58347
G1 X129.994 Y96.774 E47.8604
G1 X130.018 Y102.244 E48.13645
G1 X130.35 Y107.706 E48.4126
G1 X130.992 Y113.14 E48.68873
G1 X131.942 Y118.55 E48.96593
G1 X133.186 Y123.851 E49.24071
G1 X133.924 Y126.489 E49.37895
G1 X136.06 Y133.011 E49.72529
G1 X136.124 Y133.232 E49.7369
G1 X137.194 Y137.516 E49.95973
G1 X137.28 Y138.056 E49.98733
G1 X137.366 Y139.225 E50.04648
G1 X137.363 Y139.734 E50.07217
G1 X137.084 Y142.981 E50.23663
G1 X137.039 Y143.306 E50.25319
G1 X136.761 Y144.764 E50.3281
G1 X136.668 Y145.135 E50.3474
G1 X135.797 Y147.874 E50.49244
G1 X135.607 Y148.34 E50.51784
G1 X133.718 Y152.103 E50.73032
G1 X133.561 Y152.379 E50.74635
G1 X133.001 Y153.263 E50.79916
G1 X132.742 Y153.616 E50.82125
G1 X132.039 Y154.448 E50.87622
G1 X131.584 Y154.89 E50.90823
G1 X130.838 Y155.482 E50.95629
G1 X130.227 Y155.863 E50.99263
G1 X128.572 Y156.653 E51.08518
G1 X128 Y156.862 E51.11591
G1 X127.013 Y157.119 E51.16738
G1 X126.484 Y157.21 E51.19447
G1 X123.755 Y157.447 E51.33271
G1 X123.249 Y157.451 E51.35824
G1 X122.871 Y157.401 E51.37749
G1 X121.401 Y157.117 E51.45304
G1 X121.039 Y157.025 E51.47189
G1 X120.265 Y156.779 E51.51288
G1 X119.758 Y156.568 E51.54059
G1 X113.664 Y153.401 E51.88718
G1 X111.196 Y152.253 E52.02454
G1 X106.135 Y150.156 E52.301
G1 X100.963 Y148.348 E52.5775
G1 X95.659 Y146.825 E52.85598
G1 X93.024 Y146.187 E52.9928
G1 X90.379 Y145.628 E53.12923
G1 X84.959 Y144.717 E53.40659
G1 X79.528 Y144.117 E53.68233
G1 X64.214 Y143.405 E54.45599
G1 X64.03 Y143.391 E54.4653
G1 X62.021 Y143.181 E54.56724
G1 X61.496 Y143.081 E54.59421
G1 X56.689 Y141.743 E54.84602
G1 X56.332 Y141.62 E54.86508
G1 X55.165 Y141.141 E54.92874
G1 X54.824 Y140.977 E54.94783
G1 X52.908 Y139.911 E55.05848
G1 X47.997 Y137.43 E55.33615
G1 X42.97 Y135.238 E55.6129
G1 X40.394 Y134.243 E55.75226
G1 X37.958 Y133.378 E55.88272
G1 X37.342 Y133.082 E55.91721
G1 X36.205 Y132.377 E55.98472
G1 X35.797 Y132.077 E56.01028
G1 X35.442 Y131.717 E56.03579
G1 X35.148 Y131.306 E56.06129
G1 X34.923 Y130.853 E56.08682
G1 X34.742 Y130.226 E56.11975
G1 X34.399 Y128.327 E56.21714
G1 X34.349 Y127.824 E56.24265
G1 X34.398 Y127.194 E56.27454
G1 X34.609 Y126.015 E56.33498
G1 X34.667 Y125.754 E56.34847
G1 X36.821 Y117.679 E56.77023
G1 X37.392 Y115.015 E56.90772
G1 X37.879 Y112.374 E57.04325
G1 X38.65 Y106.918 E57.32132
G1 X39.107 Y101.466 E57.59742
G1 X39.256 Y95.998 E57.87347
G1 X39.095 Y90.512 E58.15044
G1 X38.627 Y85.076 E58.42579
G1 X37.847 Y79.641 E58.70288
G1 X36.763 Y74.265 E58.97964
G1 X35.564 Y69.435 E59.23078
G1 X35.495 Y69.062 E59.24993
G1 X35.357 Y67.962 E59.30587
G1 X35.334 Y67.457 E59.33138
G1 X35.399 Y66.913 E59.35903
G1 X35.745 Y65.248 E59.44485
G1 X35.887 Y64.763 E59.47036
G1 X36.103 Y64.306 E59.49586
G1 X36.388 Y63.888 E59.5214
G1 X36.736 Y63.521 E59.54692
G1 X37.046 Y63.276 E59.56686
G1 X37.938 Y62.653 E59.62177
G1 F1500 E53.12177
;MESH:rotary-2.stl
G0 F1050 X53.297 Y59.506
G0 X54.156 Y60.46
G0 X77.878 Y55.577
G0 X90.819 Y54.859
G0 X96.259 Y54.406
G0 X99.542 Y53.859
G0 X102.826 Y53.037
G0 X107.16 Y51.683
G0 X108.306 Y51.207
G0 X111.039 Y49.84
G0 X113.488 Y48.534
G0 X116.392 Y46.577
G0 X116.294 Y46.575
;TYPE:WALL-INNER
G1 F1500 E59.62177
G1 F1200 X116.242 Y46.54 E59.62493
G1 X116.256 Y46.529
G1 X116.482 Y46.347 E59.6387
G1 X118.255 Y45.106 E59.74791
G1 X119.188 Y44.55 E59.80272
G1 X120.078 Y43.741 E59.86342
G1 X121.819 Y42.697 E59.96586
G1 X122.629 Y42.292 E60.01157
G1 X123.613 Y42.045 E60.06276
G1 X124.592 Y41.882 E60.11285
G1 X126.655 Y42.054 E60.21732
G1 X127.642 Y42.22 E60.26783
G1 X128.636 Y42.634 E60.32217
G1 X129.458 Y43.045 E60.36855
G1 X130.25 Y43.678 E60.41971
G1 X130.9 Y44.491 E60.47224
G1 X131.402 Y45.328 E60.5215
G1 X133.175 Y48.874 E60.72157
G1 X133.876 Y50.979 E60.83353
G1 X134.131 Y52.001 E60.88669
G1 X134.303 Y53.031 E60.93939
G1 X134.567 Y56.188 E61.09926
G1 X134.484 Y57.17 E61.149
G1 X133.427 Y61.405 E61.36928
G1 X133.086 Y62.431 E61.42384
G1 X132.681 Y63.238 E61.4694
G1 X131.306 Y64.959 E61.58057
G1 X129.711 Y66.729 E61.70081
G1 X128.876 Y67.48 E61.75749
G1 X127.109 Y68.718 E61.86637
G1 X126.432 Y69.125 E61.90623
G1 X125.64 Y68.993 E61.94675
G1 X124.585 Y68.553 E62.00443
G1 X123.496 Y68.281 E62.06108
G1 X120.29 Y67.215 E62.23158
G1 X119.259 Y66.785 E62.28795
G1 X117.458 Y65.886 E62.38954
G1 X116.38 Y65.437 E62.44847
G1 X115.476 Y64.984 E62.4995
G1 X113.279 Y64.07 E62.61958
G1 X110.046 Y62.991 E62.79158
G1 X108.947 Y62.534 E62.85165
G1 X106.723 Y61.977 E62.96735
G1 X105.645 Y61.798 E63.02249
G1 X104.566 Y61.528 E63.07863
G1 X103.489 Y61.349 E63.13372
G1 X102.413 Y61.079 E63.18971
G1 X99.129 Y60.532 E63.35772
G1 X98.002 Y60.438 E63.41479
G1 X96.874 Y60.438 E63.47171
