;FLAVOR:Marlin
;TIME:1731
;Filament used: 1.45518m
;Layer height: 0.3
;Generated with Cura_SteamEngine 3.6.0
M140 S60
M105
M190 S60
M104 S205
M105
M109 S205
M82 ;absolute extrusion mode
G28 ;Home
G1 Z15.0 F6000 ;Move the platform down 15mm
;Prime the extruder
G92 E0
G1 F200 E3
G92 E0
G92 E0
G1 F1500 E-6.5
;LAYER_COUNT:26
;LAYER:0
M107
G0 F1050 X54.448 Y50.248 Z0.3
;TYPE:SKIRT
G1 F1500 E0
G1 F1200 X57.667 Y46.833 E0.23683
G1 X60.907 Y43.074 E0.48727
G1 X61.305 Y42.673 E0.51579
G1 X61.842 Y42.278 E0.54943
G1 X64.343 Y40.74 E0.6976
G1 X64.844 Y40.478 E0.72613
G1 X65.494 Y40.26 E0.76073
G1 X68.334 Y39.57 E0.90822
G1 X68.362 Y39.563 E0.90967
G1 X71.319 Y38.867 E1.06298
G1 X72.057 Y38.765 E1.10057
G1 X77.391 Y38.527 E1.37002
G1 X82.798 Y37.985 E1.64426
G1 X88.152 Y37.141 E1.91779
G1 X93.487 Y35.988 E2.19323
G1 X96.056 Y35.317 E2.32723
G1 X101.989 Y33.48 E2.64066
G1 X102.539 Y33.351 E2.66917
G1 X103.102 Y33.302 E2.69769
G1 X103.667 Y33.332 E2.72624
G1 X104.221 Y33.441 E2.75474
G1 X104.755 Y33.628 E2.78329
G1 X105.186 Y33.845 E2.80764
G1 X109.432 Y36.319 E3.05564
G1 X114.297 Y38.836 E3.33206
G1 X116.727 Y39.965 E3.46728
G1 X120.217 Y41.457 E3.65883
G1 X120.72 Y41.716 E3.68738
G1 X121.181 Y42.042 E3.71587
G1 X121.592 Y42.431 E3.74443
G1 X121.943 Y42.874 E3.77295
G1 X122.272 Y43.45 E3.80643
G1 X123.896 Y46.948 E4.00105
G1 X125.645 Y50.398 E4.19626
G1 X125.864 Y50.919 E4.22478
G1 X126.008 Y51.466 E4.25332
G1 X126.073 Y52.027 E4.28182
G1 X126.058 Y52.592 E4.31034
G1 X125.934 Y53.265 E4.34488
G1 X125.248 Y55.762 E4.47556
G1 X124.011 Y61.132 E4.75366
G1 X123.529 Y63.743 E4.88765
G1 X122.764 Y69.126 E5.16203
G1 X122.303 Y74.558 E5.43714
G1 X122.152 Y79.972 E5.71047
G1 X122.306 Y85.386 E5.9838
G1 X122.77 Y90.817 E6.25887
G1 X123.535 Y96.181 E6.53231
G1 X124.612 Y101.542 E6.80826
G1 X125.248 Y104.134 E6.94295
G1 X125.971 Y106.755 E7.08016
G1 X127.164 Y110.599 E7.28327
G1 X127.293 Y111.149 E7.31178
G1 X127.343 Y111.713 E7.34035
G1 X127.314 Y112.277 E7.36885
G1 X127.205 Y112.832 E7.3974
G1 X126.907 Y113.602 E7.43907
G1 X125.196 Y116.957 E7.62912
G1 X123.533 Y120.539 E7.82842
G1 X123.259 Y121.033 E7.85693
G1 X122.918 Y121.484 E7.88546
G1 X122.518 Y121.883 E7.91397
G1 X122.064 Y122.221 E7.94254
G1 X121.451 Y122.543 E7.97748
G1 X118.883 Y123.619 E8.11799
G1 X113.939 Y125.944 E8.3937
G1 X109.14 Y128.541 E8.66907
G1 X106.517 Y130.111 E8.82335
G1 X106.013 Y130.366 E8.85185
G1 X105.477 Y130.548 E8.88042
G1 X104.922 Y130.652 E8.90891
G1 X104.357 Y130.678 E8.93746
G1 X103.794 Y130.623 E8.966
G1 X103.251 Y130.491 E8.9942
G1 X98.942 Y129.123 E9.22235
G1 X93.664 Y127.729 E9.49784
G1 X91.033 Y127.152 E9.63377
G1 X85.689 Y126.218 E9.90755
G1 X80.292 Y125.585 E10.18178
G1 X73.291 Y125.214 E10.53558
G1 X72.571 Y125.11 E10.57229
G1 X66.773 Y123.722 E10.87316
G1 X66.234 Y123.552 E10.90168
G1 X65.622 Y123.248 E10.93616
G1 X63.172 Y121.755 E11.08095
G1 X62.712 Y121.427 E11.10946
G1 X62.213 Y120.938 E11.14472
G1 X60.135 Y118.506 E11.30615
G1 X55.686 Y113.698 E11.63673
G1 X55.332 Y113.256 E11.66531
G1 X55.007 Y112.694 E11.69807
G1 X54.707 Y112.061 E11.73342
G1 X54.502 Y111.534 E11.76196
G1 X54.373 Y110.984 E11.79047
G1 X54.323 Y110.258 E11.82719
G1 X54.407 Y106.547 E12.01452
G1 X54.274 Y100.776 E12.30583
G1 X54.304 Y100.185 E12.33569
G1 X55.01 Y94.574 E12.62109
G1 X55.379 Y89.158 E12.89504
G1 X55.442 Y83.725 E13.16924
G1 X55.197 Y78.296 E13.44349
G1 X54.648 Y72.909 E13.71676
G1 X53.79 Y67.527 E13.99179
G1 X53.088 Y64.101 E14.16828
G1 X53.014 Y63.54 E14.19683
G1 X53.009 Y63.162 E14.21591
G1 X53.128 Y59.673 E14.39209
G1 X53.055 Y53.641 E14.69651
G1 X53.088 Y53.077 E14.72503
G1 X53.201 Y52.523 E14.75356
G1 X53.483 Y51.792 E14.7931
G1 X53.786 Y51.191 E14.82706
G1 X54.076 Y50.706 E14.85558
G1 X54.448 Y50.248 E14.88536
G0 F1050 X54.739 Y50.522
G1 F1200 X57.968 Y47.098 E15.12287
G1 X61.21 Y43.335 E15.37353
G1 X61.589 Y42.956 E15.40058
G1 X62.051 Y42.618 E15.42947
G1 X64.552 Y41.08 E15.57763
G1 X65.029 Y40.834 E15.60472
G1 X65.588 Y40.649 E15.63443
G1 X68.428 Y39.959 E15.78192
G1 X68.453 Y39.953 E15.78322
G1 X71.41 Y39.257 E15.93653
G1 X72.074 Y39.165 E15.97035
G1 X77.414 Y38.927 E16.24011
G1 X82.846 Y38.382 E16.51561
G1 X88.226 Y37.534 E16.79047
G1 X93.581 Y36.377 E17.06694
G1 X96.163 Y35.703 E17.20161
G1 X102.107 Y33.862 E17.51564
G1 X102.63 Y33.742 E17.54271
G1 X103.164 Y33.701 E17.56974
G1 X103.699 Y33.74 E17.59681
G1 X104.222 Y33.858 E17.62387
G1 X104.722 Y34.052 E17.65094
G1 X104.984 Y34.19 E17.66588
G1 X109.256 Y36.679 E17.91539
G1 X114.104 Y39.187 E18.19084
G1 X116.567 Y40.331 E18.32789
G1 X120.06 Y41.825 E18.51962
G1 X120.536 Y42.072 E18.54668
G1 X120.97 Y42.387 E18.57374
G1 X121.352 Y42.763 E18.60079
G1 X121.674 Y43.192 E18.62786
G1 X121.909 Y43.619 E18.65246
G1 X123.534 Y47.119 E18.8472
G1 X125.288 Y50.579 E19.04296
G1 X125.494 Y51.074 E19.07002
G1 X125.625 Y51.594 E19.09708
G1 X125.676 Y52.128 E19.12415
G1 X125.648 Y52.663 E19.15119
G1 X125.548 Y53.159 E19.17672
G1 X124.86 Y55.663 E19.30777
G1 X123.618 Y61.057 E19.5871
G1 X123.136 Y63.665 E19.72094
G1 X122.365 Y69.09 E19.99747
G1 X121.905 Y74.513 E20.27212
G1 X121.753 Y79.973 E20.54777
G1 X121.908 Y85.431 E20.82332
G1 X122.371 Y90.855 E21.09804
G1 X123.143 Y96.263 E21.37373
G1 X124.219 Y101.619 E21.64942
G1 X124.851 Y104.198 E21.78342
G1 X125.594 Y106.891 E21.9244
G1 X126.782 Y110.718 E22.12662
G1 X126.903 Y111.24 E22.15366
G1 X126.944 Y111.775 E22.18074
G1 X126.906 Y112.31 E22.20781
G1 X126.788 Y112.833 E22.23486
G1 X126.551 Y113.42 E22.26681
G1 X124.83 Y116.796 E22.45804
G1 X123.17 Y120.37 E22.65691
G1 X122.909 Y120.838 E22.68395
G1 X122.581 Y121.263 E22.71105
G1 X122.193 Y121.633 E22.7381
G1 X121.755 Y121.942 E22.76515
G1 X121.297 Y122.174 E22.79106
G1 X118.719 Y123.255 E22.93214
G1 X113.75 Y125.591 E23.20923
G1 X108.949 Y128.188 E23.48469
G1 X106.311 Y129.768 E23.63986
G1 X105.832 Y130.008 E23.6669
G1 X105.322 Y130.175 E23.69398
G1 X104.794 Y130.264 E23.72101
G1 X104.257 Y130.273 E23.74811
G1 X103.726 Y130.203 E23.77514
G1 X103.372 Y130.11 E23.79361
G1 X99.064 Y128.742 E24.02171
G1 X93.733 Y127.334 E24.29997
G1 X91.118 Y126.761 E24.43507
G1 X85.733 Y125.819 E24.71095
G1 X80.345 Y125.187 E24.98472
G1 X73.312 Y124.815 E25.34014
G1 X72.664 Y124.721 E25.37318
G1 X66.866 Y123.333 E25.67405
G1 X66.355 Y123.17 E25.70111
G1 X65.831 Y122.906 E25.73072
G1 X63.381 Y121.413 E25.87551
G1 X62.945 Y121.101 E25.90257
G1 X62.517 Y120.678 E25.93294
G1 X60.425 Y118.231 E26.0954
G1 X55.98 Y113.426 E26.42573
G1 X55.646 Y113.006 E26.45281
G1 X55.369 Y112.523 E26.48091
G1 X55.069 Y111.89 E26.51626
G1 X54.876 Y111.389 E26.54336
G1 X54.759 Y110.866 E26.5704
G1 X54.723 Y110.267 E26.60069
G1 X54.807 Y106.547 E26.78846
G1 X54.674 Y100.767 E27.08023
G1 X54.701 Y100.235 E27.10711
G1 X55.408 Y94.617 E27.39286
G1 X55.779 Y89.172 E27.66828
G1 X55.842 Y83.711 E27.94389
G1 X55.597 Y78.274 E28.21855
G1 X55.045 Y72.858 E28.49329
G1 X54.182 Y67.449 E28.76971
G1 X53.48 Y64.02 E28.94634
G1 X53.412 Y63.488 E28.97341
G1 X53.409 Y63.175 E28.9892
G1 X53.528 Y59.682 E29.16558
G1 X53.455 Y53.636 E29.47072
G1 X53.489 Y53.101 E29.49777
G1 X53.601 Y52.577 E29.52481
G1 X53.84 Y51.972 E29.55764
G1 X54.143 Y51.371 E29.59161
G1 X54.42 Y50.912 E29.61866
G1 X54.739 Y50.522 E29.64409
G0 F1050 X55.03 Y50.797
G1 F1200 X58.258 Y47.373 E29.88156
G1 X61.513 Y43.596 E30.13319
G1 X61.872 Y43.24 E30.1587
G1 X62.261 Y42.959 E30.18292
G1 X64.762 Y41.421 E30.33109
G1 X65.212 Y41.191 E30.35659
G1 X65.683 Y41.037 E30.3816
G1 X68.523 Y40.347 E30.52909
G1 X68.545 Y40.342 E30.53023
G1 X71.502 Y39.646 E30.68353
G1 X72.092 Y39.564 E30.71359
G1 X77.454 Y39.325 E30.98445
G1 X82.897 Y38.779 E31.26052
G1 X88.302 Y37.927 E31.53665
G1 X93.67 Y36.767 E31.8138
G1 X96.269 Y36.089 E31.94935
G1 X102.225 Y34.244 E32.26401
G1 X102.719 Y34.133 E32.28956
G1 X103.223 Y34.101 E32.31505
G1 X103.726 Y34.149 E32.34055
G1 X104.216 Y34.276 E32.36609
G1 X104.783 Y34.536 E32.39757
G1 X109.058 Y37.027 E32.64726
G1 X113.94 Y39.552 E32.92464
G1 X116.406 Y40.698 E33.06187
G1 X119.902 Y42.193 E33.25375
G1 X120.35 Y42.428 E33.27928
G1 X120.755 Y42.73 E33.30477
G1 X121.107 Y43.093 E33.33029
G1 X121.398 Y43.506 E33.35579
G1 X121.546 Y43.787 E33.37181
G1 X123.172 Y47.289 E33.56666
G1 X124.931 Y50.759 E33.76299
G1 X125.124 Y51.227 E33.78854
G1 X125.24 Y51.719 E33.81405
G1 X125.277 Y52.223 E33.83955
G1 X125.234 Y52.727 E33.86508
G1 X125.163 Y53.054 E33.88197
G1 X124.466 Y55.593 E34.01484
G1 X123.229 Y60.964 E34.29298
G1 X122.74 Y63.609 E34.42872
G1 X121.969 Y69.034 E34.70525
G1 X121.505 Y74.503 E34.98224
G1 X121.353 Y79.972 E35.25834
G1 X121.509 Y85.459 E35.53535
G1 X121.973 Y90.892 E35.81053
G1 X122.748 Y96.329 E36.08768
G1 X123.828 Y101.702 E36.36426
G1 X124.472 Y104.328 E36.5007
G1 X125.203 Y106.981 E36.63958
G1 X126.4 Y110.836 E36.84328
G1 X126.511 Y111.329 E36.86879
G1 X126.544 Y111.834 E36.89433
G1 X126.496 Y112.337 E36.91983
G1 X126.37 Y112.827 E36.94536
G1 X126.195 Y113.239 E36.96795
G1 X124.463 Y116.636 E37.16037
G1 X122.807 Y120.202 E37.35879
G1 X122.559 Y120.642 E37.38428
G1 X122.244 Y121.038 E37.40982
G1 X121.871 Y121.379 E37.43532
G1 X121.449 Y121.657 E37.46082
G1 X121.142 Y121.805 E37.47802
G1 X118.554 Y122.89 E37.61964
G1 X113.575 Y125.231 E37.89729
G1 X108.742 Y127.846 E38.17461
G1 X106.106 Y129.424 E38.32965
G1 X105.653 Y129.649 E38.35517
G1 X105.17 Y129.8 E38.38071
G1 X104.67 Y129.872 E38.4062
G1 X104.165 Y129.865 E38.43169
G1 X103.493 Y129.729 E38.46629
G1 X99.166 Y128.355 E38.6954
G1 X93.846 Y126.95 E38.97308
G1 X91.181 Y126.366 E39.11076
G1 X85.797 Y125.425 E39.38658
G1 X80.381 Y124.789 E39.66178
G1 X73.333 Y124.416 E40.01796
G1 X72.757 Y124.332 E40.04733
G1 X66.959 Y122.944 E40.3482
G1 X66.478 Y122.788 E40.37372
G1 X66.039 Y122.565 E40.39857
G1 X63.589 Y121.072 E40.54336
G1 X63.179 Y120.775 E40.5689
G1 X62.821 Y120.418 E40.59442
G1 X60.728 Y117.969 E40.75699
G1 X56.273 Y113.154 E41.08804
G1 X55.96 Y112.757 E41.11355
G1 X55.73 Y112.351 E41.1371
G1 X55.43 Y111.718 E41.17245
G1 X55.251 Y111.246 E41.19792
G1 X55.147 Y110.751 E41.22345
G1 X55.123 Y110.276 E41.24745
G1 X55.207 Y106.547 E41.43568
G1 X55.074 Y100.758 E41.72791
G1 X55.098 Y100.285 E41.75181
G1 X55.806 Y94.659 E42.03796
G1 X56.179 Y89.186 E42.3148
G1 X56.242 Y83.715 E42.59091
G1 X55.995 Y78.25 E42.86699
G1 X55.439 Y72.791 E43.1439
G1 X54.575 Y67.375 E43.42068
G1 X53.872 Y63.94 E43.59762
G1 X53.809 Y63.189 E43.63565
G1 X53.928 Y59.691 E43.81228
G1 X53.855 Y53.632 E44.11808
G1 X53.889 Y53.127 E44.14362
G1 X54.002 Y52.634 E44.16914
G1 X54.198 Y52.152 E44.1954
G1 X54.501 Y51.551 E44.22937
G1 X54.763 Y51.119 E44.25486
G1 X55.03 Y50.797 E44.27597
G1 F1500 E37.77597
;MESH:sea_horse-cut1.stl
G0 F1050 X63.515 Y45.14
G0 X66.176 Y43.518
G0 X72.495 Y41.991
G0 X77.589 Y48.637
G0 X77.548 Y49.397
G0 X76.047 Y52.75
G0 X75.151 Y54.54
G0 X73.326 Y55.225
G0 X71.622 Y55.151
G0 X69.926 Y54.375
G0 X66.311 Y51.574
G0 X68.12 Y50.948
G0 X68.903 Y51.335
G0 X70.018 Y52.816
G0 X71.672 Y53.473
G0 X71.95 Y53.924
G0 X73.688 Y53.497
G0 X74.75 Y51.839
G0 X74.925 Y51.139
G0 X74.838 Y51.187
;TYPE:WALL-INNER
G1 F1500 E44.27597
G1 F1200 X74.766 Y51.161 E44.27984
G1 X74.769 Y51.07 E44.28443
G1 X74.801 Y50.327 E44.32196
G1 X74.982 Y50.04 E44.33909
G1 X74.982 Y50.327 E44.34184
G1 X74.981 Y51.079 E44.36059
G1 X74.968 Y51.187 E44.36365
G1 X74.966 Y51.202
G1 X74.886 Y51.848 E44.3965
G1 X74.819 Y52.38 E44.42356
G1 X74.77 Y52.48 E44.42918
G1 X74.245 Y53.533 E44.48856
G1 X73.946 Y53.645 E44.50467
G1 X73.759 Y53.714 E44.51473
G1 X73.125 Y53.951 E44.54889
G1 X72.131 Y53.909 E44.59909
G1 X72.068 Y53.906 E44.60228
G1 X72.135 Y53.845 E44.60353
G1 X73.042 Y53.62 E44.62689
G1 X73.665 Y53.465 E44.65127
G1 X73.772 Y53.297 E44.65973
G1 X74.431 Y52.266 E44.72148
G1 X74.491 Y52.172 E44.72702
G1 X74.712 Y51.827 E44.74078
G1 X74.838 Y51.187 E44.75347
G0 F1050 X74.925 Y51.139
G0 X74.527 Y50.065
G0 X73.802 Y48.544
G0 X72.701 Y47.316
G0 X71.16 Y46.738
G0 X69.627 Y46.613
G0 X68.15 Y46.614
G0 X66.597 Y47.259
G0 X65.437 Y48.42
G0 X64.313 Y51.415
G0 X64.188 Y52.906
G0 X64.221 Y55.618
G0 X64.552 Y58.789
G0 X64.989 Y60.293
G0 X65.74 Y61.789
G0 X66.626 Y63.053
G0 X68.077 Y64.002
G0 X69.573 Y64.686
G0 X72.533 Y65.362
G0 X74.019 Y65.488
G0 X75.527 Y65.361
G0 X77.037 Y64.731
G0 X78.249 Y64.026
G0 X89.615 Y72.74
G0 X89.643 Y72.661
G1 F1200 X89.665 Y72.644 E44.75487
G1 X89.665 Y72.762 E44.75784
G1 X89.664 Y73.103 E44.77505
G1 X89.508 Y72.762 E44.77976
G1 X89.643 Y72.661 E44.78326
G0 F1050 X89.615 Y72.74
G0 X90.347 Y70.592
G0 X91.546 Y69.38
G0 X97.787 Y67.283
G0 X97.761 Y67.379
G1 F1200 X97.556 Y67.533 E44.7962
G1 X97.295 Y67.73 E44.8127
G1 X95.916 Y67.726 E44.88229
G1 X94.389 Y68.364 E44.96581
G1 X93.001 Y68.709 E45.03798
G1 X91.366 Y69.048 E45.12225
G1 X90.014 Y70.414 E45.21924
G1 X89.764 Y71.619 E45.28135
G1 X89.665 Y71.633 E45.28639
G1 X89.665 Y72.136 E45.31178
G1 X89.665 Y72.293 E45.3197
G1 X89.665 Y72.363 E45.32323
G1 X89.665 Y72.594 E45.33489
G1 X89.42 Y72.363 E45.34272
G1 X89.433 Y72.293 E45.34489
G1 X89.303 Y72.206 E45.35131
G1 X89.123 Y72.084 E45.36229
G1 X87.963 Y70.994 E45.44262
G1 X86.354 Y70.123 E45.53495
G1 X84.743 Y69.85 E45.61741
G1 X83.172 Y69.85 E45.69669
G1 X81.611 Y70.175 E45.77715
G1 X80.15 Y70.724 E45.85592
G1 X78.647 Y71.1 E45.9341
G1 X76.925 Y72.032 E46.03292
G1 X76.925 Y72.139 E46.03832
G1 X76.787 Y72.269 E46.04788
G1 X76.569 Y72.476 E46.06306
G1 X76.464 Y72.194 E46.0719
G1 X76.356 Y71.908 E46.08733
G1 X75.838 Y70.16 E46.17933
G1 X74.044 Y69.564 E46.27473
G1 X72.531 Y69.31 E46.35216
G1 X70.988 Y69.117 E46.43063
G1 X69.382 Y69.317 E46.51231
G1 X67.855 Y69.83 E46.5936
G1 X67.825 Y69.84 E46.59519
G1 X67.633 Y69.951 E46.60639
G1 X67.678 Y69.797 E46.60722
G1 X67.756 Y69.535 E46.61792
G1 X67.585 Y69.421 E46.62829
G1 X67.312 Y68.114 E46.69567
G1 X66.494 Y66.75 E46.77593
G1 X65.435 Y65.629 E46.85376
G1 X64.409 Y64.411 E46.93412
G1 X63.002 Y63.567 E47.01692
G1 X61.406 Y63.3 E47.09859
G1 X60.681 Y63.24 E47.1353
G1 X60.265 Y63.205 E47.15637
G1 X60.257 Y63.191 E47.15718
G1 X60.01 Y63.175 E47.16967
G1 X59.274 Y63.124 E47.2069
G1 X60.025 Y62.936 E47.21955
G1 X60.25 Y62.925 E47.22652
G1 X60.649 Y62.904 E47.24231
G1 X60.71 Y62.9 E47.2454
G1 X60.631 Y62.579 E47.25689
G1 X61.582 Y61.874 E47.31663
G1 X62.409 Y60.069 E47.41682
G1 X61.943 Y58.475 E47.50063
G1 X61.88 Y56.985 E47.57589
G1 X61.242 Y55.423 E47.66104
G1 X60.17 Y54.417 E47.73523
G1 X60.121 Y54.349 E47.73946
G1 X59.644 Y54.045 E47.76801
G1 X58.987 Y53.608 E47.80783
G1 X58.974 Y53.6 E47.8086
G1 X58.935 Y53.574 E47.81096
G1 X59.183 Y53.283 E47.82507
G1 X59.196 Y53.275 E47.82583
G1 X60.387 Y52.556 E47.89603
G1 X61.637 Y51.234 E47.98785
G1 X62.094 Y49.672 E48.06998
G1 X62.662 Y48.307 E48.14459
G1 X63.458 Y47.17 E48.21464
G1 X64.351 Y46.11 E48.28458
G1 X65.536 Y45.376 E48.35493
G1 X66.667 Y44.697 E48.4215
G1 X68.006 Y44.363 E48.49114
G1 X69.475 Y44.18 E48.56585
G1 X70.573 Y43.86 E48.62356
G1 X70.728 Y43.815 E48.63171
G1 X70.825 Y43.786 E48.63682
G1 X70.753 Y43.895 E48.63846
G1 X70.794 Y44.051 E48.64428
G1 X70.873 Y44.344 E48.6596
G1 X72.257 Y45.593 E48.75368
G1 X73.402 Y46.279 E48.82104
G1 X74.208 Y47.485 E48.89424
G1 X75.32 Y48.664 E48.97603
G1 X75.321 Y48.665 E48.9761
G1 X75.706 Y48.915 E48.99927
G1 X75.499 Y49.019 E49.00317
G1 X75.498 Y49.019 E49.00322
G1 X75.262 Y49.138 E49.01656
G1 X74.938 Y49.41 E49.03791
G1 X74.867 Y49.469 E49.04257
G1 X74.928 Y49.638 E49.05164
G1 X74.982 Y49.784 E49.05949
G1 X74.982 Y49.921 E49.06641
G1 X74.92 Y49.88
G1 X74.688 Y49.726 E49.07482
G1 X74.624 Y49.571 E49.08019
G1 X74.589 Y49.486 E49.08418
G1 X74.113 Y48.347 E49.14648
G1 X72.912 Y47.01 E49.23717
G1 X71.24 Y46.383 E49.32729
G1 X69.638 Y46.252 E49.4084
G1 X68.076 Y46.253 E49.48723
G1 X66.394 Y46.951 E49.57913
G1 X65.126 Y48.221 E49.6697
G1 X63.958 Y51.334 E49.83749
G1 X63.827 Y52.898 E49.91669
G1 X63.826 Y54.399 E49.99244
G1 X63.867 Y55.369 E50.04144
G1 X63.802 Y55.384 E50.0448
G1 X64.131 Y57.357 E50.14575
G1 X64.193 Y58.847 E50.22101
G1 X64.653 Y60.428 E50.3041
G1 X65.429 Y61.974 E50.3914
G1 X66.37 Y63.319 E50.47423
G1 X67.901 Y64.317 E50.56646
G1 X69.452 Y65.027 E50.65255
G1 X70.973 Y65.407 E50.73166
G1 X72.476 Y65.72 E50.80914
