;FLAVOR:Marlin
;TIME:6447
;Filament used: 7.09835m
;Layer height: 0.3
;Generated with Cura_SteamEngine 3.6.0
M140 S60
M105
M190 S60
M104 S205
M105
M109 S205
M82 ;absolute extrusion mode
G28 ;Home
G1 Z15.0 F6000 ;Move the platform down 15mm
;Prime the extruder
G92 E0
G1 F200 E3
G92 E0
G92 E0
G1 F1500 E-6.5
;LAYER_COUNT:79
;LAYER:0
M107
G0 F1050 X38.748 Y52.379 Z0.3
;TYPE:SKIRT
G1 F1500 E0
G1 F1200 X39.042 Y52.161 E0.01847
G1 X43.351 Y49.268 E0.28039
G1 X43.777 Y49.019 E0.30529
G1 X46.025 Y47.883 E0.4324
G1 X46.423 Y47.708 E0.45434
G1 X49.294 Y46.63 E0.6091
G1 X49.836 Y46.469 E0.63764
G1 X50.335 Y46.392 E0.66312
G1 X55.627 Y45.907 E0.9313
G1 X60.993 Y45.115 E1.20503
G1 X66.363 Y44.008 E1.48173
G1 X68.934 Y43.364 E1.61548
G1 X71.546 Y42.631 E1.75239
G1 X76.728 Y40.935 E2.02755
G1 X81.799 Y38.951 E2.30235
G1 X85.26 Y37.405 E2.49364
G1 X85.791 Y37.211 E2.52217
G1 X86.345 Y37.095 E2.55073
G1 X86.909 Y37.057 E2.57926
G1 X87.472 Y37.099 E2.60775
G1 X87.902 Y37.187 E2.6299
G1 X90.899 Y37.969 E2.78621
G1 X91.548 Y38.199 E2.82096
G1 X96.266 Y40.35 E3.08263
G1 X101.308 Y42.321 E3.35583
G1 X106.482 Y44.011 E3.63051
G1 X111.766 Y45.412 E3.90638
G1 X114.36 Y45.981 E4.0404
G1 X119.755 Y46.931 E4.31685
G1 X122.869 Y47.364 E4.47551
G1 X123.328 Y47.456 E4.49914
G1 X126.742 Y48.347 E4.6772
G1 X127.012 Y48.427 E4.69141
G1 X129.661 Y49.322 E4.83251
G1 X130.001 Y49.455 E4.85094
G1 X132.494 Y50.559 E4.98853
G1 X132.666 Y50.64 E4.99813
G1 X136.78 Y52.702 E5.23036
G1 X137.394 Y53.083 E5.26683
G1 X140.034 Y55.071 E5.4336
G1 X140.286 Y55.277 E5.45003
G1 X144.275 Y58.825 E5.71944
G1 X144.703 Y59.269 E5.75057
G1 X146.391 Y61.316 E5.88446
G1 X146.854 Y62.016 E5.92681
G1 X151.322 Y70.612 E6.41571
G1 X151.547 Y71.131 E6.44426
G1 X151.696 Y71.676 E6.47277
G1 X151.767 Y72.237 E6.50131
G1 X151.758 Y72.802 E6.52983
G1 X151.67 Y73.361 E6.55838
G1 X151.592 Y73.647 E6.57335
G1 X150.702 Y76.502 E6.72426
G1 X150.496 Y77.029 E6.75282
G1 X150.218 Y77.521 E6.78134
G1 X149.873 Y77.969 E6.80987
G1 X149.482 Y78.353 E6.83753
G1 X147.907 Y79.699 E6.94208
G1 X143.875 Y83.417 E7.21886
G1 X140.108 Y87.307 E7.49213
G1 X136.559 Y91.416 E7.76613
G1 X133.247 Y95.719 E8.04016
G1 X130.175 Y100.214 E8.31492
G1 X127.378 Y104.852 E8.58824
G1 X124.841 Y109.648 E8.86205
G1 X122.587 Y114.57 E9.13525
G1 X119.686 Y122.266 E9.55031
G1 X119.531 Y122.623 E9.56995
G1 X118.767 Y124.174 E9.6572
G1 X118.535 Y124.583 E9.68093
G1 X115.766 Y128.852 E9.93772
G1 X115.528 Y129.181 E9.95821
G1 X114.419 Y130.561 E10.04755
G1 X114.298 Y130.704 E10.057
G1 X111.183 Y134.229 E10.2944
G1 X110.827 Y134.584 E10.31977
G1 X109.775 Y135.509 E10.39046
G1 X108.894 Y136.287 E10.44978
G1 X108.445 Y136.63 E10.47829
G1 X107.952 Y136.906 E10.50681
G1 X107.425 Y137.111 E10.53534
G1 X106.874 Y137.239 E10.56389
G1 X106.398 Y137.285 E10.58802
G1 X99.418 Y137.548 E10.94052
G1 X94.022 Y138.093 E11.21422
G1 X88.648 Y138.944 E11.4888
G1 X83.356 Y140.091 E11.76206
G1 X80.75 Y140.773 E11.898
G1 X75.47 Y142.393 E12.17672
G1 X74.804 Y142.537 E12.2111
G1 X71.937 Y142.904 E12.35697
G1 X71.372 Y142.936 E12.38553
G1 X70.809 Y142.888 E12.41404
G1 X70.258 Y142.761 E12.44258
G1 X69.731 Y142.558 E12.47108
G1 X69.237 Y142.282 E12.49963
G1 X68.787 Y141.94 E12.52816
G1 X68.39 Y141.537 E12.55671
G1 X68.054 Y141.083 E12.58521
G1 X67.851 Y140.724 E12.60602
G1 X66.793 Y138.607 E12.72546
G1 X66.63 Y138.235 E12.74595
G1 X63.4 Y129.704 E13.2063
G1 X63.322 Y129.479 E13.21831
G1 X62.38 Y126.459 E13.37796
G1 X62.334 Y126.297 E13.38646
G1 X60.963 Y121.143 E13.6556
G1 X59.274 Y115.981 E13.9297
G1 X57.293 Y110.911 E14.20439
G1 X55.036 Y105.979 E14.47811
G1 X52.503 Y101.181 E14.75191
G1 X49.696 Y96.523 E15.02637
G1 X46.636 Y92.042 E15.3002
G1 X43.331 Y87.744 E15.57381
G1 X39.777 Y83.626 E15.84832
G1 X36.002 Y79.723 E16.12234
G1 X31.998 Y76.026 E16.39736
G1 X29.624 Y74.012 E16.55447
G1 X29.22 Y73.617 E16.58299
G1 X28.876 Y73.169 E16.61149
G1 X28.598 Y72.676 E16.64005
G1 X28.392 Y72.15 E16.66856
G1 X28.263 Y71.599 E16.69712
G1 X28.213 Y71.036 E16.72564
G1 X28.258 Y70.356 E16.76004
G1 X29.143 Y64.58 E17.05492
G1 X29.171 Y64.422 E17.06302
G1 X29.54 Y62.526 E17.1605
G1 X29.687 Y61.98 E17.18903
G1 X29.888 Y61.502 E17.2152
G1 X31.301 Y58.675 E17.3747
G1 X31.589 Y58.188 E17.40325
G1 X31.942 Y57.747 E17.43176
G1 X32.479 Y57.263 E17.46824
G1 X35.893 Y54.702 E17.68361
G1 X38.748 Y52.379 E17.86936
G0 F1050 X39 Y52.689
G1 F1200 X39.265 Y52.493 E17.88599
G1 X43.574 Y49.6 E18.14791
G1 X43.957 Y49.376 E18.1703
G1 X46.205 Y48.24 E18.29741
G1 X46.564 Y48.083 E18.31719
G1 X49.435 Y47.005 E18.47195
G1 X49.949 Y46.854 E18.49899
G1 X50.372 Y46.79 E18.52057
G1 X55.684 Y46.304 E18.78977
G1 X61.064 Y45.509 E19.06422
G1 X66.444 Y44.4 E19.34143
G1 X69.034 Y43.751 E19.47618
G1 X71.666 Y43.013 E19.61412
G1 X76.857 Y41.313 E19.88978
G1 X81.955 Y39.319 E20.16603
G1 X85.423 Y37.77 E20.35771
G1 X85.928 Y37.588 E20.3848
G1 X86.454 Y37.484 E20.41186
G1 X86.99 Y37.458 E20.43894
G1 X87.523 Y37.513 E20.46598
G1 X87.801 Y37.574 E20.48034
G1 X90.798 Y38.356 E20.63665
G1 X91.382 Y38.563 E20.66792
G1 X96.103 Y40.715 E20.92975
G1 X101.174 Y42.698 E21.20453
G1 X106.361 Y44.392 E21.4799
G1 X111.696 Y45.806 E21.75843
G1 X114.278 Y46.373 E21.89183
G1 X119.682 Y47.325 E22.16875
G1 X122.814 Y47.76 E22.32832
G1 X123.227 Y47.843 E22.34958
G1 X126.641 Y48.734 E22.52764
G1 X126.884 Y48.806 E22.54043
G1 X129.533 Y49.701 E22.68154
G1 X129.839 Y49.82 E22.69811
G1 X132.332 Y50.924 E22.8357
G1 X132.487 Y50.998 E22.84437
G1 X136.601 Y53.06 E23.0766
G1 X137.154 Y53.402 E23.10941
G1 X139.794 Y55.39 E23.27619
G1 X140.021 Y55.576 E23.291
G1 X144.01 Y59.124 E23.56041
G1 X144.394 Y59.524 E23.5884
G1 X146.082 Y61.571 E23.72229
G1 X146.499 Y62.201 E23.76042
G1 X150.967 Y70.797 E24.24932
G1 X151.178 Y71.29 E24.27638
G1 X151.314 Y71.808 E24.30341
G1 X151.371 Y72.342 E24.33051
G1 X151.348 Y72.878 E24.35758
G1 X151.21 Y73.528 E24.39112
G1 X150.32 Y76.383 E24.54203
G1 X150.123 Y76.882 E24.56911
G1 X149.853 Y77.346 E24.5962
G1 X149.518 Y77.765 E24.62327
G1 X149.222 Y78.049 E24.64397
G1 X147.631 Y79.408 E24.74957
G1 X143.598 Y83.127 E25.02642
G1 X139.809 Y87.041 E25.30133
G1 X136.255 Y91.155 E25.57569
G1 X132.915 Y95.495 E25.85206
G1 X129.848 Y99.983 E26.12638
G1 X127.024 Y104.664 E26.40227
G1 X124.481 Y109.473 E26.6768
G1 X122.222 Y114.406 E26.9506
G1 X119.312 Y122.125 E27.36691
G1 X119.172 Y122.446 E27.38458
G1 X118.408 Y123.997 E27.47183
G1 X118.199 Y124.365 E27.49319
G1 X115.43 Y128.634 E27.74998
G1 X115.216 Y128.93 E27.76841
G1 X114.107 Y130.31 E27.85775
G1 X113.999 Y130.439 E27.86624
G1 X110.884 Y133.964 E28.10364
G1 X110.563 Y134.284 E28.12651
G1 X109.511 Y135.209 E28.19721
G1 X108.629 Y135.987 E28.25656
G1 X108.202 Y136.311 E28.28361
G1 X107.731 Y136.568 E28.31069
G1 X107.228 Y136.752 E28.33772
G1 X106.702 Y136.859 E28.3648
G1 X106.383 Y136.885 E28.38096
G1 X99.393 Y137.148 E28.73396
G1 X93.972 Y137.695 E29.00892
G1 X88.572 Y138.551 E29.28483
G1 X83.267 Y139.701 E29.55877
G1 X80.644 Y140.387 E29.69559
G1 X75.352 Y142.011 E29.97495
G1 X74.753 Y142.14 E30.00587
G1 X71.886 Y142.507 E30.15173
G1 X71.351 Y142.535 E30.17877
G1 X70.817 Y142.484 E30.20584
G1 X70.297 Y142.353 E30.2329
G1 X69.801 Y142.147 E30.26001
G1 X69.343 Y141.87 E30.28702
G1 X68.93 Y141.527 E30.31411
G1 X68.573 Y141.127 E30.34117
G1 X68.209 Y140.545 E30.37581
G1 X67.151 Y138.428 E30.49524
G1 X67.004 Y138.094 E30.51366
G1 X63.774 Y129.563 E30.974
G1 X63.704 Y129.36 E30.98484
G1 X62.762 Y126.34 E31.14449
G1 X62.72 Y126.194 E31.15216
G1 X61.345 Y121.025 E31.42208
G1 X59.646 Y115.832 E31.69782
G1 X57.662 Y110.755 E31.9729
G1 X55.403 Y105.818 E32.24689
G1 X52.841 Y100.967 E32.52374
G1 X50.039 Y96.317 E32.79771
G1 X46.959 Y91.806 E33.07337
G1 X43.635 Y87.483 E33.34856
G1 X40.084 Y83.369 E33.62282
G1 X36.278 Y79.433 E33.89913
G1 X32.258 Y75.722 E34.17522
G1 X29.883 Y73.707 E34.3324
G1 X29.501 Y73.331 E34.35945
G1 X29.179 Y72.902 E34.38652
G1 X28.925 Y72.43 E34.41357
G1 X28.743 Y71.925 E34.44066
G1 X28.639 Y71.399 E34.46772
G1 X28.613 Y70.863 E34.4948
G1 X28.654 Y70.417 E34.5174
G1 X29.539 Y64.641 E34.81229
G1 X29.563 Y64.498 E34.81961
G1 X29.932 Y62.602 E34.91709
G1 X30.074 Y62.085 E34.94415
G1 X30.246 Y61.68 E34.96635
G1 X31.659 Y58.853 E35.12584
G1 X31.934 Y58.393 E35.15289
G1 X32.274 Y57.978 E35.17996
G1 X32.719 Y57.583 E35.20999
G1 X36.129 Y55.025 E35.42512
G1 X39 Y52.689 E35.6119
G0 F1050 X39.253 Y53
G1 F1200 X39.488 Y52.825 E35.62669
G1 X43.797 Y49.932 E35.88861
G1 X44.138 Y49.733 E35.90853
G1 X46.386 Y48.597 E36.03564
G1 X46.704 Y48.457 E36.05318
G1 X49.575 Y47.379 E36.20794
G1 X50.061 Y47.239 E36.23346
G1 X50.408 Y47.188 E36.25116
G1 X55.727 Y46.701 E36.52071
G1 X61.149 Y45.9 E36.7973
G1 X66.531 Y44.791 E37.07461
G1 X69.126 Y44.141 E37.20961
G1 X71.779 Y43.396 E37.34868
G1 X77 Y41.687 E37.62591
G1 X82.109 Y39.689 E37.90276
G1 X85.587 Y38.135 E38.095
G1 X86.063 Y37.966 E38.12049
G1 X86.56 Y37.874 E38.14599
G1 X87.066 Y37.862 E38.17154
G1 X87.7 Y37.961 E38.20392
G1 X90.697 Y38.743 E38.36023
G1 X91.216 Y38.927 E38.38802
G1 X95.955 Y41.087 E38.65084
G1 X101.031 Y43.072 E38.92589
G1 X106.255 Y44.778 E39.20323
G1 X111.577 Y46.189 E39.48108
G1 X114.192 Y46.763 E39.61619
G1 X119.642 Y47.723 E39.89546
G1 X122.759 Y48.156 E40.05427
G1 X123.126 Y48.23 E40.07317
G1 X126.54 Y49.121 E40.25123
G1 X126.756 Y49.185 E40.26259
G1 X129.405 Y50.08 E40.4037
G1 X129.677 Y50.186 E40.41843
G1 X132.17 Y51.29 E40.55603
G1 X132.308 Y51.355 E40.56373
G1 X136.422 Y53.417 E40.79596
G1 X136.913 Y53.722 E40.82513
G1 X139.553 Y55.71 E40.99191
G1 X139.755 Y55.875 E41.00507
G1 X143.744 Y59.423 E41.27448
G1 X144.086 Y59.778 E41.29936
G1 X145.774 Y61.825 E41.43325
G1 X146.144 Y62.385 E41.46712
G1 X150.612 Y70.981 E41.95602
G1 X150.809 Y71.447 E41.98156
G1 X150.931 Y71.938 E42.00709
G1 X150.973 Y72.441 E42.03256
G1 X150.935 Y72.946 E42.05812
G1 X150.828 Y73.409 E42.0821
G1 X149.938 Y76.264 E42.23302
G1 X149.75 Y76.734 E42.25856
G1 X149.49 Y77.167 E42.28405
G1 X149.165 Y77.555 E42.30959
G1 X148.962 Y77.745 E42.32362
G1 X147.369 Y79.106 E42.42936
G1 X143.323 Y82.838 E42.70714
G1 X139.519 Y86.766 E42.98309
G1 X135.935 Y90.915 E43.25977
G1 X132.591 Y95.259 E43.53642
G1 X129.51 Y99.768 E43.81202
G1 X126.682 Y104.458 E44.0884
G1 X124.118 Y109.306 E44.36516
G1 X121.849 Y114.259 E44.6401
G1 X118.937 Y121.984 E45.05672
G1 X118.814 Y122.269 E45.07238
G1 X118.05 Y123.82 E45.15964
G1 X117.864 Y124.147 E45.17862
G1 X115.095 Y128.416 E45.43541
G1 X114.904 Y128.68 E45.45185
G1 X113.795 Y130.06 E45.5412
G1 X113.699 Y130.174 E45.54872
G1 X110.584 Y133.699 E45.78611
G1 X110.299 Y133.983 E45.80642
G1 X109.247 Y134.908 E45.87711
G1 X108.365 Y135.687 E45.9365
G1 X107.96 Y135.991 E45.96205
G1 X107.513 Y136.227 E45.98756
G1 X107.035 Y136.39 E46.01305
G1 X106.367 Y136.486 E46.0471
G1 X99.354 Y136.75 E46.40127
G1 X93.924 Y137.298 E46.67669
G1 X88.497 Y138.158 E46.95398
G1 X83.173 Y139.312 E47.2289
G1 X80.523 Y140.005 E47.36713
G1 X75.235 Y141.628 E47.64627
G1 X74.702 Y141.743 E47.67379
G1 X71.835 Y142.11 E47.81965
G1 X71.33 Y142.134 E47.84517
G1 X70.828 Y142.079 E47.87065
G1 X70.34 Y141.945 E47.89619
G1 X69.88 Y141.736 E47.92169
G1 X69.458 Y141.457 E47.94722
G1 X69.086 Y141.115 E47.97272
G1 X68.772 Y140.719 E47.99823
G1 X68.567 Y140.367 E48.01878
G1 X67.509 Y138.25 E48.13822
G1 X67.378 Y137.952 E48.15464
G1 X64.148 Y129.421 E48.61499
G1 X64.086 Y129.241 E48.6246
G1 X63.144 Y126.221 E48.78424
G1 X63.107 Y126.091 E48.79106
G1 X61.728 Y120.908 E49.06173
G1 X60.031 Y115.72 E49.33719
G1 X58.031 Y110.601 E49.61454
G1 X55.752 Y105.623 E49.89083
G1 X53.199 Y100.787 E50.1668
G1 X50.368 Y96.09 E50.44356
G1 X47.289 Y91.58 E50.71914
G1 X43.94 Y87.224 E50.99643
G1 X40.375 Y83.094 E51.27176
G1 X36.563 Y79.152 E51.54849
G1 X32.518 Y75.418 E51.82631
G1 X30.142 Y73.402 E51.98356
G1 X29.783 Y73.046 E52.00907
G1 X29.486 Y72.637 E52.03458
G1 X29.256 Y72.187 E52.06008
G1 X29.1 Y71.706 E52.0856
G1 X29.021 Y71.207 E52.1111
G1 X29.049 Y70.477 E52.14796
G1 X29.934 Y64.701 E52.44285
G1 X29.956 Y64.575 E52.44931
G1 X30.325 Y62.679 E52.54679
G1 X30.46 Y62.192 E52.57229
G1 X30.604 Y61.859 E52.5906
G1 X32.017 Y59.032 E52.75009
G1 X32.278 Y58.599 E52.77561
G1 X32.604 Y58.213 E52.8011
G1 X32.959 Y57.903 E52.82489
G1 X36.394 Y55.326 E53.0416
G1 X39.253 Y53 E53.22759
G1 F1500 E46.72759
;MESH:sea_turtle-cut.stl
G0 F1050 X40.872 Y54.941
G0 X41.74 Y55.885
G0 X67.591 Y62.964
G0 X70.246 Y64.131
G0 X70.66 Y64.635
G0 X71.205 Y67.838
G0 X73.049 Y110.19
G0 X72.965 Y110.139
;TYPE:WALL-INNER
G1 F1500 E53.22759
G1 F1200 X72.811 Y109.846 E53.2443
G1 X72.724 Y109.682 E53.25367
G1 X72.818 Y109.598 E53.26003
G1 X72.477 Y109.214 E53.28595
G1 X72.298 Y108.877 E53.3052
G1 X70.999 Y106.242 E53.45346
G1 X70.923 Y106.19 E53.45811
G1 X69.39 Y104.146 E53.58704
G1 X68.166 Y102.051 E53.70949
G1 X66.952 Y99.274 E53.86244
G1 X66.437 Y96.521 E54.00378
G1 X66.437 Y93.764 E54.14291
G1 X66.896 Y91.312 E54.2688
G1 X66.938 Y91.3 E54.27101
G1 X67.045 Y90.519 E54.31079
G1 X66.999 Y90.491 E54.31351
G1 X67.158 Y87.953 E54.44184
G1 X67.152 Y85.088 E54.58642
G1 X67.499 Y82.311 E54.72766
G1 X68.324 Y79.672 E54.86719
G1 X68.332 Y79.666 E54.86769
G1 X70.149 Y73.852 E55.17509
G1 X70.38 Y73.602 E55.19227
G1 X70.243 Y73.385 E55.20522
G1 X70.73 Y70.81 E55.33747
G1 X70.748 Y70.772 E55.3396
G1 X71.1 Y67.947 E55.48326
G1 X71.166 Y67.83 E55.49004
G1 X70.607 Y64.846 E55.64325
G1 X70.622 Y64.646 E55.65337
G1 X70.232 Y64.168 E55.6845
G1 X70.031 Y64.198 E55.69476
G1 X67.659 Y63.089 E55.8269
G1 X67.573 Y62.999 E55.83318
G1 X67.147 Y62.937 E55.85491
G1 X67.099 Y62.963 E55.85766
G1 X64.139 Y62.777 E56.00733
G1 X64 Y62.909 E56.01701
G1 X61.188 Y64.138 E56.17188
G1 X60.906 Y64.337 E56.1893
G1 X60.898 Y64.393 E56.19215
G1 X58.935 Y66.195 E56.32662
G1 X56.998 Y67.487 E56.44413
G1 X56.436 Y67.726 E56.47495
G1 X56.459 Y67.817 E56.47968
G1 X54.707 Y68.838 E56.58202
G1 X49 Y71.33 E56.89628
G1 X46.209 Y72.373 E57.04664
G1 X43.45 Y72.717 E57.18695
G1 X40.843 Y72.713 E57.31852
G1 X40.832 Y72.703 E57.31927
G1 X37.806 Y72.51 E57.47229
G1 X35.091 Y72.001 E57.61169
G1 X32.854 Y70.66 E57.74331
G1 X33.508 Y66.25 E57.96829
G1 X34.025 Y63.493 E58.10985
G1 X35.341 Y60.859 E58.25844
G1 X37.582 Y59.37 E58.39423
G1 X37.587 Y59.34 E58.39576
G1 X39.575 Y57.849 E58.52117
G1 X41.729 Y55.87 E58.66878
G1 X45.962 Y53.047 E58.92555
G1 X48.074 Y51.99 E59.04473
G1 X50.807 Y50.964 E59.19205
G1 X56.429 Y50.981 E59.47577
G1 X59.213 Y51.332 E59.61738
G1 X61.991 Y52.036 E59.762
G1 X63.927 Y53.002 E59.87119
G1 X63.937 Y53.019 E59.87219
G1 X66.168 Y54.137 E59.99812
G1 X68.248 Y55.521 E60.1242
G1 X70.301 Y57.073 E60.25408
G1 X72.469 Y58.875 E60.39635
G1 X72.537 Y58.992 E60.40318
G1 X72.685 Y59.054 E60.41128
G1 X74.639 Y60.518 E60.53449
G1 X74.808 Y60.793 E60.55078
G1 X74.914 Y60.968 E60.56111
G1 X75.086 Y60.857 E60.56773
G1 X75.286 Y60.727 E60.57976
G1 X77.277 Y60.974 E60.68101
G1 X77.287 Y60.976 E60.68153
G1 X77.242 Y61.256 E60.69584
G1 X77.347 Y61.231
G1 X78.334 Y60.996 E60.74704
G1 X78.395 Y60.923 E60.75184
G1 X80.592 Y59.822 E60.87586
G1 X82.524 Y58.066 E61.00761
G1 X82.718 Y58.004 E61.01789
G1 X83.678 Y54.938 E61.18002
G1 X83.742 Y54.846 E61.18568
G1 X83.742 Y54.399 E61.20823
G1 X83.659 Y54.313 E61.21427
G1 X82.791 Y51.521 E61.36182
G1 X81.611 Y49.495 E61.48014
G1 X82.063 Y47.081 E61.60408
G1 X83.998 Y45.47 E61.73114
G1 X84.121 Y45.409 E61.73807
G1 X85.409 Y43.204 E61.86694
G1 X87.056 Y41.706 E61.97929
G1 X89.438 Y42.301 E62.10319
G1 X91.465 Y44.16 E62.24199
G1 X93.444 Y45.809 E62.37199
G1 X93.894 Y48.063 E62.48798
G1 X92.985 Y49.889 E62.59092
G1 X92.736 Y50.054 E62.60599
G1 X92.735 Y50.055 E62.60607
G1 X92.555 Y50.174 E62.61696
G1 X92.689 Y50.344 E62.62386
G1 X92.83 Y50.523 E62.63536
G1 X92.655 Y53.288 E62.77517
G1 X93.673 Y56.54 E62.94714
G1 X93.84 Y56.61 E62.95628
G1 X95.431 Y58.201 E63.06983
G1 X95.325 Y58.41 E63.08165
G1 X95.349 Y58.419
G1 X99.415 Y59.935 E63.30064
G1 X99.47 Y59.828 E63.30671
G1 X102.109 Y60.168 E63.44099
G1 X105.024 Y58.712 E63.60543
G1 X105.099 Y58.708 E63.60922
G1 X107.384 Y56.993 E63.7534
G1 X109.466 Y55.776 E63.8751
G1 X113.765 Y53.619 E64.11783
G1 X116.578 Y52.561 E64.2695
