;FLAVOR:Marlin
;TIME:4452
;Filament used: 4.12397m
;Layer height: 0.3
;Generated with Cura_SteamEngine 3.6.0
M140 S60
M105
M190 S60
M104 S205
M105
M109 S205
M82 ;absolute extrusion mode
G28 ;Home
G1 Z15.0 F6000 ;Move the platform down 15mm
;Prime the extruder
G92 E0
G1 F200 E3
G92 E0
G92 E0
G1 F1500 E-6.5
;LAYER_COUNT:50
;LAYER:0
M107
G0 F1050 X39.701 Y46.314 Z0.3
;TYPE:SKIRT
G1 F1500 E0
G1 F1200 X40.378 Y45.822 E0.04223
G1 X41.977 Y44.898 E0.13543
G1 X42.508 Y44.641 E0.1652
G1 X43.761 Y44.146 E0.23319
G1 X44.3 Y43.976 E0.26171
G1 X44.858 Y43.883 E0.29026
G1 X45.234 Y43.866 E0.30926
G1 X46.386 Y43.867 E0.36739
G1 X46.775 Y43.886 E0.38705
G1 X47.964 Y44.003 E0.44734
G1 X48.368 Y44.064 E0.46796
G1 X54.307 Y45.27 E0.77379
G1 X56.903 Y45.675 E0.90638
G1 X62.313 Y46.29 E1.18116
G1 X67.754 Y46.598 E1.45618
G1 X73.17 Y46.598 E1.7295
G1 X78.601 Y46.291 E2.00401
G1 X84.838 Y45.564 E2.3209
G1 X85.226 Y45.538 E2.34052
G1 X90.663 Y45.436 E2.61495
G1 X94.489 Y45.292 E2.80817
G1 X94.861 Y45.295 E2.82694
G1 X97.397 Y45.436 E2.95512
G1 X103.439 Y45.526 E3.26006
G1 X104.146 Y45.6 E3.29594
G1 X106.322 Y46.025 E3.40782
G1 X111.707 Y46.865 E3.68287
G1 X117.116 Y47.399 E3.95716
G1 X122.543 Y47.624 E4.23127
G1 X127.972 Y47.544 E4.50528
G1 X134.268 Y47.074 E4.82389
G1 X134.568 Y47.063 E4.83904
G1 X136.905 Y47.064 E4.95698
G1 X137.469 Y47.104 E4.98551
G1 X138.021 Y47.223 E5.01401
G1 X138.551 Y47.419 E5.04252
G1 X139.049 Y47.688 E5.07109
G1 X139.514 Y48.034 E5.10034
G1 X141.298 Y49.571 E5.21917
G1 X141.699 Y49.969 E5.24768
G1 X142.08 Y50.483 E5.27997
G1 X142.668 Y51.425 E5.33601
G1 X142.933 Y51.924 E5.36452
G1 X143.125 Y52.456 E5.39307
G1 X143.198 Y52.76 E5.40885
G1 X143.434 Y53.943 E5.46972
G1 X143.505 Y54.504 E5.49826
G1 X143.51 Y54.824 E5.51441
G1 X143.468 Y56.532 E5.60063
G1 X143.412 Y57.106 E5.62973
G1 X143.097 Y58.954 E5.72434
G1 X142.933 Y59.592 E5.75758
G1 X140.8 Y65.747 E6.08632
G1 X139.316 Y71.012 E6.36237
G1 X138.696 Y73.633 E6.49829
G1 X138.158 Y76.238 E6.63253
G1 X137.279 Y81.635 E6.90848
G1 X136.709 Y87.041 E7.18281
G1 X136.448 Y92.449 E7.45604
G1 X136.493 Y97.882 E7.73023
G1 X136.845 Y103.305 E8.00448
G1 X137.503 Y108.699 E8.27871
G1 X138.469 Y114.074 E8.5543
G1 X139.052 Y116.673 E8.68872
G1 X139.716 Y119.294 E8.82517
G1 X141.003 Y123.691 E9.05637
G1 X141.085 Y124.022 E9.07358
G1 X141.277 Y124.971 E9.12245
G1 X141.338 Y125.387 E9.14366
G1 X141.503 Y127.129 E9.23197
G1 X141.521 Y127.555 E9.25349
G1 X141.511 Y128.375 E9.29487
G1 X141.433 Y129.11 E9.33217
G1 X141.195 Y130.301 E9.39346
G1 X141.046 Y130.846 E9.42198
G1 X140.821 Y131.365 E9.45052
G1 X140.658 Y131.648 E9.467
G1 X140.062 Y132.595 E9.52347
G1 X139.728 Y133.051 E9.552
G1 X139.296 Y133.487 E9.58297
G1 X137.538 Y135.01 E9.70035
G1 X137.086 Y135.349 E9.72886
G1 X136.59 Y135.621 E9.75741
G1 X136.061 Y135.82 E9.78593
G1 X135.509 Y135.943 E9.81447
G1 X134.954 Y135.987 E9.84257
G1 X133.258 Y136.002 E9.92816
G1 X132.947 Y135.992 E9.94386
G1 X126.004 Y135.512 E10.29508
G1 X120.556 Y135.431 E10.57005
G1 X115.126 Y135.657 E10.84431
G1 X109.681 Y136.194 E11.12043
G1 X107.076 Y136.564 E11.25321
G1 X102.16 Y137.455 E11.50534
G1 X101.475 Y137.519 E11.54006
G1 X98.259 Y137.543 E11.70236
G1 X91.553 Y137.765 E12.04096
G1 X91.199 Y137.761 E12.05883
G1 X88.794 Y137.628 E12.18038
G1 X82.619 Y137.448 E12.49214
G1 X82.245 Y137.42 E12.51107
G1 X77.957 Y136.889 E12.72912
G1 X72.547 Y136.507 E13.00281
G1 X67.096 Y136.43 E13.27793
G1 X61.685 Y136.661 E13.55124
G1 X56.297 Y137.197 E13.82449
G1 X50.893 Y138.046 E14.10055
G1 X46.235 Y139.011 E14.34061
G1 X45.595 Y139.09 E14.37315
G1 X43.38 Y139.185 E14.48504
G1 X42.815 Y139.17 E14.51356
G1 X42.258 Y139.074 E14.54208
G1 X41.805 Y138.935 E14.566
G1 X40.871 Y138.585 E14.61633
G1 X40.316 Y138.327 E14.64722
G1 X38.425 Y137.265 E14.75667
G1 X37.953 Y136.954 E14.78519
G1 X37.53 Y136.579 E14.81372
G1 X37.163 Y136.149 E14.84225
G1 X36.985 Y135.886 E14.85828
G1 X36.391 Y134.929 E14.91512
G1 X36.128 Y134.429 E14.94363
G1 X35.938 Y133.897 E14.97214
G1 X35.87 Y133.614 E14.98682
G1 X35.046 Y129.548 E15.19619
G1 X34.994 Y129.225 E15.2127
G1 X34.508 Y125.13 E15.4208
G1 X34.483 Y124.493 E15.45298
G1 X34.597 Y121.746 E15.59172
G1 X34.608 Y121.572 E15.60052
G1 X34.778 Y119.58 E15.70141
G1 X34.831 Y119.192 E15.72118
G1 X35.621 Y114.926 E15.94012
G1 X35.677 Y114.671 E15.9533
G1 X37.433 Y107.746 E16.31383
G1 X37.966 Y105.1 E16.45004
G1 X38.417 Y102.478 E16.58431
G1 X39.113 Y97.07 E16.85947
G1 X39.5 Y91.652 E17.13359
G1 X39.58 Y86.219 E17.4078
G1 X39.354 Y80.789 E17.68206
G1 X38.821 Y75.383 E17.9562
G1 X37.979 Y69.998 E18.23126
G1 X37.05 Y65.33 E18.47145
G1 X37.001 Y65.023 E18.48714
G1 X36.634 Y61.95 E18.64332
G1 X36.608 Y61.606 E18.66073
G1 X36.492 Y58.049 E18.84033
G1 X36.518 Y57.442 E18.87099
G1 X36.85 Y54.675 E19.01163
G1 X36.897 Y54.379 E19.02675
G1 X37.866 Y49.462 E19.27967
G1 X38.015 Y48.916 E19.30823
G1 X38.238 Y48.397 E19.33673
G1 X38.39 Y48.13 E19.35224
G1 X38.978 Y47.18 E19.40862
G1 X39.309 Y46.721 E19.43718
G1 X39.701 Y46.314 E19.4657
G0 F1050 X40.01 Y46.575
G1 F1200 X40.578 Y46.168 E19.50096
G1 X42.177 Y45.244 E19.59416
G1 X42.655 Y45.013 E19.62095
G1 X43.908 Y44.518 E19.68894
G1 X44.42 Y44.358 E19.71601
G1 X44.95 Y44.277 E19.74307
G1 X45.234 Y44.266 E19.75741
G1 X46.386 Y44.267 E19.81554
G1 X46.736 Y44.284 E19.83323
G1 X47.925 Y44.401 E19.89352
G1 X48.288 Y44.456 E19.91205
G1 X54.232 Y45.663 E20.21814
G1 X56.843 Y46.07 E20.35149
G1 X62.298 Y46.69 E20.62855
G1 X67.732 Y46.998 E20.90322
G1 X73.193 Y46.998 E21.17881
G1 X78.618 Y46.692 E21.45302
G1 X84.884 Y45.961 E21.77138
G1 X85.233 Y45.938 E21.78903
G1 X90.686 Y45.836 E22.06427
G1 X94.504 Y45.692 E22.25708
G1 X94.839 Y45.695 E22.27399
G1 X97.369 Y45.836 E22.40186
G1 X103.433 Y45.926 E22.70792
G1 X104.069 Y45.993 E22.74019
G1 X106.236 Y46.416 E22.85161
G1 X111.659 Y47.262 E23.1286
G1 X117.094 Y47.798 E23.40421
G1 X122.532 Y48.025 E23.67888
G1 X127.991 Y47.944 E23.9544
G1 X134.298 Y47.473 E24.27357
G1 X134.568 Y47.463 E24.2872
G1 X136.905 Y47.464 E24.40514
G1 X137.439 Y47.504 E24.43216
G1 X137.962 Y47.623 E24.45923
G1 X138.462 Y47.819 E24.48633
G1 X138.926 Y48.086 E24.51335
G1 X139.253 Y48.337 E24.53415
G1 X141.037 Y49.874 E24.65299
G1 X141.416 Y50.253 E24.68004
G1 X141.741 Y50.695 E24.70772
G1 X142.329 Y51.637 E24.76376
G1 X142.578 Y52.112 E24.79083
G1 X142.805 Y52.839 E24.82926
G1 X143.041 Y54.022 E24.89014
G1 X143.11 Y54.814 E24.93026
G1 X143.068 Y56.522 E25.01648
G1 X143.018 Y57.039 E25.04269
G1 X142.703 Y58.887 E25.1373
G1 X142.555 Y59.461 E25.16721
G1 X140.417 Y65.628 E25.4966
G1 X138.931 Y70.903 E25.77317
G1 X138.309 Y73.532 E25.90951
G1 X137.761 Y76.185 E26.04622
G1 X136.882 Y81.583 E26.32222
G1 X136.311 Y86.997 E26.59695
G1 X136.048 Y92.45 E26.87246
G1 X136.093 Y97.912 E27.14811
G1 X136.444 Y103.326 E27.4219
G1 X137.108 Y108.767 E27.69852
G1 X138.074 Y114.14 E27.97402
G1 X138.658 Y116.745 E28.10874
G1 X139.338 Y119.427 E28.24837
G1 X140.619 Y123.804 E28.47853
G1 X140.693 Y124.101 E28.49397
G1 X140.885 Y125.05 E28.54283
G1 X140.94 Y125.425 E28.56196
G1 X141.105 Y127.167 E28.65027
G1 X141.121 Y127.55 E28.66961
G1 X141.111 Y128.37 E28.711
G1 X141.041 Y129.031 E28.74454
G1 X140.803 Y130.222 E28.80583
G1 X140.659 Y130.739 E28.83292
G1 X140.32 Y131.435 E28.87198
G1 X139.724 Y132.382 E28.92845
G1 X139.405 Y132.813 E28.95551
G1 X139.034 Y133.185 E28.98203
G1 X137.276 Y134.708 E29.09941
G1 X136.846 Y135.028 E29.12645
G1 X136.373 Y135.28 E29.1535
G1 X135.867 Y135.46 E29.1806
G1 X135.341 Y135.562 E29.20764
G1 X134.951 Y135.587 E29.22737
G1 X133.255 Y135.602 E29.31296
G1 X132.975 Y135.593 E29.3271
G1 X126.019 Y135.112 E29.67897
G1 X120.545 Y135.03 E29.95525
G1 X115.106 Y135.258 E30.22997
G1 X109.633 Y135.797 E30.5075
G1 X106.997 Y136.171 E30.64186
G1 X102.088 Y137.061 E30.89363
G1 X101.472 Y137.119 E30.92486
G1 X98.242 Y137.143 E31.08787
G1 X91.539 Y137.365 E31.42632
G1 X91.221 Y137.362 E31.44237
G1 X88.789 Y137.228 E31.56529
G1 X82.631 Y137.048 E31.87619
G1 X82.294 Y137.023 E31.89324
G1 X77.997 Y136.491 E32.11174
G1 X72.562 Y136.107 E32.38671
G1 X67.102 Y136.03 E32.66227
G1 X61.645 Y136.263 E32.93791
G1 X56.231 Y136.802 E33.21248
G1 X50.832 Y137.65 E33.48829
G1 X46.154 Y138.619 E33.72937
G1 X45.578 Y138.691 E33.75867
G1 X43.363 Y138.786 E33.87055
G1 X42.827 Y138.769 E33.89762
G1 X42.3 Y138.672 E33.92466
G1 X41.946 Y138.56 E33.94339
G1 X41.012 Y138.21 E33.99373
G1 X40.512 Y137.978 E34.02155
G1 X38.621 Y136.916 E34.131
G1 X38.174 Y136.619 E34.15808
G1 X37.777 Y136.259 E34.18512
G1 X37.325 Y135.676 E34.22235
G1 X36.731 Y134.719 E34.2792
G1 X36.483 Y134.243 E34.30628
G1 X36.262 Y133.535 E34.34371
G1 X35.438 Y129.469 E34.55307
G1 X35.391 Y129.178 E34.56795
G1 X34.905 Y125.083 E34.77606
G1 X34.883 Y124.51 E34.80499
G1 X34.997 Y121.763 E34.94374
G1 X35.007 Y121.606 E34.95168
G1 X35.177 Y119.614 E35.05257
G1 X35.224 Y119.264 E35.07039
G1 X36.014 Y114.998 E35.28934
G1 X36.064 Y114.769 E35.30117
G1 X37.826 Y107.822 E35.66285
G1 X38.358 Y105.181 E35.79881
G1 X38.81 Y102.547 E35.93368
G1 X39.512 Y97.097 E36.21098
G1 X39.899 Y91.669 E36.4856
G1 X39.981 Y86.208 E36.76123
G1 X39.753 Y80.769 E37.03595
G1 X39.218 Y75.336 E37.31145
G1 X38.373 Y69.928 E37.58768
G1 X37.442 Y65.252 E37.82829
G1 X37.398 Y64.976 E37.84239
G1 X37.031 Y61.903 E37.99857
G1 X37.008 Y61.593 E38.01426
G1 X36.892 Y58.036 E38.19386
G1 X36.916 Y57.49 E38.22144
G1 X37.248 Y54.723 E38.36208
G1 X37.29 Y54.456 E38.37572
G1 X38.259 Y49.539 E38.62863
G1 X38.402 Y49.022 E38.6557
G1 X38.73 Y48.34 E38.69389
G1 X39.318 Y47.39 E38.75028
G1 X39.633 Y46.957 E38.7773
G1 X40.01 Y46.575 E38.80438
G0 F1050 X40.317 Y46.838
G1 F1200 X40.778 Y46.514 E38.83282
G1 X42.377 Y45.59 E38.92602
G1 X42.802 Y45.385 E38.94983
G1 X44.055 Y44.89 E39.01782
G1 X44.539 Y44.742 E39.04336
G1 X45.234 Y44.666 E39.07864
G1 X46.386 Y44.667 E39.13678
G1 X46.696 Y44.682 E39.15244
G1 X47.885 Y44.799 E39.21273
G1 X48.209 Y44.848 E39.22927
G1 X54.157 Y46.056 E39.53556
G1 X56.786 Y46.466 E39.66984
G1 X62.266 Y47.089 E39.94817
G1 X67.727 Y47.398 E40.22421
G1 X73.199 Y47.398 E40.50035
G1 X78.669 Y47.089 E40.77684
G1 X84.93 Y46.359 E41.09494
G1 X85.241 Y46.338 E41.11067
G1 X90.662 Y46.236 E41.38429
G1 X94.519 Y46.091 E41.57907
G1 X94.817 Y46.094 E41.59411
G1 X97.366 Y46.236 E41.72295
G1 X103.427 Y46.326 E42.02885
G1 X103.993 Y46.385 E42.05757
G1 X106.181 Y46.812 E42.17007
G1 X111.61 Y47.659 E42.44736
G1 X117.074 Y48.198 E42.72444
G1 X122.521 Y48.425 E42.99957
G1 X128.01 Y48.343 E43.2766
G1 X134.328 Y47.872 E43.59633
G1 X134.567 Y47.863 E43.6084
G1 X136.904 Y47.864 E43.72633
G1 X137.408 Y47.904 E43.75185
G1 X137.9 Y48.023 E43.77739
G1 X138.366 Y48.218 E43.80288
G1 X138.992 Y48.64 E43.84098
G1 X140.776 Y50.177 E43.95982
G1 X141.131 Y50.536 E43.9853
G1 X141.402 Y50.907 E44.00848
G1 X141.99 Y51.849 E44.06452
G1 X142.223 Y52.297 E44.09001
G1 X142.413 Y52.917 E44.12273
G1 X142.649 Y54.1 E44.18361
G1 X142.71 Y54.805 E44.21932
G1 X142.668 Y56.513 E44.30554
G1 X142.624 Y56.972 E44.32881
G1 X142.309 Y58.82 E44.42341
G1 X142.178 Y59.33 E44.44999
G1 X140.032 Y65.521 E44.78066
G1 X138.545 Y70.8 E45.05743
G1 X137.914 Y73.464 E45.19559
G1 X137.367 Y76.113 E45.33209
G1 X136.486 Y81.528 E45.60895
G1 X135.912 Y86.971 E45.88516
G1 X135.648 Y92.434 E46.16117
G1 X135.693 Y97.923 E46.43819
G1 X136.047 Y103.381 E46.71421
G1 X136.71 Y108.817 E46.99057
G1 X137.679 Y114.202 E47.26669
G1 X138.276 Y116.868 E47.40456
G1 X138.949 Y119.521 E47.54269
G1 X140.235 Y123.916 E47.77378
G1 X140.3 Y124.18 E47.7875
G1 X140.492 Y125.129 E47.83636
G1 X140.542 Y125.462 E47.85336
G1 X140.707 Y127.204 E47.94166
G1 X140.721 Y127.545 E47.95888
G1 X140.711 Y128.365 E48.00027
G1 X140.649 Y128.953 E48.03011
G1 X140.411 Y130.144 E48.0914
G1 X140.273 Y130.63 E48.11689
G1 X139.981 Y131.221 E48.15016
G1 X139.385 Y132.168 E48.20663
G1 X139.083 Y132.574 E48.23216
G1 X138.772 Y132.883 E48.25429
G1 X137.014 Y134.406 E48.37167
G1 X136.607 Y134.705 E48.39716
G1 X136.158 Y134.937 E48.42266
G1 X135.678 Y135.096 E48.44818
G1 X134.947 Y135.187 E48.48535
G1 X133.251 Y135.202 E48.57095
G1 X133.002 Y135.194 E48.58352
G1 X126.034 Y134.712 E48.936
G1 X120.534 Y134.63 E49.21359
G1 X115.085 Y134.858 E49.48882
G1 X109.584 Y135.4 E49.76777
G1 X106.948 Y135.774 E49.90213
G1 X102.017 Y136.668 E50.15503
G1 X101.469 Y136.719 E50.1828
G1 X98.226 Y136.743 E50.34647
G1 X91.526 Y136.965 E50.68477
G1 X91.243 Y136.962 E50.69905
G1 X88.86 Y136.83 E50.8195
G1 X82.643 Y136.649 E51.13337
G1 X82.343 Y136.626 E51.14856
G1 X78.036 Y136.093 E51.36757
G1 X72.578 Y135.707 E51.6437
G1 X67.09 Y135.63 E51.92068
G1 X61.625 Y135.863 E52.19672
G1 X56.182 Y136.405 E52.47276
G1 X50.772 Y137.255 E52.74913
G1 X46.073 Y138.228 E52.99129
G1 X45.561 Y138.291 E53.01733
G1 X43.346 Y138.386 E53.12921
G1 X42.841 Y138.368 E53.15471
G1 X42.345 Y138.27 E53.18023
G1 X42.086 Y138.186 E53.19397
G1 X41.152 Y137.836 E53.2443
G1 X40.708 Y137.629 E53.26903
G1 X38.817 Y136.567 E53.37847
G1 X38.397 Y136.285 E53.404
G1 X38.027 Y135.941 E53.4295
G1 X37.665 Y135.465 E53.45968
G1 X37.071 Y134.508 E53.51652
G1 X36.839 Y134.058 E53.54207
G1 X36.654 Y133.456 E53.57385
G1 X35.83 Y129.39 E53.78322
G1 X35.788 Y129.131 E53.79646
G1 X35.302 Y125.036 E54.00456
G1 X35.283 Y124.526 E54.03032
G1 X35.397 Y121.779 E54.16907
G1 X35.406 Y121.64 E54.1761
G1 X35.576 Y119.648 E54.27699
G1 X35.617 Y119.337 E54.29282
G1 X36.407 Y115.071 E54.51176
G1 X36.452 Y114.867 E54.52231
G1 X38.215 Y107.916 E54.8842
G1 X38.751 Y105.256 E55.02113
G1 X39.208 Y102.593 E55.15749
G1 X39.909 Y97.143 E55.43479
G1 X40.299 Y91.686 E55.71088
G1 X40.381 Y86.197 E55.98791
G1 X40.153 Y80.748 E56.26314
G1 X39.615 Y75.287 E56.54007
G1 X38.764 Y69.839 E56.81833
G1 X37.835 Y65.174 E57.05838
G1 X37.796 Y64.928 E57.07095
G1 X37.429 Y61.855 E57.22713
G1 X37.408 Y61.58 E57.24105
G1 X37.292 Y58.023 E57.42065
G1 X37.313 Y57.538 E57.44515
G1 X37.645 Y54.771 E57.58579
G1 X37.682 Y54.533 E57.59794
G1 X38.651 Y49.616 E57.85085
G1 X38.788 Y49.13 E57.87633
G1 X39.07 Y48.551 E57.90883
G1 X39.658 Y47.601 E57.96522
G1 X39.957 Y47.193 E57.99074
G1 X40.317 Y46.838 E58.01626
G1 F1500 E51.51626
;MESH:trumpet-2.stl
G0 F1050 X42.942 Y48.137
G0 X43.623 Y49.226
G0 X73.413 Y65.164
G0 X74.809 Y66.728
G0 X74.71 Y66.725
;TYPE:WALL-INNER
G1 F1500 E58.01626
G1 F1200 X73.4 Y65.201 E58.11768
G1 X71.844 Y65.512 E58.19775
G1 X69.47 Y66.224 E58.32283
G1 X68.271 Y66.463 E58.38453
G1 X65.351 Y67.558 E58.54191
G1 X62.454 Y69.008 E58.7054
G1 X61.533 Y69.583 E58.76019
G1 X60.567 Y69.945 E58.81225
G1 X58.799 Y71.208 E58.9219
G1 X58.023 Y71.986 E58.97735
G1 X57.356 Y72.877 E59.03352
G1 X56.406 Y73.469 E59.09001
G1 X55.686 Y74.432 E59.15069
G1 X54.14 Y75.536 E59.24656
G1 X53.143 Y76.032 E59.30275
G1 X52.318 Y76.862 E59.36181
G1 X51.486 Y77.277 E59.40873
G1 X50.645 Y77.592 E59.45405
G1 X49.713 Y77.685 E59.50132
G1 X48.97 Y77.314 E59.54323
G1 X48.142 Y76.694 E59.59543
G1 X47.559 Y75.881 E59.64592
G1 X46.744 Y75.183 E59.70007
G1 X45.006 Y72.402 E59.86557
G1 X44.374 Y71.516 E59.92049
G1 X43.675 Y70.817 E59.97038
G1 X43.15 Y69.976 E60.02041
G1 X42.123 Y67.24 E60.16789
G1 X41.427 Y63.761 E60.34694
G1 X41.196 Y61.447 E60.46429
G1 X41.2 Y59.93 E60.54085
G1 X41.161 Y59.909 E60.54308
G1 X41.078 Y59.077 E60.58528
G1 X41.079 Y57.955 E60.6419
G1 X41.312 Y56.214 E60.73055
G1 X41.429 Y55.041 E60.79004
G1 X41.888 Y52.748 E60.90805
G1 X42.255 Y51.523 E60.97258
G1 X42.366 Y50.419 E61.02858
G1 X42.809 Y49.71 E61.07077
G1 X43.614 Y49.209 E61.11862
G1 X44.512 Y48.759 E61.16931
G1 X45.317 Y48.457 E61.2127
G1 X46.362 Y48.457 E61.26543
G1 X47.462 Y48.566 E61.32122
G1 X48.574 Y48.9 E61.37981
G1 X50.369 Y49.572 E61.47653
G1 X51.253 Y50.236 E61.53233
G1 X52.126 Y50.86 E61.58648
G1 X53.163 Y51.378 E61.64498
G1 X54.348 Y51.734 E61.70742
G1 X57.178 Y53.148 E61.86707
G1 X58.123 Y53.503 E61.91802
G1 X59.091 Y53.986 E61.97261
G1 X60.309 Y54.352 E62.03679
G1 X61.253 Y54.71 E62.08774
G1 X63.629 Y55.42 E62.21289
G1 X65.519 Y56.129 E62.31476
G1 X70.306 Y57.564 E62.56696
G1 X71.484 Y57.799 E62.62758
G1 X72.703 Y58.165 E62.69181
G1 X73.918 Y58.286 E62.75342
G1 X75.1 Y58.523 E62.81426
G1 X76.346 Y58.648 E62.87746
